;Sliced by ideaMaker 3.3.0.2343, 2019-07-16 10:28:49 UTC-0400
;Dimension: 305.000 305.000 305.000 0.400 0.400
;Plate Shape: 0
;Extruder Offset #1: 25.000 0.000
;Filament Diameter #1: 1.750
;Filament Diameter #2: 1.750
;Filament Compensation #1: 94.00
;Filament Compensation #2: 94.00
;Filament Density #1: 1240.00
;Filament Density #2: 1240.00
;Model Gap: 0.000
M221 T0 S94.00
M140 S60.00
M104 T0 S215.00
M109 T0 S215.00
T0
M190 S60.00
G21
G90
M82
M107
G28 X0 Y0
G28 Z0
G1 Z15.0 F9000.0
G92 E0
G1 F140 E29
G1 X20 Y0 F140 E30
G92 E0
G1 F9000.0
M117 Printing...
M1001
;LAYER:0
;Z:0.300
;HEIGHT:0.300
M106 S0
G1 F1200 E-1.0000
G0 F9000 X147.669 Y138.242
G0 F1500 Z0.300
;TYPE:SKIRT
;WIDTH:0.400
G1 F1200 E0.0000
G1 F1800 X148.046 Y137.840 E0.0275
G1 X148.458 Y137.470 E0.0551
G1 X148.829 Y137.183 E0.0785
G1 X149.137 Y136.979 E0.0970
G1 X149.780 Y136.628 E0.1335
G1 X150.211 Y136.447 E0.1568
G1 X150.737 Y136.270 E0.1845
G1 X151.283 Y136.138 E0.2125
G1 X151.829 Y136.056 E0.2401
G1 X152.385 Y136.022 E0.2679
G1 X152.939 Y136.036 E0.2955
G1 X153.395 Y136.080 E0.3184
G1 X154.132 Y136.229 E0.3559
G1 X154.486 Y136.334 E0.3743
G1 X154.926 Y136.501 E0.3978
G1 X155.429 Y136.735 E0.4255
G1 X155.907 Y137.010 E0.4530
G1 X156.361 Y137.326 E0.4806
G1 X156.793 Y137.686 E0.5086
G1 X157.185 Y138.077 E0.5363
G1 X157.543 Y138.503 E0.5640
G1 X157.862 Y138.957 E0.5917
G1 X158.140 Y139.436 E0.6193
G1 X158.376 Y139.938 E0.6470
G1 X158.570 Y140.467 E0.6751
G1 X158.714 Y141.002 E0.7028
G1 X158.800 Y141.445 E0.7253
G1 X158.845 Y141.812 E0.7437
G1 X158.875 Y142.387 E0.7724
G1 X158.875 Y162.603 E1.7810
G1 X158.817 Y163.415 E1.8216
G1 X158.724 Y163.957 E1.8491
G1 X158.583 Y164.494 E1.8768
G1 X158.428 Y164.944 E1.9005
G1 X158.124 Y165.602 E1.9367
G1 X157.730 Y166.248 E1.9744
G1 X157.510 Y166.545 E1.9929
G1 X157.026 Y167.093 E2.0293
G1 X156.685 Y167.410 E2.0526
G1 X156.252 Y167.756 E2.0802
G1 X155.781 Y168.068 E2.1084
G1 X155.295 Y168.332 E2.1360
G1 X154.789 Y168.553 E2.1636
G1 X154.263 Y168.730 E2.1912
G1 X153.717 Y168.862 E2.2193
G1 X153.171 Y168.944 E2.2468
G1 X152.713 Y168.979 E2.2697
G1 X152.343 Y168.981 E2.2882
G1 X151.595 Y168.918 E2.3256
G1 X151.146 Y168.834 E2.3484
G1 X150.610 Y168.693 E2.3761
G1 X150.158 Y168.537 E2.3999
G1 X149.819 Y168.391 E2.4183
G1 X149.410 Y168.178 E2.4414
G1 X148.938 Y167.888 E2.4690
G1 X148.490 Y167.557 E2.4968
G1 X148.076 Y167.190 E2.5244
G1 X147.697 Y166.790 E2.5519
G1 X147.351 Y166.356 E2.5796
G1 X147.036 Y165.879 E2.6081
G1 X146.773 Y165.391 E2.6357
G1 X146.588 Y164.980 E2.6582
G1 X146.460 Y164.633 E2.6767
G1 X146.330 Y164.183 E2.7000
G1 X146.216 Y163.640 E2.7277
G1 X146.154 Y163.173 E2.7512
G1 X146.126 Y162.614 E2.7792
G1 X146.125 Y142.397 E3.7878
G1 X146.183 Y141.585 E3.8284
G1 X146.276 Y141.043 E3.8558
G1 X146.417 Y140.506 E3.8835
G1 X146.572 Y140.056 E3.9073
G1 X146.876 Y139.398 E3.9434
G1 X147.059 Y139.076 E3.9619
G1 X147.326 Y138.678 E3.9858
G1 X147.669 Y138.242 E4.0135
G1 F1200 E3.0135
G0 F9000 X150.623 Y140.633
;TYPE:WALL-INNER
;WIDTH:0.400
G1 F1200 E4.0135
G1 F1800 X150.964 Y140.327 E4.0364
G1 X151.207 Y140.166 E4.0509
G1 X151.465 Y140.035 E4.0653
G1 X151.899 Y139.888 E4.0882
G1 X152.341 Y139.822 E4.1105
G1 X152.800 Y139.834 E4.1334
G1 X153.086 Y139.882 E4.1479
G1 X153.363 Y139.965 E4.1623
G1 X153.779 Y140.158 E4.1852
G1 X154.146 Y140.414 E4.2075
G1 X154.464 Y140.730 E4.2299
G1 X154.723 Y141.099 E4.2524
G1 X154.914 Y141.506 E4.2748
G1 X155.033 Y141.949 E4.2977
G1 X155.069 Y142.238 E4.3122
G1 X155.075 Y162.578 E5.3270
G1 X155.035 Y163.042 E5.3502
G1 X154.919 Y163.486 E5.3731
G1 X154.804 Y163.754 E5.3877
G1 X154.655 Y164.015 E5.4026
G1 X154.477 Y164.256 E5.4176
G1 X154.278 Y164.469 E5.4321
G1 X153.921 Y164.754 E5.4549
G1 X153.528 Y164.968 E5.4773
G1 X153.101 Y165.112 E5.4997
G1 X152.650 Y165.179 E5.5225
G1 X152.359 Y165.181 E5.5370
G1 X152.071 Y165.148 E5.5515
G1 X151.620 Y165.029 E5.5747
G1 X151.362 Y164.918 E5.5887
G1 X150.972 Y164.679 E5.6116
G1 X150.636 Y164.381 E5.6340
G1 X150.356 Y164.029 E5.6564
G1 X150.138 Y163.626 E5.6793
G1 X150.040 Y163.360 E5.6934
G1 X149.945 Y162.903 E5.7167
G1 X149.926 Y162.596 E5.7320
G1 X149.925 Y142.422 E6.7385
G1 X149.965 Y141.958 E6.7618
G1 X150.081 Y141.514 E6.7847
G1 X150.196 Y141.246 E6.7992
G1 X150.340 Y140.993 E6.8137
G1 X150.623 Y140.633 E6.8366
G1 F1200 E5.8366
G0 F9000 X152.144 Y154.391
G1 F1200 E6.8366
G1 F1800 X151.773 Y154.479 E6.8556
G1 X151.421 Y154.626 E6.8746
G1 X150.970 Y154.928 E6.9017
G1 X150.603 Y155.326 E6.9287
G1 X150.398 Y155.662 E6.9484
G1 X150.215 Y156.158 E6.9747
G1 X150.155 Y156.535 E6.9938
G1 X150.155 Y156.917 E7.0128
G1 X150.261 Y157.449 E7.0399
G1 X150.487 Y157.941 E7.0669
G1 X150.717 Y158.260 E7.0865
G1 X151.107 Y158.620 E7.1130
G1 X151.442 Y158.827 E7.1327
G1 X151.938 Y159.009 E7.1590
G1 X152.315 Y159.070 E7.1781
G1 X152.697 Y159.070 E7.1971
G1 X153.229 Y158.963 E7.2242
G1 X153.719 Y158.736 E7.2511
G1 X154.037 Y158.506 E7.2707
G1 X154.398 Y158.115 E7.2973
G1 X154.602 Y157.778 E7.3169
G1 X154.785 Y157.283 E7.3433
G1 X154.845 Y156.906 E7.3623
G1 X154.845 Y156.524 E7.3814
G1 X154.739 Y155.992 E7.4084
G1 X154.513 Y155.500 E7.4354
G1 X154.283 Y155.181 E7.4551
G1 X153.893 Y154.821 E7.4815
G1 X153.558 Y154.614 E7.5012
G1 X153.062 Y154.432 E7.5275
G1 X152.673 Y154.370 E7.5472
G1 X152.144 Y154.391 E7.5736
G1 F1200 E6.5736
G0 F9000 X152.144 Y160.273
G1 F1200 E7.5736
G1 F1800 X151.773 Y160.361 E7.5926
G1 X151.421 Y160.508 E7.6117
G1 X150.970 Y160.810 E7.6387
G1 X150.603 Y161.208 E7.6658
G1 X150.398 Y161.544 E7.6854
G1 X150.215 Y162.040 E7.7118
G1 X150.155 Y162.417 E7.7308
G1 X150.155 Y162.799 E7.7499
G1 X150.261 Y163.331 E7.7769
G1 X150.487 Y163.823 E7.8039
G1 X150.717 Y164.142 E7.8236
G1 X151.107 Y164.502 E7.8500
G1 X151.442 Y164.708 E7.8697
G1 X151.938 Y164.892 E7.8961
G1 X152.315 Y164.952 E7.9151
G1 X152.697 Y164.952 E7.9342
G1 X153.228 Y164.845 E7.9612
G1 X153.719 Y164.619 E7.9881
G1 X154.038 Y164.387 E8.0078
G1 X154.398 Y163.997 E8.0343
G1 X154.602 Y163.660 E8.0540
G1 X154.785 Y163.165 E8.0803
G1 X154.845 Y162.788 E8.0993
G1 X154.845 Y162.405 E8.1184
G1 X154.739 Y161.875 E8.1454
G1 X154.513 Y161.383 E8.1724
G1 X154.283 Y161.063 E8.1921
G1 X153.893 Y160.703 E8.2186
G1 X153.558 Y160.496 E8.2382
G1 X153.062 Y160.314 E8.2646
G1 X152.673 Y160.252 E8.2842
G1 X152.144 Y160.273 E8.3106
G0 F9000 X152.199 Y160.671
;TYPE:WALL-OUTER
;WIDTH:0.400
G1 F1500 X151.897 Y160.743 E8.3261
G1 X151.611 Y160.862 E8.3416
G1 X151.232 Y161.116 E8.3643
G1 X150.924 Y161.450 E8.3870
G1 X150.760 Y161.719 E8.4027
G1 X150.604 Y162.142 E8.4252
G1 X150.555 Y162.449 E8.4407
G1 X150.555 Y162.760 E8.4562
G1 X150.644 Y163.207 E8.4790
G1 X150.834 Y163.620 E8.5017
G1 X151.018 Y163.875 E8.5173
G1 X151.350 Y164.182 E8.5399
G1 X151.618 Y164.347 E8.5556
G1 X152.040 Y164.503 E8.5781
G1 X152.347 Y164.552 E8.5936
G1 X152.657 Y164.552 E8.6090
G1 X153.103 Y164.462 E8.6317
G1 X153.516 Y164.272 E8.6544
G1 X153.771 Y164.087 E8.6701
G1 X154.077 Y163.755 E8.6927
G1 X154.240 Y163.486 E8.7083
G1 X154.396 Y163.063 E8.7308
G1 X154.445 Y162.756 E8.7463
G1 X154.445 Y162.445 E8.7619
G1 X154.356 Y161.999 E8.7846
G1 X154.166 Y161.585 E8.8073
G1 X153.982 Y161.330 E8.8230
G1 X153.650 Y161.023 E8.8455
G1 X153.382 Y160.858 E8.8612
G1 X152.960 Y160.703 E8.8837
G1 X152.649 Y160.653 E8.8994
G1 X152.199 Y160.671 E8.9218
G1 F1200 E7.9218
G0 F9000 X152.347 Y158.670
G1 F1200 E8.9218
G1 F1500 X152.657 Y158.670 E8.9373
G1 X153.104 Y158.580 E8.9601
G1 X153.516 Y158.389 E8.9827
G1 X153.770 Y158.205 E8.9984
G1 X154.077 Y157.873 E9.0209
G1 X154.240 Y157.604 E9.0366
G1 X154.396 Y157.181 E9.0591
G1 X154.445 Y156.874 E9.0746
G1 X154.445 Y156.563 E9.0901
G1 X154.356 Y156.116 E9.1129
G1 X154.166 Y155.703 E9.1356
G1 X153.982 Y155.448 E9.1512
G1 X153.650 Y155.141 E9.1738
G1 X153.382 Y154.976 E9.1895
G1 X152.960 Y154.821 E9.2119
G1 X152.649 Y154.771 E9.2276
G1 X152.199 Y154.789 E9.2501
G1 X151.897 Y154.861 E9.2656
G1 X151.611 Y154.980 E9.2811
G1 X151.232 Y155.234 E9.3038
G1 X150.924 Y155.568 E9.3265
G1 X150.760 Y155.837 E9.3422
G1 X150.604 Y156.260 E9.3647
G1 X150.555 Y156.567 E9.3802
G1 X150.555 Y156.878 E9.3957
G1 X150.644 Y157.325 E9.4185
G1 X150.834 Y157.738 E9.4411
G1 X151.018 Y157.993 E9.4568
G1 X151.350 Y158.300 E9.4794
G1 X151.618 Y158.465 E9.4951
G1 X152.040 Y158.620 E9.5175
G1 X152.347 Y158.670 E9.5330
G1 F1200 E8.5330
G0 F9000 X149.526 Y162.608
G1 F1200 E9.5330
G1 F1500 X149.525 Y142.405 E10.5410
G1 X149.569 Y141.890 E10.5668
G1 X149.702 Y141.384 E10.5929
G1 X149.837 Y141.068 E10.6100
G1 X150.007 Y140.769 E10.6272
G1 X150.330 Y140.358 E10.6532
G1 X150.719 Y140.010 E10.6793
G1 X151.005 Y139.820 E10.6964
G1 X151.310 Y139.665 E10.7135
G1 X151.805 Y139.498 E10.7395
G1 X152.316 Y139.421 E10.7653
G1 X152.839 Y139.435 E10.7914
G1 X153.177 Y139.492 E10.8085
G1 X153.505 Y139.590 E10.8256
G1 X153.979 Y139.810 E10.8517
G1 X154.404 Y140.106 E10.8775
G1 X154.771 Y140.472 E10.9034
G1 X155.070 Y140.898 E10.9293
G1 X155.291 Y141.368 E10.9553
G1 X155.427 Y141.872 E10.9813
G1 X155.469 Y142.213 E10.9984
G1 X155.475 Y162.595 E12.0153
G1 X155.431 Y163.110 E12.0411
G1 X155.298 Y163.616 E12.0672
G1 X155.163 Y163.932 E12.0843
G1 X154.991 Y164.234 E12.1017
G1 X154.785 Y164.512 E12.1189
G1 X154.551 Y164.763 E12.1361
G1 X154.143 Y165.089 E12.1621
G1 X153.688 Y165.336 E12.1879
G1 X153.195 Y165.502 E12.2139
G1 X152.681 Y165.579 E12.2398
G1 X152.337 Y165.581 E12.2570
G1 X151.997 Y165.542 E12.2741
G1 X151.489 Y165.408 E12.3003
G1 X151.177 Y165.274 E12.3172
G1 X150.733 Y165.001 E12.3432
G1 X150.345 Y164.657 E12.3691
G1 X150.021 Y164.250 E12.3950
G1 X149.773 Y163.791 E12.4211
G1 X149.655 Y163.471 E12.4381
G1 X149.547 Y162.956 E12.4643
G1 X149.526 Y162.608 E12.4817
G1 F1200 E11.4817
G0 F9000 X150.458 Y160.923
;TYPE:SOLID-FILL
;WIDTH:0.400
G1 F1200 E12.4817
G1 F1800 X150.005 Y160.470 E12.5137
G1 F1200 E11.5137
G0 F9000 X150.005 Y159.905
G1 F1200 E12.5137
G1 F1800 X150.884 Y160.784 E12.5757
G0 F9000 X151.214 Y160.548
G1 F1800 X150.005 Y159.339 E12.6610
G1 F1200 E11.6610
G0 F9000 X150.005 Y158.773
G1 F1200 E12.6610
G1 F1800 X151.583 Y160.351 E12.7723
G0 F9000 X152.017 Y160.219
G1 F1800 X150.279 Y158.482 E12.8949
G1 F1200 E11.8949
G0 F9000 X150.907 Y158.544
G1 F1200 E12.8949
G1 F1800 X152.539 Y160.176 E13.0101
G1 F1200 E12.0101
G0 F9000 X153.211 Y160.282
G1 F1200 E13.0101
G1 F1800 X152.034 Y159.105 E13.0931
G1 F1200 E12.0931
G0 F9000 X152.644 Y159.149
G1 F1200 E13.0931
G1 F1800 X154.408 Y160.913 E13.2176
G0 F9000 X154.845 Y160.784
G1 F1800 X153.125 Y159.065 E13.3389
G0 F9000 X153.535 Y158.909
G1 F1800 X154.994 Y160.368 E13.4418
G1 F1200 E12.4418
G0 F9000 X154.994 Y159.802
G1 F1200 E13.4418
G1 F1800 X153.896 Y158.705 E13.5193
G0 F9000 X154.200 Y158.443
G1 F1800 X154.994 Y159.236 E13.5753
G1 F1200 E12.5753
G0 F9000 X154.994 Y158.671
G1 F1200 E13.5753
G1 F1800 X154.836 Y158.513 E13.5864
G1 F1200 E12.5864
G0 F9000 X150.089 Y154.898
G1 F1200 E13.5864
G1 F1800 X150.005 Y154.813 E13.5924
G0 F9000 X150.005 Y154.248
G1 F1800 X150.776 Y155.019 E13.6468
G0 F9000 X151.079 Y154.755
G1 F1800 X150.005 Y153.682 E13.7225
G1 F1200 E12.7225
G0 F9000 X150.005 Y153.116
G1 F1200 E13.7225
G1 F1800 X151.424 Y154.535 E13.8226
G0 F9000 X151.834 Y154.380
G1 F1800 X150.005 Y152.551 E13.9517
G1 F1200 E12.9517
G0 F9000 X150.005 Y151.985
G1 F1200 E13.9517
G1 F1800 X152.323 Y154.303 E14.1152
G1 F1200 E13.1152
G0 F9000 X152.911 Y154.326
G1 F1200 E14.1152
G1 F1800 X150.005 Y151.419 E14.3203
G1 F1200 E13.3203
G0 F9000 X150.005 Y150.854
G1 F1200 E14.3203
G1 F1800 X153.852 Y154.700 E14.5917
G1 F1200 E13.5917
G0 F9000 X154.686 Y154.969
G1 F1200 E14.5917
G1 F1800 X150.004 Y150.287 E14.9220
G1 F1200 E13.9220
G0 F9000 X150.004 Y149.722
G1 F1200 E14.9220
G1 F1800 X154.992 Y154.710 E15.2740
G1 F1200 E14.2740
G0 F9000 X154.992 Y154.144
G1 F1200 E15.2740
G1 F1800 X150.004 Y149.156 E15.6259
G1 F1200 E14.6259
G0 F9000 X150.004 Y148.590
G1 F1200 E15.6259
G1 F1800 X154.992 Y153.578 E15.9778
G1 F1200 E14.9778
G0 F9000 X154.992 Y153.012
G1 F1200 E15.9778
G1 F1800 X150.004 Y148.025 E16.3297
G1 F1200 E15.3297
G0 F9000 X150.004 Y147.459
G1 F1200 E16.3297
G1 F1800 X154.992 Y152.446 E16.6816
G1 F1200 E15.6816
G0 F9000 X154.992 Y151.880
G1 F1200 E16.6816
G1 F1800 X150.004 Y146.893 E17.0335
G1 F1200 E16.0335
G0 F9000 X150.004 Y146.327
G1 F1200 E17.0335
G1 F1800 X154.992 Y151.315 E17.3854
G1 F1200 E16.3854
G0 F9000 X154.991 Y150.748
G1 F1200 E17.3854
G1 F1800 X150.004 Y145.761 E17.7373
G1 F1200 E16.7373
G0 F9000 X150.004 Y145.195
G1 F1200 E17.7373
G1 F1800 X154.991 Y150.183 E18.0892
G1 F1200 E17.0892
G0 F9000 X154.991 Y149.617
G1 F1200 E18.0892
G1 F1800 X150.004 Y144.630 E18.4410
G1 F1200 E17.4410
G0 F9000 X150.004 Y144.064
G1 F1200 E18.4410
G1 F1800 X154.990 Y149.051 E18.7929
G1 F1200 E17.7929
G0 F9000 X154.990 Y148.485
G1 F1200 E18.7929
G1 F1800 X150.004 Y143.498 E19.1447
G1 F1200 E18.1447
G0 F9000 X150.004 Y142.933
G1 F1200 E19.1447
G1 F1800 X154.990 Y147.919 E19.4965
G1 F1200 E18.4965
G0 F9000 X154.990 Y147.353
G1 F1200 E19.4965
G1 F1800 X150.008 Y142.371 E19.8480
G1 F1200 E18.8480
G0 F9000 X150.069 Y141.867
G1 F1200 E19.8480
G1 F1800 X154.990 Y146.787 E20.1952
G1 F1200 E19.1952
G0 F9000 X154.990 Y146.221
G1 F1200 E20.1952
G1 F1800 X150.201 Y141.433 E20.5330
G0 F9000 X150.393 Y141.059
G1 F1800 X154.989 Y145.655 E20.8573
G1 F1200 E19.8573
G0 F9000 X154.989 Y145.089
G1 F1200 E20.8573
G1 F1800 X150.639 Y140.739 E21.1642
G0 F9000 X150.930 Y140.465
G1 F1800 X154.989 Y144.524 E21.4506
G1 F1200 E20.4506
G0 F9000 X154.988 Y143.957
G1 F1200 E21.4506
G1 F1800 X151.260 Y140.229 E21.7136
G0 F9000 X151.652 Y140.055
G1 F1800 X154.988 Y143.392 E21.9490
G1 F1200 E20.9490
G0 F9000 X154.988 Y142.826
G1 F1200 E21.9490
G1 F1800 X152.101 Y139.939 E22.1527
G1 F1200 E21.1527
G0 F9000 X152.638 Y139.910
G1 F1200 E22.1527
G1 F1800 X154.988 Y142.260 E22.3185
G1 F1200 E21.3185
G0 F9000 X154.842 Y141.548
G1 F1200 E22.3185
G1 F1800 X153.333 Y140.039 E22.4250
G1 F1200 E21.4250
G0 F9000 X150.065 Y161.096
;TYPE:SOLID-FILL
;WIDTH:0.400
G1 F1200 E22.4250
G1 F1800 X150.339 Y161.370 E22.4443
G1 F1200 E21.4443
G0 F9000 X154.422 Y160.928
G1 F1200 E22.4443
G1 F1800 X154.934 Y161.440 E22.4804
G1 F1200 E21.4804
G0 F9000 X150.264 Y158.466
G1 F1200 E22.4804
G1 F1800 X150.065 Y158.268 E22.4945
G1 F1200 E21.4945
G0 F9000 X154.514 Y158.191
G1 F1200 E22.4945
G1 F1800 X154.867 Y158.261 E22.5147
G1 X154.728 Y157.839 E22.5369
G1 F1200 E21.5369
G0 F9000 X150.468 Y155.277
G1 F1200 E22.5369
G1 F1800 X150.095 Y155.186 E22.5611
G1 X150.258 Y155.632 E22.5848
G1 F1200 E21.5848
G0 F9000 X154.702 Y154.985
G1 F1200 E22.5848
G1 F1800 X154.932 Y155.215 E22.6010
;LAYER:1
;Z:0.550
;HEIGHT:0.250
M106 S255
G0 F1500 Z0.550
G0 F9000 X154.582 Y155.622
;TYPE:WALL-INNER
;WIDTH:0.400
G1 F1544 X154.290 Y155.188 E22.6228
G1 X153.893 Y154.821 E22.6452
G1 X153.558 Y154.614 E22.6616
G1 X153.061 Y154.432 E22.6836
G1 X152.696 Y154.374 E22.6990
G1 X152.468 Y154.365 E22.7085
G1 X152.128 Y154.394 E22.7227
G1 X151.741 Y154.490 E22.7392
G1 X151.277 Y154.707 E22.7605
G1 X150.947 Y154.951 E22.7776
G1 X150.602 Y155.326 E22.7988
G1 X150.398 Y155.663 E22.8152
G1 X150.215 Y156.158 E22.8371
G1 X150.155 Y156.538 E22.8531
G1 X150.157 Y156.940 E22.8698
G1 X150.269 Y157.471 E22.8924
G1 X150.489 Y157.943 E22.9140
G1 X150.731 Y158.275 E22.9311
G1 X151.108 Y158.621 E22.9524
G1 X151.442 Y158.827 E22.9687
G1 X151.938 Y159.009 E22.9906
G1 X152.317 Y159.070 E23.0066
G1 X152.720 Y159.068 E23.0234
G1 X153.250 Y158.956 E23.0459
G1 X153.720 Y158.735 E23.0675
G1 X154.037 Y158.506 E23.0837
G1 X154.398 Y158.115 E23.1059
