;Sliced by ideaMaker 3.3.0.2343, 2019-07-16 12:01:18 UTC-0400
;Dimension: 305.000 305.000 305.000 0.400 0.400
;Plate Shape: 0
;Extruder Offset #1: 25.000 0.000
;Filament Diameter #1: 1.750
;Filament Diameter #2: 1.750
;Filament Compensation #1: 94.00
;Filament Compensation #2: 94.00
;Filament Density #1: 1240.00
;Filament Density #2: 1240.00
;Model Gap: 0.000
M221 T0 S94.00
M140 S60.00
M104 T0 S215.00
M109 T0 S215.00
T0
M190 S60.00
G21
G90
M82
M107
G28 X0 Y0
G28 Z0
G1 Z15.0 F9000.0
G92 E0
G1 F140 E29
G1 X20 Y0 F140 E30
G92 E0
G1 F9000.0
M117 Printing...
M1001
;LAYER:0
;Z:0.300
;HEIGHT:0.300
M106 S0
G1 F1200 E-1.0000
G0 F9000 X156.530 Y134.552
G0 F1500 Z0.300
G0 F9000 X156.309 Y134.890
;TYPE:SKIRT
;WIDTH:0.400
G1 F1200 E0.0000
G1 F1800 X156.530 Y134.552 E0.0201
G1 X157.059 Y133.964 E0.0596
G1 X157.410 Y133.679 E0.0822
G1 X157.935 Y133.374 E0.1125
G1 X158.349 Y133.190 E0.1351
G1 X158.784 Y133.067 E0.1576
G1 X159.232 Y133.006 E0.1802
G1 X159.684 Y133.010 E0.2027
G1 X160.132 Y133.077 E0.2253
G1 X160.565 Y133.206 E0.2479
G1 X161.039 Y133.431 E0.2740
G1 X165.432 Y135.974 E0.5273
G1 X165.807 Y136.227 E0.5498
G1 X166.142 Y136.531 E0.5724
G1 X166.430 Y136.879 E0.5950
G1 X166.667 Y137.265 E0.6175
G1 X166.847 Y137.679 E0.6401
G1 X166.967 Y138.116 E0.6627
G1 X167.030 Y138.607 E0.6874
G1 X167.039 Y139.059 E0.7099
G1 X167.019 Y139.288 E0.7214
G1 X166.917 Y139.853 E0.7500
G1 X166.729 Y140.382 E0.7781
G1 X166.531 Y140.791 E0.8007
G1 X157.053 Y157.250 E1.7483
G1 X156.733 Y157.852 E1.7823
G1 X156.459 Y158.465 E1.8158
G1 X156.238 Y159.068 E1.8478
G1 X156.056 Y159.692 E1.8803
G1 X155.917 Y160.325 E1.9126
G1 X155.820 Y160.980 E1.9456
G1 X155.769 Y161.625 E1.9779
G1 X155.760 Y162.293 E2.0112
G1 X155.781 Y163.353 E2.0641
G1 X155.766 Y163.683 E2.0806
G1 X155.655 Y164.617 E2.1275
G1 X155.533 Y165.205 E2.1575
G1 X155.265 Y166.102 E2.2042
G1 X154.964 Y166.843 E2.2441
G1 X154.526 Y167.675 E2.2910
G1 X154.009 Y168.446 E2.3373
G1 X153.414 Y169.164 E2.3839
G1 X152.993 Y169.591 E2.4138
G1 X152.736 Y169.824 E2.4311
G1 X152.006 Y170.398 E2.4774
G1 X151.505 Y170.727 E2.5073
G1 X150.679 Y171.172 E2.5541
G1 X149.818 Y171.526 E2.6006
G1 X149.290 Y171.695 E2.6282
G1 X148.456 Y171.885 E2.6709
G1 X148.130 Y171.938 E2.6874
G1 X147.534 Y172.003 E2.7173
G1 X146.603 Y172.025 E2.7637
G1 X146.256 Y172.008 E2.7811
G1 X145.329 Y171.894 E2.8277
G1 X144.743 Y171.770 E2.8576
G1 X143.848 Y171.499 E2.9042
G1 X143.338 Y171.299 E2.9315
G1 X142.574 Y170.923 E2.9740
G1 X141.771 Y170.421 E3.0213
G1 X141.040 Y169.852 E3.0675
G1 X140.368 Y169.205 E3.1140
G1 X140.136 Y168.947 E3.1313
G1 X139.759 Y168.479 E3.1613
G1 X139.241 Y167.713 E3.2075
G1 X139.070 Y167.417 E3.2245
G1 X138.665 Y166.580 E3.2709
G1 X138.345 Y165.698 E3.3177
G1 X138.190 Y165.117 E3.3477
G1 X138.121 Y164.788 E3.3645
G1 X138.028 Y164.195 E3.3944
G1 X137.975 Y163.654 E3.4215
G1 X137.964 Y162.803 E3.4640
G1 X138.045 Y161.865 E3.5110
G1 X138.224 Y160.943 E3.5578
G1 X138.369 Y160.419 E3.5850
G1 X138.668 Y159.614 E3.6278
G1 X139.077 Y158.775 E3.6744
G1 X139.573 Y157.980 E3.7211
G1 X139.899 Y157.539 E3.7485
G1 X140.206 Y157.174 E3.7723
G1 X140.792 Y156.575 E3.8141
G1 X141.050 Y156.342 E3.8314
G1 X141.517 Y155.966 E3.8613
G1 X141.784 Y155.774 E3.8777
G1 X142.523 Y155.309 E3.9213
G1 X143.105 Y154.999 E3.9542
G1 X143.698 Y154.646 E3.9886
G1 X144.229 Y154.280 E4.0208
G1 X144.755 Y153.861 E4.0544
G1 X145.220 Y153.434 E4.0859
G1 X145.662 Y152.971 E4.1178
G1 X146.080 Y152.469 E4.1504
G1 X146.470 Y151.927 E4.1837
G1 X146.836 Y151.337 E4.2183
G1 X156.309 Y134.890 E5.1652
G1 F1200 E4.1652
G0 F9000 X159.523 Y136.944
;TYPE:WALL-INNER
;WIDTH:0.400
G1 F1200 E5.1652
G1 F1800 X163.152 Y139.045 E5.3745
G1 X153.729 Y155.407 E6.3165
G1 X153.314 Y156.187 E6.3605
G1 X152.937 Y157.033 E6.4067
G1 X152.629 Y157.872 E6.4513
G1 X152.370 Y158.757 E6.4973
G1 X152.175 Y159.647 E6.5428
G1 X152.042 Y160.546 E6.5881
G1 X151.970 Y161.453 E6.6335
G1 X151.959 Y162.339 E6.6777
G1 X151.981 Y163.346 E6.7280
G1 X151.928 Y163.876 E6.7546
G1 X151.819 Y164.402 E6.7814
G1 X151.558 Y165.159 E6.8213
G1 X151.313 Y165.645 E6.8485
G1 X151.022 Y166.097 E6.8753
G1 X150.685 Y166.518 E6.9022
G1 X150.309 Y166.900 E6.9289
G1 X149.894 Y167.238 E6.9556
G1 X149.445 Y167.533 E6.9824
G1 X148.967 Y167.779 E7.0092
G1 X148.460 Y167.977 E7.0364
G1 X148.220 Y168.049 E7.0489
G1 X147.687 Y168.164 E7.0761
G1 X147.153 Y168.222 E7.1029
G1 X146.617 Y168.225 E7.1296
G1 X146.084 Y168.169 E7.1564
G1 X145.560 Y168.058 E7.1831
G1 X145.040 Y167.890 E7.2104
G1 X144.806 Y167.794 E7.2230
G1 X144.322 Y167.549 E7.2500
G1 X143.873 Y167.255 E7.2768
G1 X143.455 Y166.917 E7.3036
G1 X143.075 Y166.538 E7.3304
G1 X142.737 Y166.119 E7.3573
G1 X142.445 Y165.669 E7.3840
G1 X142.201 Y165.189 E7.4109
G1 X142.009 Y164.687 E7.4377
G1 X141.870 Y164.168 E7.4645
G1 X141.785 Y163.628 E7.4918
G1 X141.765 Y163.374 E7.5045
G1 X141.764 Y162.829 E7.5317
G1 X141.821 Y162.296 E7.5584
G1 X141.935 Y161.761 E7.5857
G1 X142.007 Y161.518 E7.5984
G1 X142.203 Y161.009 E7.6256
G1 X142.447 Y160.530 E7.6524
G1 X142.741 Y160.079 E7.6793
G1 X143.080 Y159.662 E7.7061
G1 X143.459 Y159.282 E7.7329
G1 X143.876 Y158.945 E7.7596
G1 X144.332 Y158.650 E7.7867
G1 X144.982 Y158.304 E7.8234
G1 X145.747 Y157.849 E7.8678
G1 X146.503 Y157.328 E7.9136
G1 X147.220 Y156.755 E7.9594
G1 X147.879 Y156.152 E8.0040
G1 X148.502 Y155.499 E8.0490
G1 X149.086 Y154.796 E8.0946
G1 X149.629 Y154.042 E8.1410
G1 X150.097 Y153.291 E8.1851
G1 X159.523 Y136.944 E9.1266
G1 F1200 E8.1266
G0 F9000 X147.835 Y161.118
G1 F1200 E9.1266
G1 F1800 X147.426 Y160.965 E9.1483
G1 X146.989 Y160.898 E9.1704
G1 X146.550 Y160.918 E9.1923
G1 X146.127 Y161.026 E9.2141
G1 X145.729 Y161.214 E9.2361
G1 X145.379 Y161.480 E9.2580
G1 X145.088 Y161.808 E9.2799
G1 X144.861 Y162.199 E9.3024
G1 X144.726 Y162.604 E9.3237
G1 X144.670 Y163.038 E9.3456
G1 X144.701 Y163.476 E9.3675
G1 X144.818 Y163.901 E9.3895
G1 X145.017 Y164.291 E9.4113
G1 X145.288 Y164.636 E9.4332
G1 X145.623 Y164.919 E9.4551
G1 X145.992 Y165.123 E9.4761
G1 X146.228 Y165.212 E9.4887
G1 X146.643 Y165.297 E9.5098
G1 X147.082 Y165.299 E9.5317
G1 X147.513 Y165.214 E9.5536
G1 X147.920 Y165.045 E9.5756
G1 X148.282 Y164.797 E9.5975
G1 X148.589 Y164.485 E9.6194
G1 X148.830 Y164.115 E9.6414
G1 X148.990 Y163.706 E9.6633
G1 X149.067 Y163.276 E9.6851
G1 X149.059 Y162.836 E9.7070
G1 X148.962 Y162.407 E9.7290
G1 X148.783 Y162.005 E9.7509
G1 X148.529 Y161.650 E9.7727
G1 X148.210 Y161.348 E9.7946
G1 X147.835 Y161.118 E9.8166
G0 F9000 X147.659 Y161.479
;TYPE:WALL-OUTER
;WIDTH:0.400
G1 F1500 X147.324 Y161.354 E9.8344
G1 X146.968 Y161.299 E9.8524
G1 X146.609 Y161.316 E9.8703
G1 X146.263 Y161.404 E9.8881
G1 X145.938 Y161.558 E9.9061
G1 X145.652 Y161.775 E9.9240
G1 X145.414 Y162.043 E9.9419
G1 X145.228 Y162.364 E9.9604
G1 X145.118 Y162.694 E9.9777
G1 X145.072 Y163.050 E9.9956
G1 X145.097 Y163.408 E10.0135
G1 X145.193 Y163.755 E10.0315
G1 X145.356 Y164.075 E10.0494
G1 X145.577 Y164.357 E10.0673
G1 X145.851 Y164.588 E10.0852
G1 X146.160 Y164.759 E10.1028
G1 X146.339 Y164.826 E10.1123
G1 X146.685 Y164.897 E10.1300
G1 X147.044 Y164.899 E10.1479
G1 X147.396 Y164.829 E10.1658
G1 X147.728 Y164.691 E10.1837
G1 X148.024 Y164.489 E10.2016
G1 X148.276 Y164.233 E10.2195
G1 X148.472 Y163.931 E10.2375
G1 X148.603 Y163.597 E10.2554
G1 X148.666 Y163.244 E10.2733
G1 X148.660 Y162.884 E10.2912
G1 X148.581 Y162.534 E10.3091
G1 X148.434 Y162.205 E10.3271
G1 X148.226 Y161.914 E10.3449
G1 X147.965 Y161.667 E10.3629
G1 X147.659 Y161.479 E10.3808
G1 F1200 E9.3808
G0 F9000 X145.531 Y157.512
G1 F1200 E10.3808
G1 F1500 X146.264 Y157.007 E10.4252
G1 X146.960 Y156.451 E10.4696
G1 X147.599 Y155.866 E10.5129
G1 X148.203 Y155.233 E10.5565
G1 X148.770 Y154.551 E10.6008
G1 X149.297 Y153.819 E10.6458
G1 X149.754 Y153.085 E10.6889
G1 X159.310 Y136.513 E11.6433
G1 X159.432 Y136.429 E11.6507
G1 X163.645 Y138.868 E11.8935
G1 X163.633 Y138.969 E11.8986
G1 X163.578 Y139.107 E11.9060
G1 X154.079 Y155.601 E12.8556
G1 X153.674 Y156.363 E12.8987
G1 X153.308 Y157.184 E12.9435
G1 X153.009 Y157.997 E12.9867
G1 X152.758 Y158.856 E13.0314
G1 X152.569 Y159.719 E13.0755
G1 X152.440 Y160.591 E13.1194
G1 X152.370 Y161.471 E13.1635
G1 X152.359 Y162.337 E13.2067
G1 X152.381 Y163.361 E13.2578
G1 X152.324 Y163.937 E13.2867
G1 X152.206 Y164.504 E13.3156
G1 X152.029 Y165.059 E13.3446
G1 X151.923 Y165.324 E13.3589
G1 X151.661 Y165.844 E13.3879
G1 X151.347 Y166.331 E13.4168
G1 X150.985 Y166.784 E13.4458
G1 X150.579 Y167.196 E13.4746
G1 X150.131 Y167.561 E13.5034
G1 X149.647 Y167.879 E13.5323
G1 X149.132 Y168.144 E13.5612
G1 X148.590 Y168.356 E13.5903
G1 X148.319 Y168.437 E13.6044
G1 X147.751 Y168.559 E13.6334
G1 X147.176 Y168.622 E13.6622
G1 X146.597 Y168.625 E13.6911
G1 X146.022 Y168.565 E13.7200
G1 X145.457 Y168.445 E13.7488
G1 X144.902 Y168.266 E13.7779
G1 X144.639 Y168.158 E13.7920
G1 X144.122 Y167.896 E13.8210
G1 X143.637 Y167.579 E13.8499
G1 X143.187 Y167.215 E13.8787
G1 X142.777 Y166.806 E13.9076
G1 X142.413 Y166.354 E13.9366
G1 X142.098 Y165.869 E13.9654
G1 X141.835 Y165.352 E13.9944
G1 X141.628 Y164.811 E14.0233
G1 X141.478 Y164.251 E14.0522
G1 X141.388 Y163.675 E14.0813
G1 X141.365 Y163.391 E14.0955
G1 X141.364 Y162.808 E14.1246
G1 X141.425 Y162.233 E14.1534
G1 X141.547 Y161.662 E14.1826
G1 X141.628 Y161.389 E14.1968
G1 X141.837 Y160.846 E14.2258
G1 X142.100 Y160.329 E14.2547
G1 X142.417 Y159.843 E14.2837
G1 X142.782 Y159.394 E14.3126
G1 X143.191 Y158.984 E14.3415
G1 X143.641 Y158.621 E14.3703
G1 X144.129 Y158.305 E14.3993
G1 X144.786 Y157.955 E14.4364
G1 X145.531 Y157.512 E14.4797
G1 F1200 E13.4797
G0 F9000 X142.302 Y165.212
;TYPE:SOLID-FILL
;WIDTH:0.400
G1 F1200 E14.4797
G1 F1800 X144.779 Y167.689 E14.6544
G1 F1200 E13.6544
G0 F9000 X145.649 Y167.994
G1 F1200 E14.6544
G1 F1800 X141.999 Y164.344 E14.9120
G1 F1200 E13.9120
G0 F9000 X141.868 Y163.647
G1 F1200 E14.9120
G1 F1800 X146.335 Y168.113 E15.2271
G1 F1200 E14.2271
G0 F9000 X146.929 Y168.142
G1 F1200 E15.2271
G1 F1800 X141.844 Y163.057 E15.5859
G1 F1200 E14.5859
G0 F9000 X141.876 Y162.524
G1 F1200 E15.5859
G1 F1800 X147.460 Y168.107 E15.9798
G0 F9000 X147.944 Y168.026
G1 F1800 X141.957 Y162.039 E16.4022
G0 F9000 X142.069 Y161.585
G1 F1800 X148.237 Y167.754 E16.8375
G0 F9000 X148.249 Y167.765
G1 F1800 X148.396 Y167.913 E16.8479
G0 F9000 X148.804 Y167.755
G1 F1800 X146.371 Y165.322 E17.0195
G1 F1200 E16.0195
G0 F9000 X146.993 Y165.378
G1 F1200 E17.0195
G1 F1800 X149.188 Y167.573 E17.1744
G0 F9000 X149.548 Y167.367
G1 F1800 X147.482 Y165.301 E17.3202
G0 F9000 X147.890 Y165.144
G1 F1800 X149.886 Y167.139 E17.4610
G0 F9000 X150.197 Y166.885
G1 F1800 X148.237 Y164.924 E17.5993
G0 F9000 X148.532 Y164.654
G1 F1800 X150.485 Y166.607 E17.7371
G0 F9000 X150.750 Y166.307
G1 F1800 X148.780 Y164.336 E17.8761
G0 F9000 X148.973 Y163.964
G1 F1800 X150.996 Y165.987 E18.0188
G0 F9000 X151.218 Y165.643
G1 F1800 X149.101 Y163.526 E18.1682
G1 F1200 E17.1682
G0 F9000 X149.141 Y163.000
G1 F1200 E18.1682
G1 F1800 X151.411 Y165.270 E18.3284
G0 F9000 X151.573 Y164.866
G1 F1800 X148.998 Y162.292 E18.5100
G1 F1200 E17.5100
G0 F9000 X147.680 Y160.974
G1 F1200 E18.5100
G1 F1800 X145.057 Y158.350 E18.6951
G0 F9000 X145.412 Y158.140
G1 F1800 X151.718 Y164.446 E19.1400
G0 F9000 X151.823 Y163.985
G1 F1800 X145.767 Y157.929 E19.5673
G0 F9000 X146.103 Y157.700
G1 F1800 X151.887 Y163.483 E19.9754
G1 F1200 E18.9754
G0 F9000 X151.892 Y162.923
G1 F1200 E19.9754
G1 F1800 X146.438 Y157.469 E20.3602
G0 F9000 X146.760 Y157.225
G1 F1800 X151.880 Y162.345 E20.7214
G1 F1200 E19.7214
G0 F9000 X151.886 Y161.786
G1 F1200 E20.7214
G1 F1800 X147.073 Y156.973 E21.0610
G0 F9000 X147.381 Y156.715
G1 F1800 X151.907 Y161.240 E21.3803
G1 F1200 E20.3803
G0 F9000 X151.948 Y160.716
G1 F1200 E21.3803
G1 F1800 X147.677 Y156.445 E21.6817
G0 F9000 X147.969 Y156.171
G1 F1800 X152.010 Y160.212 E21.9668
G0 F9000 X152.083 Y159.719
G1 F1800 X148.245 Y155.882 E22.2375
G0 F9000 X148.522 Y155.593
G1 F1800 X152.180 Y159.251 E22.4956
G0 F9000 X152.281 Y158.787
G1 F1800 X148.781 Y155.287 E22.7426
G0 F9000 X149.037 Y154.977
G1 F1800 X152.407 Y158.347 E22.9803
G0 F9000 X152.535 Y157.909
G1 F1800 X149.282 Y154.656 E23.2099
G0 F9000 X149.519 Y154.328
G1 F1800 X152.683 Y157.491 E23.4331
G0 F9000 X152.835 Y157.078
G1 F1800 X149.751 Y153.994 E23.6507
G0 F9000 X149.968 Y153.645
G1 F1800 X153.005 Y156.682 E23.8649
G0 F9000 X153.180 Y156.291
G1 F1800 X150.185 Y153.296 E24.0762
G0 F9000 X150.391 Y152.937
G1 F1800 X153.368 Y155.914 E24.2863
G0 F9000 X153.565 Y155.545
G1 F1800 X150.598 Y152.578 E24.4956
G0 F9000 X150.805 Y152.219
G1 F1800 X153.766 Y155.180 E24.7045
G0 F9000 X153.973 Y154.822
G1 F1800 X151.012 Y151.861 E24.9135
G0 F9000 X151.219 Y151.501
G1 F1800 X154.180 Y154.463 E25.1224
G0 F9000 X154.386 Y154.104
G1 F1800 X151.426 Y151.143 E25.3313
G0 F9000 X151.633 Y150.784
G1 F1800 X154.594 Y153.745 E25.5402
G0 F9000 X154.800 Y153.386
G1 F1800 X151.839 Y150.425 E25.7491
G0 F9000 X152.047 Y150.067
G1 F1800 X155.006 Y153.027 E25.9579
G0 F9000 X155.214 Y152.668
G1 F1800 X152.253 Y149.707 E26.1668
G0 F9000 X152.460 Y149.349
G1 F1800 X155.420 Y152.309 E26.3757
G0 F9000 X155.627 Y151.950
G1 F1800 X152.667 Y148.990 E26.5845
G0 F9000 X152.874 Y148.631
G1 F1800 X155.834 Y151.591 E26.7934
G0 F9000 X156.040 Y151.232
G1 F1800 X153.081 Y148.273 E27.0021
G0 F9000 X153.288 Y147.914
G1 F1800 X156.247 Y150.873 E27.2109
G0 F9000 X156.454 Y150.514
G1 F1800 X153.495 Y147.555 E27.4197
G0 F9000 X153.701 Y147.196
G1 F1800 X156.660 Y150.155 E27.6285
G0 F9000 X156.867 Y149.796
G1 F1800 X153.908 Y146.837 E27.8372
G0 F9000 X154.116 Y146.479
G1 F1800 X157.074 Y149.437 E28.0459
G0 F9000 X157.281 Y149.078
G1 F1800 X154.322 Y146.120 E28.2547
G0 F9000 X154.529 Y145.761
G1 F1800 X157.487 Y148.719 E28.4634
G0 F9000 X157.694 Y148.360
G1 F1800 X154.736 Y145.402 E28.6721
G0 F9000 X154.943 Y145.043
G1 F1800 X157.901 Y148.001 E28.8808
G0 F9000 X158.107 Y147.642
G1 F1800 X155.150 Y144.685 E29.0894
G0 F9000 X155.357 Y144.326
G1 F1800 X158.314 Y147.283 E29.2980
G0 F9000 X158.521 Y146.924
G1 F1800 X155.564 Y143.967 E29.5067
G0 F9000 X155.770 Y143.608
G1 F1800 X158.727 Y146.565 E29.7153
G0 F9000 X158.934 Y146.207
G1 F1800 X155.977 Y143.249 E29.9240
G0 F9000 X156.184 Y142.890
G1 F1800 X159.141 Y145.847 E30.1326
G0 F9000 X159.347 Y145.488
G1 F1800 X156.391 Y142.532 E30.3412
G0 F9000 X156.598 Y142.173
G1 F1800 X159.555 Y145.130 E30.5498
G0 F9000 X159.761 Y144.770
G1 F1800 X156.805 Y141.814 E30.7584
G0 F9000 X157.012 Y141.456
G1 F1800 X159.968 Y144.411 E30.9669
G0 F9000 X160.175 Y144.053
G1 F1800 X157.218 Y141.096 E31.1755
G0 F9000 X157.426 Y140.738
G1 F1800 X160.381 Y143.693 E31.3840
G0 F9000 X160.588 Y143.334
G1 F1800 X157.633 Y140.379 E31.5925
G0 F9000 X157.839 Y140.020
G1 F1800 X160.795 Y142.976 E31.8011
G0 F9000 X161.001 Y142.617
G1 F1800 X158.046 Y139.662 E32.0096
G0 F9000 X158.253 Y139.302
G1 F1800 X161.208 Y142.257 E32.2181
G0 F9000 X161.415 Y141.899
G1 F1800 X158.460 Y138.944 E32.4265
G0 F9000 X158.666 Y138.585
G1 F1800 X161.621 Y141.540 E32.6350
G0 F9000 X161.828 Y141.180
G1 F1800 X158.874 Y138.226 E32.8435
G0 F9000 X159.081 Y137.868
G1 F1800 X162.035 Y140.822 E33.0519
G0 F9000 X162.242 Y140.463
G1 F1800 X159.287 Y137.508 E33.2604
G0 F9000 X159.495 Y137.150
G1 F1800 X162.448 Y140.104 E33.4688
G0 F9000 X162.655 Y139.745
G1 F1800 X160.529 Y137.619 E33.6188
G1 F1200 E32.6188
G0 F9000 X161.873 Y138.397
G1 F1200 E33.6188
G1 F1800 X162.862 Y139.386 E33.6885
G1 F1200 E32.6885
G0 F9000 X144.690 Y158.549
G1 F1200 E33.6885
G1 F1800 X146.959 Y160.818 E33.8486
G1 F1200 E32.8486
G0 F9000 X146.438 Y160.863
