;Sliced by ideaMaker 3.3.0.2343, 2019-06-25 10:11:47 UTC-0400
;Dimension: 305.000 305.000 305.000 0.400 0.400
;Plate Shape: 0
;Extruder Offset #1: 25.000 0.000
;Filament Diameter #1: 1.750
;Filament Diameter #2: 1.750
;Filament Compensation #1: 94.00
;Filament Compensation #2: 94.00
;Filament Density #1: 1240.00
;Filament Density #2: 1240.00
;Model Gap: 0.200
M221 T0 S94.00
M140 S60.00
M104 T0 S215.00
M109 T0 S215.00
T0
M190 S60.00
G21
G90
M82
M107
G28 X0 Y0
G28 Z0
G1 Z15.0 F9000.0
G92 E0
G1 F140 E29
G1 X20 Y0 F140 E30
G92 E0
G1 F9000.0
M117 Printing...
M1001
M106 S0
;LAYER:-2
;Z:0.500
;HEIGHT:0.500
G0 F9000 X137.841 Y138.179
G0 F1500 Z0.500
;TYPE:RAFT
;WIDTH:0.800
G1 F480 X138.789 Y137.267 E0.2188
G1 X139.364 Y136.765 E0.3457
G1 X140.394 Y135.958 E0.5633
G1 X141.000 Y135.527 E0.6870
G1 X142.371 Y134.673 E0.9556
G1 X143.053 Y134.304 E1.0845
G1 X144.175 Y133.759 E1.2920
G1 X144.893 Y133.456 E1.4216
G1 X146.129 Y133.004 E1.6404
G1 X146.811 Y132.795 E1.7591
G1 X148.127 Y132.460 E1.9849
G1 X148.888 Y132.310 E2.1139
G1 X150.183 Y132.117 E2.3316
G1 X150.942 Y132.047 E2.4584
G1 X152.324 Y131.989 E2.6884
G1 X153.595 Y132.017 E2.8998
G1 X154.411 Y132.077 E3.0359
G1 X155.453 Y132.202 E3.2104
G1 X156.269 Y132.337 E3.3480
G1 X157.527 Y132.616 E3.5623
G1 X158.804 Y132.986 E3.7834
G1 X159.161 Y133.104 E3.8459
G1 X160.332 Y133.546 E4.0540
G1 X161.128 Y133.899 E4.1988
G1 X162.211 Y134.441 E4.4002
G1 X162.933 Y134.852 E4.5384
G1 X163.813 Y135.405 E4.7112
G1 X164.945 Y136.212 E4.9424
G1 X165.521 Y136.668 E5.0646
G1 X166.728 Y137.752 E5.3344
G1 X167.635 Y138.685 E5.5508
G1 X168.126 Y139.249 E5.6751
G1 X168.812 Y140.105 E5.8576
G1 X169.408 Y140.933 E6.0272
G1 X169.979 Y141.819 E6.2025
G1 X170.357 Y142.465 E6.3270
G1 X171.103 Y143.936 E6.6013
G1 X171.520 Y144.908 E6.7772
G1 X171.806 Y145.671 E6.9127
G1 X172.189 Y146.878 E7.1233
G1 X172.451 Y147.903 E7.2992
G1 X172.662 Y148.936 E7.4745
G1 X172.775 Y149.644 E7.5938
G1 X172.915 Y150.961 E7.8140
G1 X172.965 Y151.932 E7.9757
G1 X172.961 Y153.247 E8.1944
G1 X172.925 Y153.940 E8.3098
G1 X172.847 Y154.773 E8.4489
G1 X172.646 Y156.152 E8.6807
G1 X172.442 Y157.141 E8.8486
G1 X172.242 Y157.937 E8.9851
G1 X171.859 Y159.175 E9.2006
G1 X171.587 Y159.922 E9.3328
G1 X171.104 Y161.064 E9.5390
G1 X170.763 Y161.773 E9.6699
G1 X170.132 Y162.925 E9.8883
G1 X169.714 Y163.604 E10.0209
G1 X168.996 Y164.649 E10.2318
G1 X168.538 Y165.252 E10.3577
G1 X167.691 Y166.250 E10.5754
G1 X167.171 Y166.808 E10.7022
G1 X166.224 Y167.721 E10.9210
G1 X165.624 Y168.245 E11.0534
G1 X164.612 Y169.037 E11.2671
G1 X163.985 Y169.483 E11.3951
G1 X162.881 Y170.180 E11.6122
G1 X162.169 Y170.582 E11.7482
G1 X161.027 Y171.148 E11.9602
G1 X160.391 Y171.428 E12.0757
G1 X158.867 Y171.997 E12.3463
G1 X158.189 Y172.205 E12.4642
G1 X156.873 Y172.540 E12.6900
G1 X156.112 Y172.690 E12.8190
G1 X154.816 Y172.883 E13.0369
G1 X154.058 Y172.953 E13.1635
G1 X152.674 Y173.011 E13.3939
G1 X151.606 Y172.992 E13.5715
G1 X150.786 Y172.941 E13.7081
G1 X149.547 Y172.798 E13.9156
G1 X148.786 Y172.673 E14.0438
G1 X147.145 Y172.298 E14.3237
G1 X145.850 Y171.900 E14.5490
G1 X144.645 Y171.444 E14.7633
G1 X143.871 Y171.101 E14.9041
G1 X142.991 Y170.665 E15.0674
G1 X141.820 Y169.999 E15.2915
G1 X141.187 Y169.598 E15.4161
G1 X140.059 Y168.791 E15.6467
G1 X139.513 Y168.359 E15.7625
G1 X138.251 Y167.227 E16.0444
G1 X137.365 Y166.315 E16.2559
G1 X136.874 Y165.751 E16.3802
G1 X136.188 Y164.895 E16.5627
G1 X135.592 Y164.067 E16.7323
G1 X134.902 Y162.985 E16.9457
G1 X134.492 Y162.255 E17.0850
G1 X134.011 Y161.306 E17.2619
G1 X133.489 Y160.111 E17.4788
G1 X133.133 Y159.148 E17.6495
G1 X132.822 Y158.155 E17.8226
G1 X132.615 Y157.383 E17.9555
G1 X132.459 Y156.699 E18.0721
G1 X132.191 Y155.085 E18.3442
G1 X132.066 Y153.781 E18.5621
G1 X132.034 Y152.980 E18.6954
G1 X132.039 Y151.756 E18.8989
G1 X132.077 Y151.037 E19.0187
G1 X132.153 Y150.227 E19.1540
G1 X132.354 Y148.848 E19.3857
G1 X132.558 Y147.859 E19.5537
G1 X132.765 Y147.040 E19.6941
G1 X133.134 Y145.845 E19.9021
G1 X133.384 Y145.149 E20.0251
G1 X133.916 Y143.892 E20.2521
G1 X134.246 Y143.209 E20.3783
G1 X134.872 Y142.068 E20.5947
G1 X135.286 Y141.396 E20.7259
G1 X136.008 Y140.346 E20.9379
G1 X136.473 Y139.734 E21.0657
G1 X137.309 Y138.750 E21.2804
G1 X137.841 Y138.179 E21.4102
G0 F9000 X134.532 Y143.269
G1 F480 X134.532 Y161.715 E24.4778
G0 F9000 X136.956 Y165.405
G1 F480 X136.956 Y139.597 E28.7697
G0 F9000 X139.380 Y137.122
G1 F480 X139.380 Y167.863 E33.8819
G0 F9000 X141.804 Y169.657
G1 F480 X141.804 Y135.355 E39.5864
G0 F9000 X144.228 Y134.044
G1 F480 X144.228 Y170.952 E45.7242
G0 F9000 X146.652 Y171.854
G1 F480 X146.652 Y133.136 E52.1630
G0 F9000 X149.076 Y132.565
G1 F480 X149.076 Y172.436 E58.7936
G0 F9000 X151.500 Y172.705
G1 F480 X151.500 Y132.303 E65.5125
G0 F9000 X153.924 Y132.323
G1 F480 X153.924 Y172.679 E72.2237
G0 F9000 X156.348 Y172.358
G1 F480 X156.348 Y132.642 E78.8285
G0 F9000 X158.772 Y133.271
G1 F480 X158.772 Y171.734 E85.2249
G0 F9000 X161.196 Y170.752
G1 F480 X161.196 Y134.247 E91.2957
G0 F9000 X163.620 Y135.615
G1 F480 X163.620 Y169.383 E96.9114
G0 F9000 X166.044 Y167.505
G1 F480 X166.044 Y137.514 E101.8989
G0 F9000 X168.468 Y140.123
G1 F480 X168.468 Y164.882 E106.0163
G0 F9000 X170.892 Y160.846
G1 F480 X170.892 Y144.155 E108.7921
M106 S255
;LAYER:-2
;Z:1.000
;HEIGHT:0.500
G0 F1500 Z1.000
G0 F9000 X171.103 Y143.936
;TYPE:RAFT
;WIDTH:0.800
G1 F960 X171.520 Y144.908 E108.9679
G1 X171.806 Y145.671 E109.1035
G1 X172.189 Y146.878 E109.3140
G1 X172.451 Y147.903 E109.4900
G1 X172.662 Y148.936 E109.6653
G1 X172.775 Y149.644 E109.7845
G1 X172.915 Y150.961 E110.0048
G1 X172.965 Y151.932 E110.1665
G1 X172.961 Y153.247 E110.3852
G1 X172.925 Y153.940 E110.5006
G1 X172.847 Y154.773 E110.6397
G1 X172.646 Y156.152 E110.8715
G1 X172.442 Y157.141 E111.0394
G1 X172.242 Y157.937 E111.1759
G1 X171.859 Y159.175 E111.3914
G1 X171.587 Y159.922 E111.5236
G1 X171.104 Y161.064 E111.7298
G1 X170.763 Y161.773 E111.8606
G1 X170.132 Y162.925 E112.0791
G1 X169.714 Y163.604 E112.2117
G1 X168.996 Y164.649 E112.4225
G1 X168.538 Y165.252 E112.5484
G1 X167.691 Y166.250 E112.7661
G1 X167.171 Y166.808 E112.8930
G1 X166.224 Y167.721 E113.1117
G1 X165.624 Y168.245 E113.2442
G1 X164.612 Y169.037 E113.4579
G1 X163.985 Y169.483 E113.5859
G1 X162.881 Y170.180 E113.8030
G1 X162.169 Y170.582 E113.9390
G1 X161.027 Y171.148 E114.1509
G1 X160.391 Y171.428 E114.2665
G1 X158.867 Y171.997 E114.5370
G1 X158.189 Y172.205 E114.6550
G1 X156.873 Y172.540 E114.8808
G1 X156.112 Y172.690 E115.0098
G1 X154.816 Y172.883 E115.2277
G1 X154.058 Y172.953 E115.3543
G1 X152.674 Y173.011 E115.5846
G1 X151.606 Y172.992 E115.7623
G1 X150.786 Y172.941 E115.8989
G1 X149.547 Y172.798 E116.1063
G1 X148.786 Y172.673 E116.2346
G1 X147.145 Y172.298 E116.5145
G1 X145.850 Y171.900 E116.7398
G1 X144.645 Y171.444 E116.9541
G1 X143.871 Y171.101 E117.0949
G1 X142.991 Y170.665 E117.2582
G1 X141.820 Y169.999 E117.4822
G1 X141.187 Y169.598 E117.6068
G1 X140.059 Y168.791 E117.8375
G1 X139.513 Y168.359 E117.9533
G1 X138.251 Y167.227 E118.2352
G1 X137.365 Y166.315 E118.4467
G1 X136.874 Y165.751 E118.5710
G1 X136.188 Y164.895 E118.7534
G1 X135.592 Y164.067 E118.9231
G1 X134.902 Y162.985 E119.1365
G1 X134.492 Y162.255 E119.2757
G1 X134.011 Y161.306 E119.4527
G1 X133.489 Y160.111 E119.6695
G1 X133.133 Y159.148 E119.8403
G1 X132.822 Y158.155 E120.0133
G1 X132.615 Y157.383 E120.1462
G1 X132.459 Y156.699 E120.2629
G1 X132.191 Y155.085 E120.5350
G1 X132.066 Y153.781 E120.7528
G1 X132.034 Y152.980 E120.8862
G1 X132.039 Y151.756 E121.0897
G1 X132.077 Y151.037 E121.2095
G1 X132.153 Y150.227 E121.3447
G1 X132.354 Y148.848 E121.5765
G1 X132.558 Y147.859 E121.7444
G1 X132.765 Y147.040 E121.8849
G1 X133.134 Y145.845 E122.0929
G1 X133.384 Y145.149 E122.2159
G1 X133.916 Y143.892 E122.4429
G1 X134.246 Y143.209 E122.5690
G1 X134.872 Y142.068 E122.7855
G1 X135.286 Y141.396 E122.9167
G1 X136.008 Y140.346 E123.1286
G1 X136.473 Y139.734 E123.2565
G1 X137.309 Y138.750 E123.4712
G1 X137.841 Y138.179 E123.6010
G1 X138.789 Y137.267 E123.8197
G1 X139.364 Y136.765 E123.9467
G1 X140.394 Y135.958 E124.1643
G1 X141.000 Y135.527 E124.2879
G1 X142.371 Y134.673 E124.5565
G1 X143.053 Y134.304 E124.6855
G1 X144.175 Y133.759 E124.8929
G1 X144.893 Y133.456 E125.0225
G1 X146.129 Y133.004 E125.2414
G1 X146.811 Y132.795 E125.3600
G1 X148.127 Y132.460 E125.5859
G1 X148.888 Y132.310 E125.7148
G1 X150.183 Y132.117 E125.9326
G1 X150.942 Y132.047 E126.0593
G1 X152.324 Y131.989 E126.2894
G1 X153.595 Y132.017 E126.5008
G1 X154.411 Y132.077 E126.6369
G1 X155.453 Y132.202 E126.8114
G1 X156.269 Y132.337 E126.9489
G1 X157.527 Y132.616 E127.1632
G1 X158.804 Y132.986 E127.3843
G1 X159.161 Y133.104 E127.4468
G1 X160.332 Y133.546 E127.6550
G1 X161.128 Y133.899 E127.7998
G1 X162.211 Y134.441 E128.0012
G1 X162.933 Y134.852 E128.1394
G1 X163.813 Y135.405 E128.3122
G1 X164.945 Y136.212 E128.5434
G1 X165.521 Y136.668 E128.6656
G1 X166.728 Y137.752 E128.9354
G1 X167.635 Y138.685 E129.1518
G1 X168.126 Y139.249 E129.2761
G1 X168.812 Y140.105 E129.4585
G1 X169.408 Y140.933 E129.6282
G1 X169.979 Y141.819 E129.8035
G1 X170.357 Y142.465 E129.9280
G1 X171.103 Y143.936 E130.2022
G0 F9000 X170.892 Y144.155
G1 F960 X170.892 Y160.846 E132.9780
G0 F9000 X168.468 Y164.882
G1 F960 X168.468 Y140.123 E137.0954
G0 F9000 X166.044 Y137.514
G1 F960 X166.044 Y167.505 E142.0829
G0 F9000 X163.620 Y169.383
G1 F960 X163.620 Y135.615 E147.6986
G0 F9000 X161.196 Y134.247
G1 F960 X161.196 Y170.752 E153.7694
G0 F9000 X158.772 Y171.734
G1 F960 X158.772 Y133.271 E160.1658
G0 F9000 X156.348 Y132.642
G1 F960 X156.348 Y172.358 E166.7706
G0 F9000 X153.924 Y172.679
G1 F960 X153.924 Y132.323 E173.4818
G0 F9000 X151.500 Y132.303
G1 F960 X151.500 Y172.705 E180.2007
G0 F9000 X149.076 Y172.436
G1 F960 X149.076 Y132.565 E186.8313
G0 F9000 X146.652 Y133.136
G1 F960 X146.652 Y171.854 E193.2701
G0 F9000 X144.228 Y170.952
G1 F960 X144.228 Y134.044 E199.4079
G0 F9000 X141.804 Y135.355
G1 F960 X141.804 Y169.657 E205.1124
G0 F9000 X139.380 Y167.863
G1 F960 X139.380 Y137.122 E210.2246
G0 F9000 X136.956 Y139.597
G1 F960 X136.956 Y165.405 E214.5165
G0 F9000 X134.532 Y161.715
G1 F960 X134.532 Y143.269 E217.5841
;LAYER:-1
;Z:1.380
;HEIGHT:0.380
G0 F1500 Z1.380
G0 F9000 X148.501 Y132.600
;TYPE:RAFT
;WIDTH:0.600
G1 F1800 X156.485 Y132.600 E218.3409
G0 F9000 X160.387 Y133.800
G1 F1800 X144.618 Y133.800 E219.8357
G0 F9000 X142.245 Y135.000
G1 F1800 X162.768 Y135.000 E221.7811
G0 F9000 X164.568 Y136.200
G1 F1800 X140.426 Y136.200 E224.0695
G0 F9000 X138.956 Y137.400
G1 F1800 X166.023 Y137.400 E226.6353
G0 F9000 X167.260 Y138.600
G1 F1800 X137.736 Y138.600 E229.4339
G0 F9000 X136.694 Y139.800
G1 F1800 X168.299 Y139.800 E232.4298
G0 F9000 X169.198 Y141.000
G1 F1800 X135.813 Y141.000 E235.5944
G0 F9000 X135.039 Y142.200
G1 F1800 X169.959 Y142.200 E238.9045
G0 F9000 X170.596 Y143.400
G1 F1800 X134.388 Y143.400 E242.3367
G0 F9000 X133.845 Y144.600
G1 F1800 X171.160 Y144.600 E245.8738
G0 F9000 X171.627 Y145.800
G1 F1800 X133.374 Y145.800 E249.4999
G0 F9000 X132.998 Y147.000
G1 F1800 X172.004 Y147.000 E253.1973
G0 F9000 X172.298 Y148.200
G1 F1800 X132.702 Y148.200 E256.9507
G0 F9000 X132.486 Y149.400
G1 F1800 X172.524 Y149.400 E260.7459
G0 F9000 X172.666 Y150.600
G1 F1800 X132.330 Y150.600 E264.5694
G0 F9000 X132.249 Y151.800
G1 F1800 X172.748 Y151.800 E268.4084
G0 F9000 X172.751 Y153.000
G1 F1800 X132.245 Y153.000 E272.2480
G0 F9000 X132.317 Y154.200
G1 F1800 X172.689 Y154.200 E276.0749
G0 F9000 X172.543 Y155.400
G1 F1800 X132.456 Y155.400 E279.8748
G0 F9000 X132.656 Y156.600
G1 F1800 X172.339 Y156.600 E283.6364
G0 F9000 X172.060 Y157.800
G1 F1800 X132.944 Y157.800 E287.3443
G0 F9000 X133.306 Y159.000
G1 F1800 X171.692 Y159.000 E290.9830
G0 F9000 X171.241 Y160.200
G1 F1800 X133.756 Y160.200 E294.5362
G0 F9000 X134.295 Y161.400
G1 F1800 X170.709 Y161.400 E297.9880
G0 F9000 X170.070 Y162.600
G1 F1800 X134.927 Y162.600 E301.3192
G0 F9000 X135.669 Y163.800
G1 F1800 X169.324 Y163.800 E304.5094
G0 F9000 X168.465 Y165.000
G1 F1800 X136.541 Y165.000 E307.5355
G0 F9000 X137.546 Y166.200
G1 F1800 X167.450 Y166.200 E310.3702
G0 F9000 X166.254 Y167.400
G1 F1800 X138.757 Y167.400 E312.9767
G0 F9000 X140.155 Y168.600
G1 F1800 X164.829 Y168.600 E315.3155
G0 F9000 X163.088 Y169.800
G1 F1800 X141.898 Y169.800 E317.3242
G0 F9000 X144.160 Y171.000
G1 F1800 X160.841 Y171.000 E318.9054
G0 F9000 X157.356 Y172.200
G1 F1800 X147.657 Y172.200 E319.8248
;LAYER:-1
;Z:1.600
;HEIGHT:0.220
G0 F1500 Z1.600
G0 F9000 X135.873 Y164.220
;TYPE:RAFT
;WIDTH:0.400
G1 F3600 X134.077 Y161.109 E320.0521
G0 F9000 X133.029 Y158.352
G1 F3600 X137.726 Y166.487 E320.6467
G0 F9000 X138.951 Y167.666
G1 F3600 X132.592 Y156.652 E321.4517
G0 F9000 X132.372 Y155.329
G1 F3600 X140.027 Y168.587 E322.4206
G0 F9000 X140.961 Y169.265
G1 F3600 X132.241 Y154.161 E323.5245
G0 F9000 X132.178 Y153.110
G1 F3600 X141.841 Y169.846 E324.7477
G0 F9000 X142.653 Y170.311
G1 F3600 X132.176 Y152.163 E326.0740
G0 F9000 X132.204 Y151.270
G1 F3600 X143.439 Y170.730 E327.4963
G0 F9000 X144.190 Y171.089
G1 F3600 X132.271 Y150.445 E329.0051
G0 F9000 X132.372 Y149.678
G1 F3600 X144.911 Y171.395 E330.5923
G0 F9000 X145.606 Y171.657
G1 F3600 X132.482 Y148.927 E332.2535
G0 F9000 X132.623 Y148.229
G1 F3600 X146.282 Y171.886 E333.9825
G0 F9000 X146.943 Y172.089
G1 F3600 X132.778 Y147.554 E335.7757
G0 F9000 X132.950 Y146.910
G1 F3600 X147.582 Y172.254 E337.6280
G0 F9000 X148.208 Y172.397
G1 F3600 X133.139 Y146.296 E339.5356
G0 F9000 X133.335 Y145.693
G1 F3600 X148.834 Y172.538 E341.4975
G0 F9000 X149.435 Y172.637
G1 F3600 X133.547 Y145.119 E343.5087
G0 F9000 X133.777 Y144.574
G1 F3600 X150.021 Y172.711 E345.5651
G0 F9000 X150.604 Y172.778
G1 F3600 X134.007 Y144.030 E347.6662
G0 F9000 X134.252 Y143.514
G1 F3600 X151.174 Y172.823 E349.8082
G0 F9000 X151.735 Y172.853
G1 F3600 X134.509 Y143.017 E351.9888
G0 F9000 X134.774 Y142.534
G1 F3600 X152.285 Y172.863 E354.2055
G0 F9000 X152.829 Y172.863
G1 F3600 X135.042 Y142.055 E356.4571
G0 F9000 X135.323 Y141.600
G1 F3600 X153.360 Y172.841 E358.7404
G0 F9000 X153.890 Y172.818
G1 F3600 X135.614 Y141.163 E361.0539
G0 F9000 X135.909 Y140.732
G1 F3600 X154.411 Y172.779 E363.3960
G0 F9000 X154.924 Y172.724
G1 F3600 X136.209 Y140.309 E365.7651
G0 F9000 X136.518 Y139.902
G1 F3600 X155.425 Y172.650 E368.1585
G0 F9000 X155.926 Y172.575
G1 F3600 X136.839 Y139.516 E370.5747
G0 F9000 X137.162 Y139.135
G1 F3600 X156.418 Y172.486 E373.0122
G0 F9000 X156.904 Y172.387
G1 F3600 X137.489 Y138.759 E375.4699
G0 F9000 X137.825 Y138.399
G1 F3600 X157.379 Y172.266 E377.9451
G0 F9000 X157.853 Y172.145
G1 F3600 X138.170 Y138.054 E380.4367
G0 F9000 X138.520 Y137.718
G1 F3600 X158.322 Y172.017 E382.9435
G0 F9000 X158.784 Y171.875
G1 F3600 X138.869 Y137.381 E385.4645
G0 F9000 X139.231 Y137.065
G1 F3600 X159.233 Y171.710 E387.9965
G0 F9000 X159.681 Y171.543
G1 F3600 X139.597 Y136.758 E390.5388
G0 F9000 X139.972 Y136.464
G1 F3600 X160.128 Y171.376 E393.0904
G0 F9000 X160.567 Y171.195
G1 F3600 X140.346 Y136.171 E395.6501
G0 F9000 X140.728 Y135.890
G1 F3600 X161.000 Y171.003 E398.2164
G0 F9000 X161.423 Y170.794
G1 F3600 X141.115 Y135.619 E400.7871
G0 F9000 X141.515 Y135.370
G1 F3600 X161.846 Y170.584 E403.3608
G0 F9000 X162.264 Y170.366
G1 F3600 X141.915 Y135.120 E405.9368
G0 F9000 X142.315 Y134.871
G1 F3600 X162.674 Y170.135 E408.5140
G0 F9000 X163.077 Y169.891
G1 F3600 X142.725 Y134.640 E411.0904
G0 F9000 X143.140 Y134.417
G1 F3600 X163.476 Y169.639 E413.6646
G0 F9000 X163.874 Y169.387
G1 F3600 X143.565 Y134.211 E416.2355
