;Sliced by ideaMaker 3.3.0.2343, 2019-06-26 12:30:54 UTC-0400
;Dimension: 305.000 305.000 305.000 0.400 0.400
;Plate Shape: 0
;Extruder Offset #1: 25.000 0.000
;Filament Diameter #1: 1.750
;Filament Diameter #2: 1.750
;Filament Compensation #1: 94.00
;Filament Compensation #2: 94.00
;Filament Density #1: 1240.00
;Filament Density #2: 1240.00
;Model Gap: 0.200
M221 T0 S94.00
M140 S60.00
M104 T0 S215.00
M109 T0 S215.00
T0
M190 S60.00
G21
G90
M82
M107
G28 X0 Y0
G28 Z0
G1 Z15.0 F9000.0
G92 E0
G1 F140 E29
G1 X20 Y0 F140 E30
G92 E0
G1 F9000.0
M117 Printing...
M1001
M106 S0
;LAYER:-2
;Z:0.500
;HEIGHT:0.500
G0 F9000 X100.112 Y140.681
G0 F1500 Z0.500
;TYPE:RAFT
;WIDTH:0.800
G1 F480 X100.409 Y140.474 E0.0602
G1 X100.866 Y140.218 E0.1473
G1 X101.349 Y140.015 E0.2344
G1 X101.995 Y139.837 E0.3459
G1 X102.504 Y139.765 E0.4314
G1 X102.947 Y139.745 E0.5051
G1 X105.958 Y139.748 E1.0058
G1 X106.329 Y139.769 E1.0676
G1 X106.864 Y139.850 E1.1576
G1 X107.364 Y139.987 E1.2438
G1 X108.054 Y140.228 E1.3654
G1 X108.546 Y140.316 E1.4485
G1 X109.042 Y140.331 E1.5310
G1 X109.540 Y140.273 E1.6144
G1 X110.144 Y140.096 E1.7191
G1 X110.480 Y139.970 E1.7788
G1 X111.315 Y139.731 E1.9232
G1 X111.767 Y139.521 E2.0061
G1 X112.418 Y139.096 E2.1354
G1 X112.752 Y138.916 E2.1985
G1 X113.236 Y138.713 E2.2857
G1 X113.886 Y138.534 E2.3979
G1 X114.243 Y138.478 E2.4580
G1 X114.737 Y138.445 E2.5403
G1 X144.997 Y138.440 E7.5726
G1 X145.482 Y138.465 E7.6533
G1 X146.154 Y138.578 E7.7666
G1 X146.665 Y138.737 E7.8556
G1 X147.129 Y138.941 E7.9399
G1 X148.033 Y139.449 E8.1124
G1 X148.503 Y139.619 E8.1955
G1 X148.988 Y139.717 E8.2778
G1 X149.411 Y139.745 E8.3483
G1 X150.840 Y139.745 E8.5859
G1 X151.514 Y139.791 E8.6983
G1 X152.005 Y139.882 E8.7813
G1 X152.519 Y140.042 E8.8708
G1 X152.833 Y140.174 E8.9275
G1 X153.437 Y140.509 E9.0423
G1 X153.843 Y140.810 E9.1264
G1 X154.225 Y141.166 E9.2132
G1 X154.570 Y141.571 E9.3017
G1 X154.787 Y141.882 E9.3648
G1 X155.206 Y142.570 E9.4987
G1 X155.535 Y142.948 E9.5821
G1 X155.912 Y143.271 E9.6646
G1 X156.331 Y143.536 E9.7471
G1 X156.785 Y143.737 E9.8296
G1 X157.263 Y143.869 E9.9121
G1 X157.756 Y143.932 E9.9948
G1 X158.253 Y143.921 E10.0774
G1 X158.742 Y143.839 E10.1599
G1 X159.215 Y143.685 E10.2426
G1 X159.659 Y143.464 E10.3251
G1 X160.067 Y143.182 E10.4076
G1 X160.429 Y142.843 E10.4901
G1 X160.739 Y142.455 E10.5726
G1 X160.988 Y142.026 E10.6551
G1 X161.175 Y141.561 E10.7385
G1 X161.306 Y140.944 E10.8434
G1 X161.424 Y140.242 E10.9618
G1 X161.583 Y139.732 E11.0506
G1 X161.788 Y139.265 E11.1354
G1 X162.048 Y138.817 E11.2216
G1 X162.351 Y138.408 E11.3062
G1 X162.707 Y138.026 E11.3930
G1 X163.106 Y137.686 E11.4802
G1 X163.542 Y137.392 E11.5677
G1 X163.863 Y137.219 E11.6283
G1 X164.485 Y136.968 E11.7399
G1 X164.991 Y136.837 E11.8268
G1 X165.357 Y136.780 E11.8884
G1 X165.827 Y136.748 E11.9667
G1 X166.302 Y136.690 E12.0463
G1 X166.781 Y136.558 E12.1289
G1 X167.235 Y136.358 E12.2114
G1 X167.655 Y136.094 E12.2939
G1 X168.031 Y135.772 E12.3762
G1 X168.608 Y135.124 E12.5205
G1 X168.990 Y134.778 E12.6063
G1 X169.536 Y134.396 E12.7171
G1 X170.001 Y134.154 E12.8042
G1 X170.479 Y133.970 E12.8894
G1 X170.991 Y133.837 E12.9774
G1 X171.357 Y133.780 E13.0390
G1 X171.827 Y133.748 E13.1173
G1 X172.302 Y133.690 E13.1969
G1 X172.781 Y133.558 E13.2795
G1 X173.235 Y133.358 E13.3620
G1 X173.655 Y133.094 E13.4445
G1 X174.029 Y132.773 E13.5265
G1 X174.706 Y132.027 E13.6940
G1 X175.106 Y131.686 E13.7815
G1 X175.542 Y131.392 E13.8689
G1 X175.865 Y131.218 E13.9299
G1 X176.349 Y131.015 E14.0172
G1 X176.995 Y130.837 E14.1286
G1 X177.504 Y130.765 E14.2141
G1 X177.947 Y130.745 E14.2879
G1 X192.958 Y130.748 E16.7842
G1 X193.329 Y130.769 E16.8460
G1 X193.860 Y130.850 E16.9353
G1 X194.521 Y131.043 E17.0498
G1 X194.992 Y131.250 E17.1354
G1 X195.297 Y131.420 E17.1935
G1 X195.850 Y131.817 E17.3067
G1 X196.222 Y132.162 E17.3911
G1 X196.479 Y132.454 E17.4557
G1 X196.782 Y132.874 E17.5419
G1 X197.122 Y133.419 E17.6487
G1 X197.445 Y133.795 E17.7311
G1 X197.821 Y134.123 E17.8141
G1 X198.426 Y134.502 E17.9328
G1 X198.734 Y134.722 E17.9958
G1 X199.225 Y135.166 E18.1059
G1 X199.570 Y135.571 E18.1943
G1 X199.787 Y135.882 E18.2574
G1 X200.122 Y136.419 E18.3627
G1 X200.445 Y136.795 E18.4451
G1 X200.821 Y137.123 E18.5281
G1 X201.426 Y137.502 E18.6468
G1 X201.734 Y137.722 E18.7097
G1 X202.225 Y138.166 E18.8198
G1 X202.570 Y138.571 E18.9083
G1 X202.787 Y138.882 E18.9714
G1 X203.122 Y139.419 E19.0766
G1 X203.445 Y139.795 E19.1591
G1 X203.821 Y140.123 E19.2420
G1 X204.426 Y140.502 E19.3608
G1 X204.734 Y140.722 E19.4237
G1 X205.225 Y141.166 E19.5338
G1 X205.570 Y141.571 E19.6223
G1 X205.774 Y141.864 E19.6816
G1 X206.097 Y142.460 E19.7944
G1 X206.281 Y142.938 E19.8795
G1 X206.414 Y143.450 E19.9675
G1 X206.471 Y143.815 E20.0290
G1 X206.504 Y144.309 E20.1113
G1 X206.503 Y159.423 E22.6248
G1 X206.482 Y159.788 E22.6856
G1 X206.401 Y160.323 E22.7755
G1 X206.266 Y160.817 E22.8607
G1 X206.075 Y161.298 E22.9468
G1 X205.825 Y161.764 E23.0347
G1 X205.525 Y162.197 E23.1223
G1 X205.078 Y162.692 E23.2332
G1 X204.438 Y163.263 E23.3759
G1 X204.121 Y163.647 E23.4587
G1 X203.864 Y164.073 E23.5414
G1 X203.673 Y164.530 E23.6238
G1 X203.549 Y165.014 E23.7069
G1 X203.462 Y165.965 E23.8657
G1 X203.404 Y166.309 E23.9237
G1 X203.208 Y166.980 E24.0400
G1 X203.004 Y167.445 E24.1244
G1 X202.749 Y167.886 E24.2091
G1 X202.441 Y168.302 E24.2952
G1 X202.085 Y168.684 E24.3820
G1 X201.686 Y169.024 E24.4692
G1 X201.256 Y169.314 E24.5555
G1 X200.788 Y169.557 E24.6432
G1 X200.450 Y169.693 E24.7037
G1 X199.793 Y169.874 E24.8171
G1 X199.435 Y169.930 E24.8773
G1 X198.965 Y169.962 E24.9557
G1 X198.490 Y170.020 E25.0353
G1 X198.011 Y170.152 E25.1179
G1 X197.557 Y170.352 E25.2004
G1 X197.137 Y170.616 E25.2829
G1 X196.763 Y170.937 E25.3648
G1 X196.086 Y171.683 E25.5324
G1 X195.686 Y172.024 E25.6198
G1 X195.250 Y172.318 E25.7072
G1 X194.927 Y172.492 E25.7683
G1 X194.443 Y172.695 E25.8555
G1 X193.797 Y172.873 E25.9670
G1 X193.288 Y172.945 E26.0525
G1 X192.846 Y172.965 E26.1260
G1 X174.834 Y172.962 E29.1215
G1 X174.463 Y172.941 E29.1832
G1 X173.932 Y172.860 E29.2726
G1 X173.271 Y172.667 E29.3871
G1 X172.800 Y172.460 E29.4726
G1 X172.496 Y172.290 E29.5306
G1 X172.047 Y171.979 E29.6214
G1 X171.668 Y171.646 E29.7053
G1 X171.314 Y171.257 E29.7928
G1 X171.010 Y170.836 E29.8791
G1 X170.670 Y170.291 E29.9860
G1 X170.347 Y169.915 E30.0684
G1 X169.971 Y169.587 E30.1514
G1 X169.366 Y169.208 E30.2701
G1 X169.058 Y168.987 E30.3331
G1 X168.567 Y168.544 E30.4431
G1 X168.222 Y168.139 E30.5316
G1 X168.005 Y167.828 E30.5946
G1 X167.670 Y167.291 E30.6999
G1 X167.347 Y166.915 E30.7823
G1 X166.971 Y166.587 E30.8653
G1 X166.366 Y166.208 E30.9840
G1 X166.058 Y165.987 E31.0471
G1 X165.567 Y165.544 E31.1571
G1 X165.222 Y165.139 E31.2455
G1 X165.018 Y164.846 E31.3049
G1 X164.695 Y164.250 E31.4176
G1 X164.509 Y163.766 E31.5039
G1 X164.378 Y163.260 E31.5908
G1 X164.319 Y162.880 E31.6547
G1 X164.288 Y162.402 E31.7344
G1 X164.286 Y150.589 E33.6989
G1 X164.251 Y150.109 E33.7789
G1 X164.143 Y149.624 E33.8616
G1 X163.965 Y149.161 E33.9441
G1 X163.723 Y148.728 E34.0266
G1 X163.417 Y148.330 E34.1100
G1 X162.669 Y147.647 E34.2785
G1 X162.314 Y147.257 E34.3662
G1 X162.009 Y146.834 E34.4529
G1 X161.635 Y146.230 E34.5711
G1 X161.309 Y145.852 E34.6541
G1 X160.933 Y145.528 E34.7366
G1 X160.514 Y145.263 E34.8191
G1 X160.061 Y145.060 E34.9016
G1 X159.583 Y144.926 E34.9842
G1 X159.091 Y144.862 E35.0667
G1 X158.594 Y144.873 E35.1494
G1 X158.104 Y144.954 E35.2319
G1 X157.632 Y145.106 E35.3144
G1 X157.187 Y145.325 E35.3969
G1 X156.777 Y145.606 E35.4796
G1 X156.414 Y145.944 E35.5620
G1 X156.103 Y146.332 E35.6447
G1 X155.853 Y146.760 E35.7272
G1 X155.667 Y147.220 E35.8097
G1 X155.550 Y147.705 E35.8926
G1 X155.506 Y148.243 E35.9824
G1 X155.506 Y162.311 E38.3219
G1 X155.482 Y162.789 E38.4015
G1 X155.401 Y163.319 E38.4907
G1 X155.208 Y163.980 E38.6052
G1 X155.004 Y164.445 E38.6896
G1 X154.743 Y164.894 E38.7760
G1 X154.533 Y165.187 E38.8360
G1 X154.182 Y165.587 E38.9245
G1 X153.686 Y166.024 E39.0344
G1 X153.256 Y166.314 E39.1206
G1 X152.791 Y166.556 E39.2078
G1 X152.313 Y166.740 E39.2930
G1 X151.801 Y166.873 E39.3810
G1 X151.436 Y166.930 E39.4424
G1 X150.942 Y166.963 E39.5247
G1 X145.818 Y166.965 E40.3769
G1 X145.144 Y166.919 E40.4892
G1 X144.642 Y166.826 E40.5741
G1 X143.840 Y166.611 E40.7122
G1 X143.264 Y166.560 E40.8084
G1 X116.556 Y166.560 E45.2499
G1 X116.070 Y166.596 E45.3310
G1 X114.964 Y166.873 E45.5206
G1 X114.603 Y166.930 E45.5814
G1 X114.109 Y166.963 E45.6637
G1 X102.940 Y166.965 E47.5211
G1 X102.455 Y166.940 E47.6019
G1 X101.784 Y166.827 E47.7150
G1 X101.273 Y166.668 E47.8040
G1 X100.800 Y166.460 E47.8900
G1 X100.496 Y166.290 E47.9479
G1 X100.053 Y165.983 E48.0375
G1 X99.567 Y165.544 E48.1464
G1 X99.227 Y165.145 E48.2336
G1 X98.933 Y164.709 E48.3210
G1 X98.755 Y164.378 E48.3835
G1 X98.557 Y163.905 E48.4688
G1 X98.377 Y163.252 E48.5815
G1 X98.319 Y162.880 E48.6441
G1 X98.288 Y162.403 E48.7236
G1 X98.289 Y156.287 E49.7407
G1 X98.310 Y155.922 E49.8015
G1 X98.391 Y155.387 E49.8915
G1 X98.528 Y154.887 E49.9777
G1 X98.769 Y154.197 E50.0992
G1 X98.857 Y153.705 E50.1823
G1 X98.872 Y153.209 E50.2649
G1 X98.814 Y152.711 E50.3482
G1 X98.414 Y151.421 E50.5728
G1 X98.306 Y150.742 E50.6872
G1 X98.286 Y150.305 E50.7599
G1 X98.286 Y144.411 E51.7401
G1 X98.332 Y143.737 E51.8524
G1 X98.423 Y143.248 E51.9352
G1 X98.589 Y142.717 E52.0277
G1 X98.715 Y142.418 E52.0816
G1 X99.050 Y141.814 E52.1965
G1 X99.351 Y141.408 E52.2806
G1 X99.707 Y141.026 E52.3674
G1 X100.112 Y140.681 E52.4559
G0 F9000 X100.596 Y140.689
G1 F480 X100.596 Y166.018 E56.6681
G0 F9000 X103.020 Y166.685
G1 F480 X103.020 Y140.026 E61.1015
G0 F9000 X105.444 Y140.028
G1 F480 X105.444 Y166.685 E65.5346
G0 F9000 X107.868 Y166.685
G1 F480 X107.868 Y140.460 E69.8958
G0 F9000 X110.292 Y140.340
G1 F480 X110.292 Y166.684 E74.2768
G0 F9000 X112.716 Y166.684
G1 F480 X112.716 Y139.253 E78.8386
G0 F9000 X115.140 Y138.724
G1 F480 X115.140 Y166.541 E83.4646
G0 F9000 X117.564 Y166.280
G1 F480 X117.564 Y138.724 E88.0472
G0 F9000 X119.988 Y138.724
G1 F480 X119.988 Y166.280 E92.6298
G0 F9000 X122.412 Y166.280
G1 F480 X122.412 Y138.723 E97.2125
G0 F9000 X124.836 Y138.723
G1 F480 X124.836 Y166.280 E101.7953
G0 F9000 X127.260 Y166.280
G1 F480 X127.260 Y138.722 E106.3782
G0 F9000 X129.684 Y138.722
G1 F480 X129.684 Y166.280 E110.9611
G0 F9000 X132.108 Y166.280
G1 F480 X132.108 Y138.722 E115.5440
G0 F9000 X134.532 Y138.721
G1 F480 X134.532 Y166.280 E120.1271
G0 F9000 X136.956 Y166.280
G1 F480 X136.956 Y138.721 E124.7102
G0 F9000 X139.380 Y138.720
G1 F480 X139.380 Y166.280 E129.2934
G0 F9000 X141.804 Y166.280
G1 F480 X141.804 Y138.720 E133.8767
G0 F9000 X144.228 Y138.720
G1 F480 X144.228 Y166.425 E138.4840
G0 F9000 X146.652 Y166.685
G1 F480 X146.652 Y139.037 E143.0819
G0 F9000 X149.076 Y140.004
G1 F480 X149.076 Y166.684 E147.5188
G0 F9000 X151.500 Y166.637
G1 F480 X151.500 Y140.074 E151.9363
G0 F9000 X153.924 Y141.270
G1 F480 X153.924 Y165.442 E155.9561
G0 F9000 X166.044 Y165.597
G1 F480 X166.044 Y137.003 E160.7113
G0 F9000 X163.620 Y137.677
G1 F480 X163.620 Y148.136 E162.4506
G0 F9000 X161.196 Y145.384
G1 F480 X161.196 Y142.224 E162.9761
G0 F9000 X158.772 Y144.118
G1 F480 X158.772 Y144.590 E163.0546
G0 F9000 X156.348 Y143.850
G1 F480 X156.348 Y145.623 E163.3495
G0 F9000 X168.468 Y135.702
G1 F480 X168.468 Y167.996 E168.7200
G0 F9000 X170.892 Y170.119
G1 F480 X170.892 Y134.152 E174.7013
G0 F9000 X173.316 Y133.628
G1 F480 X173.316 Y172.381 E181.1460
G0 F9000 X175.740 Y172.682
G1 F480 X175.740 Y131.603 E187.9774
G0 F9000 X178.164 Y131.026
G1 F480 X178.164 Y172.682 E194.9049
G0 F9000 X180.588 Y172.682
G1 F480 X180.588 Y131.026 E201.8323
G0 F9000 X183.012 Y131.027
G1 F480 X183.012 Y172.683 E208.7597
G0 F9000 X185.436 Y172.683
G1 F480 X185.436 Y131.027 E215.6871
G0 F9000 X187.860 Y131.027
G1 F480 X187.860 Y172.684 E222.6147
G0 F9000 X190.284 Y172.684
G1 F480 X190.284 Y131.028 E229.5421
G0 F9000 X192.708 Y131.028
G1 F480 X192.708 Y172.684 E236.4696
G0 F9000 X195.132 Y172.060
G1 F480 X195.132 Y131.649 E243.1899
G0 F9000 X197.556 Y134.264
G1 F480 X197.556 Y170.047 E249.1407
G0 F9000 X199.980 Y169.533
G1 F480 X199.980 Y136.684 E254.6035
G0 F9000 X202.404 Y138.823
G1 F480 X202.404 Y167.882 E259.4360
G0 F9000 X204.828 Y162.541
G1 F480 X204.828 Y141.185 E262.9875
M106 S255
;LAYER:-2
;Z:1.000
;HEIGHT:0.500
G0 F1500 Z1.000
G0 F9000 X204.734 Y140.722
;TYPE:RAFT
;WIDTH:0.800
G1 F960 X205.225 Y141.166 E263.0976
G1 X205.570 Y141.571 E263.1861
G1 X205.774 Y141.864 E263.2455
G1 X206.097 Y142.460 E263.3582
G1 X206.281 Y142.938 E263.4434
G1 X206.414 Y143.450 E263.5314
G1 X206.471 Y143.815 E263.5928
G1 X206.504 Y144.309 E263.6751
G1 X206.503 Y159.423 E266.1886
G1 X206.482 Y159.788 E266.2494
G1 X206.401 Y160.323 E266.3394
G1 X206.266 Y160.817 E266.4245
G1 X206.075 Y161.298 E266.5106
G1 X205.825 Y161.764 E266.5986
G1 X205.525 Y162.197 E266.6862
G1 X205.078 Y162.692 E266.7971
G1 X204.438 Y163.263 E266.9397
G1 X204.121 Y163.647 E267.0225
G1 X203.864 Y164.073 E267.1053
G1 X203.673 Y164.530 E267.1876
G1 X203.549 Y165.014 E267.2707
G1 X203.462 Y165.965 E267.4295
G1 X203.404 Y166.309 E267.4875
G1 X203.208 Y166.980 E267.6038
G1 X203.004 Y167.445 E267.6882
G1 X202.749 Y167.886 E267.7729
G1 X202.441 Y168.302 E267.8590
G1 X202.085 Y168.684 E267.9459
G1 X201.686 Y169.024 E268.0330
G1 X201.256 Y169.314 E268.1193
G1 X200.788 Y169.557 E268.2070
G1 X200.450 Y169.693 E268.2676
G1 X199.793 Y169.874 E268.3809
G1 X199.435 Y169.930 E268.4412
G1 X198.965 Y169.962 E268.5195
G1 X198.490 Y170.020 E268.5991
G1 X198.011 Y170.152 E268.6817
G1 X197.557 Y170.352 E268.7642
G1 X197.137 Y170.616 E268.8467
G1 X196.763 Y170.937 E268.9287
G1 X196.086 Y171.683 E269.0962
G1 X195.686 Y172.024 E269.1836
G1 X195.250 Y172.318 E269.2711
G1 X194.927 Y172.492 E269.3321
G1 X194.443 Y172.695 E269.4194
G1 X193.797 Y172.873 E269.5308
G1 X193.288 Y172.945 E269.6163
G1 X192.846 Y172.965 E269.6899
G1 X174.834 Y172.962 E272.6853
G1 X174.463 Y172.941 E272.7471
G1 X173.932 Y172.860 E272.8364
G1 X173.271 Y172.667 E272.9509
G1 X172.800 Y172.460 E273.0365
G1 X172.496 Y172.290 E273.0944
G1 X172.047 Y171.979 E273.1852
G1 X171.668 Y171.646 E273.2691
G1 X171.314 Y171.257 E273.3566
G1 X171.010 Y170.836 E273.4430
G1 X170.670 Y170.291 E273.5498
G1 X170.347 Y169.915 E273.6322
G1 X169.971 Y169.587 E273.7152
G1 X169.366 Y169.208 E273.8339
G1 X169.058 Y168.987 E273.8970
G1 X168.567 Y168.544 E274.0069
G1 X168.222 Y168.139 E274.0954
G1 X168.005 Y167.828 E274.1585
G1 X167.670 Y167.291 E274.2637
G1 X167.347 Y166.915 E274.3462
G1 X166.971 Y166.587 E274.4291
G1 X166.366 Y166.208 E274.5479
G1 X166.058 Y165.987 E274.6109
G1 X165.567 Y165.544 E274.7209
G1 X165.222 Y165.139 E274.8094
G1 X165.018 Y164.846 E274.8687
G1 X164.695 Y164.250 E274.9815
G1 X164.509 Y163.766 E275.0677
G1 X164.378 Y163.260 E275.1546
G1 X164.319 Y162.880 E275.2186
G1 X164.288 Y162.402 E275.2982
G1 X164.286 Y150.589 E277.2627
G1 X164.251 Y150.109 E277.3428
G1 X164.143 Y149.624 E277.4254
G1 X163.965 Y149.161 E277.5079
G1 X163.723 Y148.728 E277.5904
G1 X163.417 Y148.330 E277.6739
G1 X162.669 Y147.647 E277.8423
G1 X162.314 Y147.257 E277.9300
G1 X162.009 Y146.834 E278.0168
G1 X161.635 Y146.230 E278.1349
G1 X161.309 Y145.852 E278.2179
G1 X160.933 Y145.528 E278.3004
G1 X160.514 Y145.263 E278.3829
G1 X160.061 Y145.060 E278.4654
G1 X159.583 Y144.926 E278.5480
G1 X159.091 Y144.862 E278.6305
G1 X158.594 Y144.873 E278.7132
G1 X158.104 Y144.954 E278.7958
G1 X157.632 Y145.106 E278.8782
G1 X157.187 Y145.325 E278.9607
G1 X156.777 Y145.606 E279.0434
