;Sliced by ideaMaker 3.3.0.2343, 2019-06-18 19:26:12 UTC-0400
;Dimension: 305.000 305.000 305.000 0.400 0.400
;Plate Shape: 0
;Extruder Offset #1: 25.000 0.000
;Filament Diameter #1: 1.750
;Filament Diameter #2: 1.750
;Filament Compensation #1: 94.00
;Filament Compensation #2: 94.00
;Filament Density #1: 1240.00
;Filament Density #2: 1240.00
;Model Gap: 0.200
M221 T0 S94.00
M140 S60.00
M104 T0 S215.00
M109 T0 S215.00
T0
M190 S60.00
G21
G90
M82
M107
G28 X0 Y0
G28 Z0
G1 Z15.0 F9000.0
G92 E0
G1 F140 E29
G1 X20 Y0 F140 E30
G92 E0
G1 F9000.0
M117 Printing...
M1001
M106 S0
;LAYER:-2
;Z:0.500
;HEIGHT:0.500
G0 F9000 X133.229 Y138.996
G0 F1500 Z0.500
;TYPE:RAFT
;WIDTH:0.800
G1 F480 X133.628 Y138.656 E0.0872
G1 X134.064 Y138.362 E0.1746
G1 X134.387 Y138.188 E0.2356
G1 X134.874 Y137.984 E0.3234
G1 X135.355 Y137.843 E0.4068
G1 X136.031 Y137.735 E0.5207
G1 X136.469 Y137.715 E0.5936
G1 X157.152 Y137.718 E4.0332
G1 X157.523 Y137.739 E4.0950
G1 X158.058 Y137.820 E4.1849
G1 X158.553 Y137.955 E4.2703
G1 X159.184 Y138.219 E4.3840
G1 X159.629 Y138.478 E4.4696
G1 X159.928 Y138.692 E4.5308
G1 X160.419 Y139.136 E4.6409
G1 X160.764 Y139.541 E4.7294
G1 X160.968 Y139.834 E4.7887
G1 X161.291 Y140.430 E4.9015
G1 X161.473 Y140.904 E4.9859
G1 X161.573 Y141.266 E5.0484
G1 X161.666 Y141.791 E5.1370
G1 X161.700 Y142.358 E5.2315
G1 X161.700 Y145.432 E5.7427
G1 X161.654 Y146.106 E5.8550
G1 X161.563 Y146.596 E5.9379
G1 X161.461 Y146.946 E5.9985
G1 X161.269 Y147.431 E6.0853
G1 X161.013 Y147.909 E6.1755
G1 X160.523 Y148.663 E6.3250
G1 X160.326 Y149.124 E6.4084
G1 X160.199 Y149.604 E6.4910
G1 X160.143 Y150.097 E6.5735
G1 X160.160 Y150.594 E6.6562
G1 X160.250 Y151.082 E6.7387
G1 X160.408 Y151.552 E6.8212
G1 X160.635 Y151.994 E6.9038
G1 X160.923 Y152.399 E6.9864
G1 X161.267 Y152.757 E7.0690
G1 X161.659 Y153.061 E7.1515
G1 X162.091 Y153.305 E7.2340
G1 X162.554 Y153.484 E7.3165
G1 X163.039 Y153.593 E7.3992
G1 X163.527 Y153.629 E7.4806
G1 X168.568 Y153.632 E8.3189
G1 X168.939 Y153.653 E8.3807
G1 X169.474 Y153.734 E8.4707
G1 X169.969 Y153.869 E8.5560
G1 X170.600 Y154.133 E8.6698
G1 X171.045 Y154.392 E8.7554
G1 X171.349 Y154.610 E8.8176
G1 X171.734 Y154.948 E8.9028
G1 X172.083 Y155.333 E8.9892
G1 X172.465 Y155.879 E9.1000
G1 X172.707 Y156.344 E9.1872
G1 X172.891 Y156.822 E9.2724
G1 X173.024 Y157.334 E9.3604
G1 X173.081 Y157.700 E9.4220
G1 X173.116 Y158.272 E9.5173
G1 X173.113 Y160.509 E9.8893
G1 X173.092 Y160.880 E9.9511
G1 X173.011 Y161.411 E10.0404
G1 X172.818 Y162.072 E10.1549
G1 X172.611 Y162.543 E10.2405
G1 X172.440 Y162.849 E10.2988
G1 X172.048 Y163.397 E10.4108
G1 X171.699 Y163.773 E10.4961
G1 X171.296 Y164.116 E10.5841
G1 X170.860 Y164.410 E10.6716
G1 X170.537 Y164.584 E10.7326
G1 X170.050 Y164.788 E10.8204
G1 X169.569 Y164.929 E10.9038
G1 X168.893 Y165.037 E11.0176
G1 X168.456 Y165.057 E11.0904
G1 X153.803 Y165.057 E13.5272
G1 X153.323 Y165.092 E13.6072
G1 X152.838 Y165.200 E13.6898
G1 X152.375 Y165.378 E13.7723
G1 X151.936 Y165.624 E13.8560
G1 X151.069 Y166.340 E14.0430
G1 X150.634 Y166.634 E14.1303
G1 X150.169 Y166.876 E14.2175
G1 X149.695 Y167.058 E14.3019
G1 X149.337 Y167.157 E14.3637
G1 X148.661 Y167.265 E14.4775
G1 X148.224 Y167.285 E14.5503
G1 X136.462 Y167.285 E16.5063
G1 X135.977 Y167.260 E16.5871
G1 X135.306 Y167.147 E16.7002
G1 X134.795 Y166.988 E16.7892
G1 X134.481 Y166.856 E16.8459
G1 X133.877 Y166.521 E16.9608
G1 X133.471 Y166.220 E17.0448
G1 X133.089 Y165.864 E17.1316
G1 X132.749 Y165.465 E17.2188
G1 X132.459 Y165.035 E17.3051
G1 X132.218 Y164.570 E17.3922
G1 X132.031 Y164.086 E17.4785
G1 X131.901 Y163.584 E17.5647
G1 X131.828 Y163.064 E17.6520
G1 X131.808 Y162.625 E17.7251
G1 X131.808 Y158.295 E18.4452
G1 X131.854 Y157.621 E18.5575
G1 X131.945 Y157.132 E18.6402
G1 X132.111 Y156.601 E18.7328
G1 X132.313 Y156.143 E18.8160
G1 X132.483 Y155.838 E18.8741
G1 X132.881 Y155.282 E18.9878
G1 X133.544 Y154.550 E19.1520
G1 X133.815 Y154.130 E19.2352
G1 X134.021 Y153.678 E19.3178
G1 X134.159 Y153.201 E19.4003
G1 X134.224 Y152.709 E19.4829
G1 X134.219 Y152.213 E19.5654
G1 X134.140 Y151.722 E19.6481
G1 X133.992 Y151.250 E19.7303
G1 X133.777 Y150.802 E19.8130
G1 X133.497 Y150.390 E19.8958
G1 X133.105 Y149.969 E19.9915
G1 X132.749 Y149.551 E20.0828
G1 X132.455 Y149.115 E20.1702
G1 X132.281 Y148.792 E20.2312
G1 X132.077 Y148.305 E20.3190
G1 X131.936 Y147.824 E20.4024
G1 X131.828 Y147.148 E20.5162
G1 X131.808 Y146.711 E20.5890
G1 X131.808 Y142.381 E21.3091
G1 X131.854 Y141.707 E21.4214
G1 X131.945 Y141.218 E21.5041
G1 X132.111 Y140.687 E21.5967
G1 X132.237 Y140.388 E21.6506
G1 X132.572 Y139.784 E21.7655
G1 X132.873 Y139.378 E21.8495
G1 X133.229 Y138.996 E21.9364
G0 F9000 X132.108 Y142.101
G1 F480 X132.108 Y147.129 E22.7725
G0 F9000 X134.532 Y138.431
G1 F480 X134.532 Y166.563 E27.4509
G0 F9000 X136.956 Y167.005
G1 F480 X136.956 Y137.996 E32.2751
G0 F9000 X139.380 Y137.996
G1 F480 X139.380 Y167.005 E37.0993
G0 F9000 X141.804 Y167.005
G1 F480 X141.804 Y137.996 E41.9236
G0 F9000 X144.228 Y137.997
G1 F480 X144.228 Y167.005 E46.7476
G0 F9000 X146.652 Y167.005
G1 F480 X146.652 Y137.997 E51.5717
G0 F9000 X149.076 Y137.997
G1 F480 X149.076 Y166.915 E56.3807
G0 F9000 X151.500 Y165.622
G1 F480 X151.500 Y137.998 E60.9746
G0 F9000 X153.924 Y137.998
G1 F480 X153.924 Y164.777 E65.4280
G0 F9000 X156.348 Y164.777
G1 F480 X156.348 Y137.998 E69.8814
G0 F9000 X158.772 Y138.350
G1 F480 X158.772 Y164.777 E74.2762
G0 F9000 X161.196 Y164.777
G1 F480 X161.196 Y153.056 E76.2254
G0 F9000 X163.620 Y153.910
G1 F480 X163.620 Y164.777 E78.0326
G0 F9000 X166.044 Y164.777
G1 F480 X166.044 Y153.911 E79.8396
G0 F9000 X168.468 Y153.912
G1 F480 X168.468 Y164.776 E81.6463
G0 F9000 X170.892 Y164.051
G1 F480 X170.892 Y154.628 E83.2133
G0 F9000 X161.196 Y146.855
G1 F480 X161.196 Y140.963 E84.1932
G0 F9000 X132.108 Y158.015
G1 F480 X132.108 Y163.050 E85.0305
M106 S255
;LAYER:-2
;Z:1.000
;HEIGHT:0.500
G0 F1500 Z1.000
G0 F9000 X131.808 Y162.625
;TYPE:RAFT
;WIDTH:0.800
G1 F960 X131.808 Y158.295 E85.7506
G1 X131.854 Y157.621 E85.8629
G1 X131.945 Y157.132 E85.9457
G1 X132.111 Y156.601 E86.0382
G1 X132.313 Y156.143 E86.1214
G1 X132.483 Y155.838 E86.1795
G1 X132.881 Y155.282 E86.2932
G1 X133.544 Y154.550 E86.4574
G1 X133.815 Y154.130 E86.5406
G1 X134.021 Y153.678 E86.6232
G1 X134.159 Y153.201 E86.7058
G1 X134.224 Y152.709 E86.7883
G1 X134.219 Y152.213 E86.8708
G1 X134.140 Y151.722 E86.9535
G1 X133.992 Y151.250 E87.0357
G1 X133.777 Y150.802 E87.1184
G1 X133.497 Y150.390 E87.2012
G1 X133.105 Y149.969 E87.2969
G1 X132.749 Y149.551 E87.3882
G1 X132.455 Y149.115 E87.4756
G1 X132.281 Y148.792 E87.5367
G1 X132.077 Y148.305 E87.6245
G1 X131.936 Y147.824 E87.7078
G1 X131.828 Y147.148 E87.8217
G1 X131.808 Y146.711 E87.8944
G1 X131.808 Y142.381 E88.6145
G1 X131.854 Y141.707 E88.7268
G1 X131.945 Y141.218 E88.8096
G1 X132.111 Y140.687 E88.9021
G1 X132.237 Y140.388 E88.9560
G1 X132.572 Y139.784 E89.0709
G1 X132.873 Y139.378 E89.1550
G1 X133.229 Y138.996 E89.2418
G1 X133.628 Y138.656 E89.3290
G1 X134.064 Y138.362 E89.4164
G1 X134.387 Y138.188 E89.4774
G1 X134.874 Y137.984 E89.5652
G1 X135.355 Y137.843 E89.6486
G1 X136.031 Y137.735 E89.7624
G1 X136.469 Y137.715 E89.8354
G1 X157.152 Y137.718 E93.2750
G1 X157.523 Y137.739 E93.3367
G1 X158.058 Y137.820 E93.4267
G1 X158.553 Y137.955 E93.5121
G1 X159.184 Y138.219 E93.6258
G1 X159.629 Y138.478 E93.7114
G1 X159.928 Y138.692 E93.7726
G1 X160.419 Y139.136 E93.8827
G1 X160.764 Y139.541 E93.9711
G1 X160.968 Y139.834 E94.0305
G1 X161.291 Y140.430 E94.1433
G1 X161.473 Y140.904 E94.2277
G1 X161.573 Y141.266 E94.2901
G1 X161.666 Y141.791 E94.3788
G1 X161.700 Y142.358 E94.4733
G1 X161.700 Y145.432 E94.9845
G1 X161.654 Y146.106 E95.0968
G1 X161.563 Y146.596 E95.1797
G1 X161.461 Y146.946 E95.2403
G1 X161.269 Y147.431 E95.3271
G1 X161.013 Y147.909 E95.4173
G1 X160.523 Y148.663 E95.5668
G1 X160.326 Y149.124 E95.6502
G1 X160.199 Y149.604 E95.7327
G1 X160.143 Y150.097 E95.8153
G1 X160.160 Y150.594 E95.8980
G1 X160.250 Y151.082 E95.9805
G1 X160.408 Y151.552 E96.0629
G1 X160.635 Y151.994 E96.1456
G1 X160.923 Y152.399 E96.2282
G1 X161.267 Y152.757 E96.3108
G1 X161.659 Y153.061 E96.3933
G1 X162.091 Y153.305 E96.4758
G1 X162.554 Y153.484 E96.5583
G1 X163.039 Y153.593 E96.6410
G1 X163.527 Y153.629 E96.7224
G1 X168.568 Y153.632 E97.5607
G1 X168.939 Y153.653 E97.6225
G1 X169.474 Y153.734 E97.7125
G1 X169.969 Y153.869 E97.7978
G1 X170.600 Y154.133 E97.9116
G1 X171.045 Y154.392 E97.9972
G1 X171.349 Y154.610 E98.0594
G1 X171.734 Y154.948 E98.1446
G1 X172.083 Y155.333 E98.2310
G1 X172.465 Y155.879 E98.3418
G1 X172.707 Y156.344 E98.4290
G1 X172.891 Y156.822 E98.5142
G1 X173.024 Y157.334 E98.6022
G1 X173.081 Y157.700 E98.6638
G1 X173.116 Y158.272 E98.7591
G1 X173.113 Y160.509 E99.1311
G1 X173.092 Y160.880 E99.1929
G1 X173.011 Y161.411 E99.2822
G1 X172.818 Y162.072 E99.3967
G1 X172.611 Y162.543 E99.4823
G1 X172.440 Y162.849 E99.5406
G1 X172.048 Y163.397 E99.6526
G1 X171.699 Y163.773 E99.7379
G1 X171.296 Y164.116 E99.8259
G1 X170.860 Y164.410 E99.9134
G1 X170.537 Y164.584 E99.9744
G1 X170.050 Y164.788 E100.0622
G1 X169.569 Y164.929 E100.1456
G1 X168.893 Y165.037 E100.2594
G1 X168.456 Y165.057 E100.3322
G1 X153.803 Y165.057 E102.7690
G1 X153.323 Y165.092 E102.8490
G1 X152.838 Y165.200 E102.9316
G1 X152.375 Y165.378 E103.0141
G1 X151.936 Y165.624 E103.0978
G1 X151.069 Y166.340 E103.2848
G1 X150.634 Y166.634 E103.3721
G1 X150.169 Y166.876 E103.4593
G1 X149.695 Y167.058 E103.5437
G1 X149.337 Y167.157 E103.6055
G1 X148.661 Y167.265 E103.7193
G1 X148.224 Y167.285 E103.7921
G1 X136.462 Y167.285 E105.7481
G1 X135.977 Y167.260 E105.8289
G1 X135.306 Y167.147 E105.9420
G1 X134.795 Y166.988 E106.0310
G1 X134.481 Y166.856 E106.0877
G1 X133.877 Y166.521 E106.2025
G1 X133.471 Y166.220 E106.2866
G1 X133.089 Y165.864 E106.3734
G1 X132.749 Y165.465 E106.4606
G1 X132.459 Y165.035 E106.5469
G1 X132.218 Y164.570 E106.6340
G1 X132.031 Y164.086 E106.7202
G1 X131.901 Y163.584 E106.8065
G1 X131.828 Y163.064 E106.8938
G1 X131.808 Y162.625 E106.9669
G0 F9000 X132.108 Y147.129
G1 F960 X132.108 Y142.101 E107.8030
G0 F9000 X134.532 Y138.431
G1 F960 X134.532 Y166.563 E112.4814
G0 F9000 X136.956 Y167.005
G1 F960 X136.956 Y137.996 E117.3056
G0 F9000 X139.380 Y137.996
G1 F960 X139.380 Y167.005 E122.1299
G0 F9000 X141.804 Y167.005
G1 F960 X141.804 Y137.996 E126.9541
G0 F9000 X144.228 Y137.997
G1 F960 X144.228 Y167.005 E131.7781
G0 F9000 X146.652 Y167.005
G1 F960 X146.652 Y137.997 E136.6022
G0 F9000 X149.076 Y137.997
G1 F960 X149.076 Y166.915 E141.4112
G0 F9000 X151.500 Y165.622
G1 F960 X151.500 Y137.998 E146.0051
G0 F9000 X153.924 Y137.998
G1 F960 X153.924 Y164.777 E150.4585
G0 F9000 X156.348 Y164.777
G1 F960 X156.348 Y137.998 E154.9119
G0 F9000 X158.772 Y138.350
G1 F960 X158.772 Y164.777 E159.3067
G0 F9000 X161.196 Y164.777
G1 F960 X161.196 Y153.056 E161.2559
G0 F9000 X163.620 Y153.910
G1 F960 X163.620 Y164.777 E163.0631
G0 F9000 X166.044 Y164.777
G1 F960 X166.044 Y153.911 E164.8701
G0 F9000 X168.468 Y153.912
G1 F960 X168.468 Y164.776 E166.6768
G0 F9000 X170.892 Y164.051
G1 F960 X170.892 Y154.628 E168.2439
G0 F9000 X161.196 Y146.855
G1 F960 X161.196 Y140.963 E169.2237
G0 F9000 X132.108 Y158.015
G1 F960 X132.108 Y163.050 E170.0610
;LAYER:-1
;Z:1.380
;HEIGHT:0.380
G0 F1500 Z1.380
G0 F9000 X133.797 Y166.200
;TYPE:RAFT
;WIDTH:0.600
G1 F1800 X150.900 Y166.200 E171.6822
G0 F9000 X152.772 Y165.000
G1 F1800 X132.688 Y165.000 E173.5860
G0 F9000 X132.173 Y163.800
G1 F1800 X171.344 Y163.800 E177.2991
G0 F9000 X172.338 Y162.600
G1 F1800 X132.018 Y162.600 E181.1211
G0 F9000 X132.018 Y161.400
G1 F1800 X172.795 Y161.400 E184.9864
G0 F9000 X172.903 Y160.200
G1 F1800 X132.018 Y160.200 E188.8620
G0 F9000 X132.018 Y159.000
G1 F1800 X172.905 Y159.000 E192.7377
G0 F9000 X172.878 Y157.800
G1 F1800 X132.053 Y157.800 E196.6075
G0 F9000 X132.341 Y156.600
G1 F1800 X172.581 Y156.600 E200.4220
G0 F9000 X171.861 Y155.400
G1 F1800 X133.057 Y155.400 E204.1002
G0 F9000 X134.014 Y154.200
G1 F1800 X170.216 Y154.200 E207.5319
G0 F9000 X161.238 Y153.000
G1 F1800 X134.398 Y153.000 E210.0761
G0 F9000 X134.365 Y151.800
G1 F1800 X160.300 Y151.800 E212.5345
G0 F9000 X159.951 Y150.600
G1 F1800 X133.894 Y150.600 E215.0045
G0 F9000 X132.900 Y149.400
G1 F1800 X160.035 Y149.400 E217.5766
G0 F9000 X160.573 Y148.200
G1 F1800 X132.264 Y148.200 E220.2601
G0 F9000 X132.031 Y147.000
G1 F1800 X161.214 Y147.000 E223.0264
G0 F9000 X161.464 Y145.800
G1 F1800 X132.018 Y145.800 E225.8176
G0 F9000 X132.018 Y144.600
G1 F1800 X161.490 Y144.600 E228.6113
G0 F9000 X161.490 Y143.400
G1 F1800 X132.018 Y143.400 E231.4050
G0 F9000 X132.031 Y142.200
G1 F1800 X161.481 Y142.200 E234.1966
G0 F9000 X161.282 Y141.000
G1 F1800 X132.233 Y141.000 E236.9502
G0 F9000 X132.823 Y139.800
G1 F1800 X160.689 Y139.800 E239.5916
G0 F9000 X159.422 Y138.600
G1 F1800 X134.088 Y138.600 E241.9931
;LAYER:-1
;Z:1.600
;HEIGHT:0.220
G0 F1500 Z1.600
G0 F9000 X131.976 Y163.121
;TYPE:RAFT
;WIDTH:0.400
G1 F3600 X133.809 Y166.297 E242.2252
G0 F9000 X134.622 Y166.763
G1 F3600 X131.947 Y162.129 E242.5639
G0 F9000 X131.947 Y161.187
G1 F3600 X135.301 Y166.997 E242.9885
G0 F9000 X135.908 Y167.105
G1 F3600 X131.947 Y160.245 E243.4899
G0 F9000 X131.946 Y159.302
G1 F3600 X136.474 Y167.144 E244.0630
G0 F9000 X137.017 Y167.144
G1 F3600 X131.946 Y158.359 E244.7050
G0 F9000 X132.012 Y157.532
G1 F3600 X137.561 Y167.144 E245.4075
G0 F9000 X138.105 Y167.144
G1 F3600 X132.173 Y156.868 E246.1585
G0 F9000 X132.392 Y156.306
G1 F3600 X138.649 Y167.144 E246.9506
G0 F9000 X139.193 Y167.144
G1 F3600 X132.660 Y155.828 E247.7776
G0 F9000 X132.960 Y155.407
G1 F3600 X139.737 Y167.144 E248.6355
G0 F9000 X140.281 Y167.144
G1 F3600 X133.290 Y155.036 E249.5204
G0 F9000 X133.623 Y154.670
G1 F3600 X140.825 Y167.144 E250.4321
G0 F9000 X141.369 Y167.144
G1 F3600 X133.914 Y154.232 E251.3758
G0 F9000 X134.156 Y153.709
G1 F3600 X141.913 Y167.144 E252.3577
G0 F9000 X142.456 Y167.143
G1 F3600 X134.319 Y153.050 E253.3877
G0 F9000 X134.352 Y152.165
G1 F3600 X143.000 Y167.143 E254.4824
G0 F9000 X143.544 Y167.143
G1 F3600 X131.965 Y147.088 E255.9481
G0 F9000 X131.947 Y146.115
G1 F3600 X144.088 Y167.143 E257.4850
G0 F9000 X144.632 Y167.144
G1 F3600 X131.947 Y145.172 E259.0908
G0 F9000 X131.946 Y144.230
G1 F3600 X145.175 Y167.144 E260.7655
G0 F9000 X145.719 Y167.144
G1 F3600 X131.946 Y143.288 E262.5090
G0 F9000 X131.949 Y142.350
G1 F3600 X146.263 Y167.144 E264.3211
G0 F9000 X146.807 Y167.144
G1 F3600 X132.026 Y141.542 E266.1922
G0 F9000 X132.193 Y140.889
G1 F3600 X147.351 Y167.144 E268.1110
G0 F9000 X147.895 Y167.144
G1 F3600 X132.421 Y140.342 E270.0699
G0 F9000 X132.687 Y139.861
G1 F3600 X148.433 Y167.134 E272.0631
G0 F9000 X148.944 Y167.077
G1 F3600 X132.994 Y139.451 E274.0822
G0 F9000 X133.330 Y139.091
G1 F3600 X149.434 Y166.983 E276.1207
G0 F9000 X149.890 Y166.831
G1 F3600 X133.695 Y138.781 E278.1708
G0 F9000 X134.085 Y138.515
G1 F3600 X150.322 Y166.638 E280.2262
G0 F9000 X150.728 Y166.399
G1 F3600 X134.500 Y138.291 E282.2805
G0 F9000 X134.939 Y138.109
G1 F3600 X151.112 Y166.122 E284.3278
G0 F9000 X151.480 Y165.818
G1 F3600 X135.406 Y137.976 E286.3626
G0 F9000 X135.904 Y137.896
G1 F3600 X151.848 Y165.513 E288.3810
G0 F9000 X152.258 Y165.281
G1 F3600 X136.425 Y137.857 E290.3853
G0 F9000 X136.967 Y137.855
G1 F3600 X152.698 Y165.102 E292.3767
G0 F9000 X153.173 Y164.981
G1 F3600 X137.511 Y137.855 E294.3592
G0 F9000 X138.055 Y137.855
G1 F3600 X153.684 Y164.924 E296.3376
G0 F9000 X154.222 Y164.916
G1 F3600 X138.599 Y137.855 E298.3154
G0 F9000 X139.143 Y137.855
G1 F3600 X154.766 Y164.916 E300.2931
G0 F9000 X155.310 Y164.916
