;Sliced by ideaMaker 3.3.0.2343, 2019-06-25 10:14:37 UTC-0400
;Dimension: 305.000 305.000 305.000 0.400 0.400
;Plate Shape: 0
;Extruder Offset #1: 25.000 0.000
;Filament Diameter #1: 1.750
;Filament Diameter #2: 1.750
;Filament Compensation #1: 94.00
;Filament Compensation #2: 94.00
;Filament Density #1: 1240.00
;Filament Density #2: 1240.00
;Model Gap: 0.200
M221 T0 S94.00
M140 S60.00
M104 T0 S215.00
M109 T0 S215.00
T0
M190 S60.00
G21
G90
M82
M107
G28 X0 Y0
G28 Z0
G1 Z15.0 F9000.0
G92 E0
G1 F140 E29
G1 X20 Y0 F140 E30
G92 E0
G1 F9000.0
M117 Printing...
M1001
M106 S0
;LAYER:-2
;Z:0.500
;HEIGHT:0.500
G0 F9000 X136.606 Y139.097
G0 F1500 Z0.500
;TYPE:RAFT
;WIDTH:0.800
G1 F480 X137.107 Y138.656 E0.1110
G1 X137.543 Y138.362 E0.1984
G1 X137.864 Y138.189 E0.2591
G1 X138.486 Y137.938 E0.3706
G1 X138.992 Y137.807 E0.4576
G1 X139.358 Y137.750 E0.5192
G1 X139.937 Y137.715 E0.6156
G1 X149.708 Y137.718 E2.2405
G1 X150.079 Y137.739 E2.3023
G1 X150.614 Y137.820 E2.3923
G1 X151.108 Y137.955 E2.4775
G1 X151.587 Y138.146 E2.5632
G1 X152.188 Y138.480 E2.6776
G1 X152.489 Y138.696 E2.7392
G1 X152.920 Y139.075 E2.8346
G1 X153.297 Y139.369 E2.9142
G1 X153.729 Y139.615 E2.9968
G1 X154.191 Y139.794 E3.0792
G1 X154.676 Y139.906 E3.1620
G1 X155.173 Y139.943 E3.2449
G1 X158.923 Y139.943 E3.8685
G1 X159.597 Y139.989 E3.9809
G1 X160.088 Y140.080 E4.0639
G1 X160.602 Y140.240 E4.1534
G1 X160.916 Y140.372 E4.2101
G1 X161.520 Y140.707 E4.3249
G1 X161.926 Y141.008 E4.4090
G1 X162.308 Y141.364 E4.4958
G1 X162.648 Y141.763 E4.5830
G1 X162.942 Y142.199 E4.6704
G1 X163.116 Y142.522 E4.7315
G1 X163.320 Y143.009 E4.8193
G1 X163.461 Y143.490 E4.9026
G1 X163.569 Y144.166 E5.0165
G1 X163.589 Y144.604 E5.0894
G1 X163.586 Y146.823 E5.4584
G1 X163.565 Y147.194 E5.5202
G1 X163.484 Y147.729 E5.6102
G1 X163.349 Y148.223 E5.6954
G1 X163.158 Y148.704 E5.7814
G1 X162.902 Y149.182 E5.8716
G1 X162.412 Y149.936 E6.0211
G1 X162.215 Y150.397 E6.1045
G1 X162.088 Y150.877 E6.1871
G1 X162.032 Y151.370 E6.2696
G1 X162.049 Y151.867 E6.3523
G1 X162.139 Y152.355 E6.4348
G1 X162.297 Y152.825 E6.5173
G1 X162.524 Y153.267 E6.5999
G1 X162.812 Y153.672 E6.6825
G1 X163.156 Y154.030 E6.7651
G1 X163.548 Y154.334 E6.8476
G1 X163.980 Y154.578 E6.9301
G1 X164.443 Y154.757 E7.0127
G1 X164.928 Y154.866 E7.0953
G1 X165.416 Y154.902 E7.1767
G1 X167.272 Y154.905 E7.4854
G1 X167.643 Y154.926 E7.5472
G1 X168.178 Y155.007 E7.6372
G1 X168.672 Y155.142 E7.7223
G1 X169.151 Y155.333 E7.8081
G1 X169.751 Y155.666 E7.9222
G1 X170.157 Y155.967 E8.0062
G1 X170.539 Y156.323 E8.0931
G1 X170.879 Y156.722 E8.1803
G1 X171.169 Y157.152 E8.2665
G1 X171.411 Y157.617 E8.3537
G1 X171.595 Y158.095 E8.4389
G1 X171.729 Y158.613 E8.5278
G1 X171.872 Y159.461 E8.6709
G1 X172.029 Y159.933 E8.7536
G1 X172.253 Y160.377 E8.8363
G1 X172.539 Y160.782 E8.9187
G1 X172.882 Y161.142 E9.0014
G1 X173.272 Y161.448 E9.0839
G1 X173.703 Y161.694 E9.1664
G1 X174.166 Y161.874 E9.2490
G1 X174.651 Y161.986 E9.3318
G1 X175.152 Y162.024 E9.4153
G1 X175.873 Y162.027 E9.5352
G1 X176.244 Y162.048 E9.5970
G1 X176.775 Y162.129 E9.6864
G1 X177.436 Y162.322 E9.8009
G1 X177.901 Y162.526 E9.8853
G1 X178.350 Y162.787 E9.9717
G1 X178.649 Y163.001 E10.0328
G1 X179.140 Y163.445 E10.1429
G1 X179.485 Y163.850 E10.2314
G1 X179.689 Y164.143 E10.2908
G1 X180.012 Y164.739 E10.4035
G1 X180.196 Y165.217 E10.4887
G1 X180.328 Y165.725 E10.5760
G1 X180.401 Y166.241 E10.6626
G1 X180.421 Y166.686 E10.7367
G1 X180.411 Y192.580 E15.0429
G1 X180.334 Y193.510 E15.1981
G1 X180.251 Y193.986 E15.2784
G1 X180.077 Y194.683 E15.3979
G1 X179.872 Y195.257 E15.4993
G1 X179.686 Y195.689 E15.5775
G1 X179.279 Y196.460 E15.7225
G1 X178.957 Y196.938 E15.8183
G1 X178.665 Y197.320 E15.8983
G1 X178.229 Y197.818 E16.0084
G1 X178.027 Y198.017 E16.0555
G1 X177.590 Y198.402 E16.1524
G1 X177.170 Y198.723 E16.2403
G1 X176.593 Y199.101 E16.3550
G1 X176.195 Y199.320 E16.4305
G1 X175.444 Y199.657 E16.5674
G1 X174.887 Y199.849 E16.6654
G1 X174.123 Y200.039 E16.7963
G1 X173.628 Y200.117 E16.8797
G1 X172.822 Y200.178 E17.0141
G1 X130.103 Y200.178 E24.1183
G1 X129.308 Y200.118 E24.2509
G1 X128.743 Y200.028 E24.3460
G1 X128.263 Y199.919 E24.4279
G1 X127.906 Y199.814 E24.4898
G1 X127.427 Y199.638 E24.5746
G1 X126.875 Y199.394 E24.6750
G1 X126.288 Y199.075 E24.7861
G1 X125.765 Y198.733 E24.8900
G1 X125.160 Y198.255 E25.0182
G1 X124.788 Y197.906 E25.1031
G1 X124.339 Y197.418 E25.2133
G1 X124.026 Y197.023 E25.2972
G1 X123.529 Y196.259 E25.4487
G1 X123.300 Y195.823 E25.5306
G1 X123.035 Y195.216 E25.6408
G1 X122.840 Y194.656 E25.7394
G1 X122.652 Y193.922 E25.8654
G1 X122.555 Y193.255 E25.9775
G1 X122.500 Y192.385 E26.1224
G1 X122.500 Y166.678 E30.3975
G1 X122.524 Y166.200 E30.4771
G1 X122.605 Y165.666 E30.5670
G1 X122.740 Y165.172 E30.6521
G1 X122.931 Y164.693 E30.7379
G1 X123.264 Y164.093 E30.8520
G1 X123.565 Y163.687 E30.9360
G1 X123.921 Y163.305 E31.0229
G1 X124.320 Y162.965 E31.1101
G1 X124.750 Y162.675 E31.1963
G1 X125.218 Y162.432 E31.2840
G1 X125.556 Y162.296 E31.3446
G1 X126.213 Y162.115 E31.4579
G1 X126.570 Y162.059 E31.5180
G1 X127.064 Y162.026 E31.6004
G1 X131.902 Y162.024 E32.4049
G1 X132.382 Y161.989 E32.4850
G1 X132.867 Y161.881 E32.5676
G1 X133.330 Y161.703 E32.6501
G1 X133.763 Y161.461 E32.7326
G1 X134.157 Y161.158 E32.8152
G1 X134.502 Y160.799 E32.8980
G1 X134.789 Y160.396 E32.9803
G1 X135.017 Y159.955 E33.0629
G1 X135.177 Y159.486 E33.1453
G1 X135.267 Y159.001 E33.2273
G1 X135.287 Y158.635 E33.2883
G1 X135.287 Y142.369 E35.9933
G1 X135.312 Y141.884 E36.0741
G1 X135.425 Y141.213 E36.1872
G1 X135.585 Y140.698 E36.2769
G1 X135.718 Y140.380 E36.3342
G1 X136.049 Y139.787 E36.4472
G1 X136.356 Y139.373 E36.5329
G1 X136.606 Y139.097 E36.5948
G0 F9000 X124.836 Y162.956
G1 F480 X124.836 Y197.544 E42.3468
G0 F9000 X127.260 Y199.257
G1 F480 X127.260 Y162.305 E48.4920
G0 F9000 X129.684 Y162.304
G1 F480 X129.684 Y199.865 E54.7384
G0 F9000 X132.108 Y199.898
G1 F480 X132.108 Y162.289 E60.9928
G0 F9000 X134.532 Y161.171
G1 F480 X134.532 Y199.898 E67.4331
G0 F9000 X136.956 Y199.898
G1 F480 X136.956 Y139.161 E77.5337
G0 F9000 X139.380 Y138.030
G1 F480 X139.380 Y199.898 E87.8224
G0 F9000 X141.804 Y199.898
G1 F480 X141.804 Y137.996 E98.1168
G0 F9000 X144.228 Y137.997
G1 F480 X144.228 Y199.898 E108.4109
G0 F9000 X146.652 Y199.898
G1 F480 X146.652 Y137.998 E118.7049
G0 F9000 X149.076 Y137.998
G1 F480 X149.076 Y199.898 E128.9990
G0 F9000 X151.500 Y199.898
G1 F480 X151.500 Y138.418 E139.2231
G0 F9000 X153.924 Y139.991
G1 F480 X153.924 Y199.898 E149.1857
G0 F9000 X156.348 Y199.898
G1 F480 X156.348 Y140.223 E159.1097
G0 F9000 X158.772 Y140.223
G1 F480 X158.772 Y199.898 E169.0337
G0 F9000 X161.196 Y199.898
G1 F480 X161.196 Y140.848 E178.8537
G0 F9000 X163.620 Y154.697
G1 F480 X163.620 Y199.898 E186.3707
G0 F9000 X166.044 Y199.898
G1 F480 X166.044 Y155.184 E193.8067
G0 F9000 X168.468 Y155.377
G1 F480 X168.468 Y199.898 E201.2105
G0 F9000 X170.892 Y199.898
G1 F480 X170.892 Y157.244 E208.3039
G0 F9000 X173.316 Y161.797
G1 F480 X173.316 Y199.860 E214.6338
G0 F9000 X175.740 Y199.218
G1 F480 X175.740 Y162.307 E220.7721
G0 F9000 X178.164 Y163.004
G1 F480 X178.164 Y197.468 E226.5035
M106 S255
;LAYER:-2
;Z:1.000
;HEIGHT:0.500
G0 F1500 Z1.000
G0 F9000 X178.229 Y197.818
;TYPE:RAFT
;WIDTH:0.800
G1 F960 X178.027 Y198.017 E226.5507
G1 X177.590 Y198.402 E226.6475
G1 X177.170 Y198.723 E226.7355
G1 X176.593 Y199.101 E226.8502
G1 X176.195 Y199.320 E226.9257
G1 X175.444 Y199.657 E227.0626
G1 X174.887 Y199.849 E227.1606
G1 X174.123 Y200.039 E227.2915
G1 X173.628 Y200.117 E227.3748
G1 X172.822 Y200.178 E227.5093
G1 X130.103 Y200.178 E234.6135
G1 X129.308 Y200.118 E234.7460
G1 X128.743 Y200.028 E234.8412
G1 X128.263 Y199.919 E234.9230
G1 X127.906 Y199.814 E234.9849
G1 X127.427 Y199.638 E235.0698
G1 X126.875 Y199.394 E235.1702
G1 X126.288 Y199.075 E235.2813
G1 X125.765 Y198.733 E235.3852
G1 X125.160 Y198.255 E235.5134
G1 X124.788 Y197.906 E235.5982
G1 X124.339 Y197.418 E235.7085
G1 X124.026 Y197.023 E235.7923
G1 X123.529 Y196.259 E235.9439
G1 X123.300 Y195.823 E236.0258
G1 X123.035 Y195.216 E236.1359
G1 X122.840 Y194.656 E236.2346
G1 X122.652 Y193.922 E236.3606
G1 X122.555 Y193.255 E236.4727
G1 X122.500 Y192.385 E236.6176
G1 X122.500 Y166.678 E240.8927
G1 X122.524 Y166.200 E240.9723
G1 X122.605 Y165.666 E241.0621
G1 X122.740 Y165.172 E241.1473
G1 X122.931 Y164.693 E241.2330
G1 X123.264 Y164.093 E241.3472
G1 X123.565 Y163.687 E241.4312
G1 X123.921 Y163.305 E241.5181
G1 X124.320 Y162.965 E241.6052
G1 X124.750 Y162.675 E241.6915
G1 X125.218 Y162.432 E241.7792
G1 X125.556 Y162.296 E241.8398
G1 X126.213 Y162.115 E241.9531
G1 X126.570 Y162.059 E242.0132
G1 X127.064 Y162.026 E242.0955
G1 X131.902 Y162.024 E242.9001
G1 X132.382 Y161.989 E242.9801
G1 X132.867 Y161.881 E243.0628
G1 X133.330 Y161.703 E243.1452
G1 X133.763 Y161.461 E243.2277
G1 X134.157 Y161.158 E243.3104
G1 X134.502 Y160.799 E243.3932
G1 X134.789 Y160.396 E243.4755
G1 X135.017 Y159.955 E243.5580
G1 X135.177 Y159.486 E243.6404
G1 X135.267 Y159.001 E243.7225
G1 X135.287 Y158.635 E243.7834
G1 X135.287 Y142.369 E246.4885
G1 X135.312 Y141.884 E246.5692
G1 X135.425 Y141.213 E246.6824
G1 X135.585 Y140.698 E246.7721
G1 X135.718 Y140.380 E246.8294
G1 X136.049 Y139.787 E246.9423
G1 X136.356 Y139.373 E247.0281
G1 X136.606 Y139.097 E247.0900
G1 X137.107 Y138.656 E247.2010
G1 X137.543 Y138.362 E247.2884
G1 X137.864 Y138.189 E247.3491
G1 X138.486 Y137.938 E247.4606
G1 X138.992 Y137.807 E247.5475
G1 X139.358 Y137.750 E247.6091
G1 X139.937 Y137.715 E247.7056
G1 X149.708 Y137.718 E249.3305
G1 X150.079 Y137.739 E249.3923
G1 X150.614 Y137.820 E249.4823
G1 X151.108 Y137.955 E249.5675
G1 X151.587 Y138.146 E249.6532
G1 X152.188 Y138.480 E249.7676
G1 X152.489 Y138.696 E249.8292
G1 X152.920 Y139.075 E249.9246
G1 X153.297 Y139.369 E250.0041
G1 X153.729 Y139.615 E250.0868
G1 X154.191 Y139.794 E250.1692
G1 X154.676 Y139.906 E250.2520
G1 X155.173 Y139.943 E250.3349
G1 X158.923 Y139.943 E250.9585
G1 X159.597 Y139.989 E251.0708
G1 X160.088 Y140.080 E251.1539
G1 X160.602 Y140.240 E251.2434
G1 X160.916 Y140.372 E251.3001
G1 X161.520 Y140.707 E251.4149
G1 X161.926 Y141.008 E251.4990
G1 X162.308 Y141.364 E251.5858
G1 X162.648 Y141.763 E251.6730
G1 X162.942 Y142.199 E251.7604
G1 X163.116 Y142.522 E251.8214
G1 X163.320 Y143.009 E251.9093
G1 X163.461 Y143.490 E251.9926
G1 X163.569 Y144.166 E252.1065
G1 X163.589 Y144.604 E252.1794
G1 X163.586 Y146.823 E252.5484
G1 X163.565 Y147.194 E252.6102
G1 X163.484 Y147.729 E252.7002
G1 X163.349 Y148.223 E252.7853
G1 X163.158 Y148.704 E252.8714
G1 X162.902 Y149.182 E252.9616
G1 X162.412 Y149.936 E253.1111
G1 X162.215 Y150.397 E253.1945
G1 X162.088 Y150.877 E253.2771
G1 X162.032 Y151.370 E253.3596
G1 X162.049 Y151.867 E253.4423
G1 X162.139 Y152.355 E253.5248
G1 X162.297 Y152.825 E253.6073
G1 X162.524 Y153.267 E253.6899
G1 X162.812 Y153.672 E253.7725
G1 X163.156 Y154.030 E253.8551
G1 X163.548 Y154.334 E253.9376
G1 X163.980 Y154.578 E254.0201
G1 X164.443 Y154.757 E254.1027
G1 X164.928 Y154.866 E254.1853
G1 X165.416 Y154.902 E254.2667
G1 X167.272 Y154.905 E254.5754
G1 X167.643 Y154.926 E254.6372
G1 X168.178 Y155.007 E254.7271
G1 X168.672 Y155.142 E254.8123
G1 X169.151 Y155.333 E254.8981
G1 X169.751 Y155.666 E255.0122
G1 X170.157 Y155.967 E255.0962
G1 X170.539 Y156.323 E255.1831
G1 X170.879 Y156.722 E255.2702
G1 X171.169 Y157.152 E255.3565
G1 X171.411 Y157.617 E255.4437
G1 X171.595 Y158.095 E255.5288
G1 X171.729 Y158.613 E255.6178
G1 X171.872 Y159.461 E255.7608
G1 X172.029 Y159.933 E255.8436
G1 X172.253 Y160.377 E255.9263
G1 X172.539 Y160.782 E256.0087
G1 X172.882 Y161.142 E256.0914
G1 X173.272 Y161.448 E256.1738
G1 X173.703 Y161.694 E256.2564
G1 X174.166 Y161.874 E256.3390
G1 X174.651 Y161.986 E256.4218
G1 X175.152 Y162.024 E256.5053
G1 X175.873 Y162.027 E256.6252
G1 X176.244 Y162.048 E256.6870
G1 X176.775 Y162.129 E256.7764
G1 X177.436 Y162.322 E256.8909
G1 X177.901 Y162.526 E256.9753
G1 X178.350 Y162.787 E257.0617
G1 X178.649 Y163.001 E257.1228
G1 X179.140 Y163.445 E257.2329
G1 X179.485 Y163.850 E257.3214
G1 X179.689 Y164.143 E257.3808
G1 X180.012 Y164.739 E257.4935
G1 X180.196 Y165.217 E257.5787
G1 X180.328 Y165.725 E257.6660
G1 X180.401 Y166.241 E257.7526
G1 X180.421 Y166.686 E257.8267
G1 X180.411 Y192.580 E262.1329
G1 X180.334 Y193.510 E262.2881
G1 X180.251 Y193.986 E262.3684
G1 X180.077 Y194.683 E262.4879
G1 X179.872 Y195.257 E262.5893
G1 X179.686 Y195.689 E262.6675
G1 X179.279 Y196.460 E262.8125
G1 X178.957 Y196.938 E262.9083
G1 X178.665 Y197.320 E262.9883
G1 X178.229 Y197.818 E263.0984
G0 F9000 X178.164 Y197.468
G1 F960 X178.164 Y163.004 E268.8297
G0 F9000 X175.740 Y162.307
G1 F960 X175.740 Y199.218 E274.9681
G0 F9000 X173.316 Y199.860
G1 F960 X173.316 Y161.797 E281.2980
G0 F9000 X170.892 Y157.244
G1 F960 X170.892 Y199.898 E288.3914
G0 F9000 X168.468 Y199.898
G1 F960 X168.468 Y155.377 E295.7952
G0 F9000 X166.044 Y155.184
G1 F960 X166.044 Y199.898 E303.2312
G0 F9000 X163.620 Y199.898
G1 F960 X163.620 Y154.697 E310.7482
G0 F9000 X161.196 Y140.848
G1 F960 X161.196 Y199.898 E320.5682
G0 F9000 X158.772 Y199.898
G1 F960 X158.772 Y140.223 E330.4922
G0 F9000 X156.348 Y140.223
G1 F960 X156.348 Y199.898 E340.4162
G0 F9000 X153.924 Y199.898
G1 F960 X153.924 Y139.991 E350.3788
G0 F9000 X151.500 Y138.418
G1 F960 X151.500 Y199.898 E360.6029
G0 F9000 X149.076 Y199.898
G1 F960 X149.076 Y137.998 E370.8969
G0 F9000 X146.652 Y137.998
G1 F960 X146.652 Y199.898 E381.1910
G0 F9000 X144.228 Y199.898
G1 F960 X144.228 Y137.997 E391.4851
G0 F9000 X141.804 Y137.996
G1 F960 X141.804 Y199.898 E401.7795
G0 F9000 X139.380 Y199.898
G1 F960 X139.380 Y138.030 E412.0682
G0 F9000 X136.956 Y139.161
G1 F960 X136.956 Y199.898 E422.1688
G0 F9000 X134.532 Y199.898
G1 F960 X134.532 Y161.171 E428.6091
G0 F9000 X132.108 Y162.289
G1 F960 X132.108 Y199.898 E434.8635
G0 F9000 X129.684 Y199.865
G1 F960 X129.684 Y162.304 E441.1099
G0 F9000 X127.260 Y162.305
G1 F960 X127.260 Y199.257 E447.2551
G0 F9000 X124.836 Y197.544
G1 F960 X124.836 Y162.956 E453.0071
;LAYER:-1
;Z:1.380
;HEIGHT:0.380
G0 F1500 Z1.380
G0 F9000 X137.567 Y138.600
;TYPE:RAFT
;WIDTH:0.600
G1 F1800 X151.972 Y138.600 E454.3725
G0 F9000 X153.630 Y139.800
G1 F1800 X136.301 Y139.800 E456.0152
G0 F9000 X135.710 Y141.000
G1 F1800 X161.563 Y141.000 E458.4658
G0 F9000 X162.689 Y142.200
G1 F1800 X135.507 Y142.200 E461.0424
G0 F9000 X135.497 Y143.400
G1 F1800 X163.216 Y143.400 E463.6700
G0 F9000 X163.379 Y144.600
G1 F1800 X135.497 Y144.600 E466.3129
G0 F9000 X135.497 Y145.800
G1 F1800 X163.377 Y145.800 E468.9557
G0 F9000 X163.365 Y147.000
G1 F1800 X135.497 Y147.000 E471.5974
G0 F9000 X135.497 Y148.200
G1 F1800 X163.131 Y148.200 E474.2168
G0 F9000 X162.510 Y149.400
G1 F1800 X135.497 Y149.400 E476.7774
G0 F9000 X135.497 Y150.600
G1 F1800 X161.944 Y150.600 E479.2844
G0 F9000 X161.837 Y151.800
G1 F1800 X135.497 Y151.800 E481.7812
G0 F9000 X135.497 Y153.000
G1 F1800 X162.152 Y153.000 E484.3078
G0 F9000 X163.032 Y154.200
G1 F1800 X135.497 Y154.200 E486.9179
G0 F9000 X135.497 Y155.400
G1 F1800 X168.751 Y155.400 E490.0701
G0 F9000 X170.500 Y156.600
G1 F1800 X135.497 Y156.600 E493.3881
G0 F9000 X135.497 Y157.800
G1 F1800 X171.257 Y157.800 E496.7778
G0 F9000 X171.582 Y159.000
G1 F1800 X135.478 Y159.000 E500.2002
G0 F9000 X135.127 Y160.200
G1 F1800 X171.928 Y160.200 E503.6886
G0 F9000 X172.872 Y161.400
G1 F1800 X134.188 Y161.400 E507.3555
G0 F9000 X125.362 Y162.600
G1 F1800 X177.546 Y162.600 E512.3021
G0 F9000 X179.167 Y163.800
G1 F1800 X123.746 Y163.800 E517.5555
G0 F9000 X123.035 Y165.000
G1 F1800 X179.888 Y165.000 E522.9447
