;Sliced by ideaMaker 3.3.0.2343, 2019-06-25 10:16:22 UTC-0400
;Dimension: 305.000 305.000 305.000 0.400 0.400
;Plate Shape: 0
;Extruder Offset #1: 25.000 0.000
;Filament Diameter #1: 1.750
;Filament Diameter #2: 1.750
;Filament Compensation #1: 94.00
;Filament Compensation #2: 94.00
;Filament Density #1: 1240.00
;Filament Density #2: 1240.00
;Model Gap: 0.200
M221 T0 S94.00
M140 S60.00
M104 T0 S215.00
M109 T0 S215.00
T0
M190 S60.00
G21
G90
M82
M107
G28 X0 Y0
G28 Z0
G1 Z15.0 F9000.0
G92 E0
G1 F140 E29
G1 X20 Y0 F140 E30
G92 E0
G1 F9000.0
M117 Printing...
M1001
M106 S0
;LAYER:-2
;Z:0.500
;HEIGHT:0.500
G0 F9000 X133.424 Y99.042
G0 F1500 Z0.500
;TYPE:RAFT
;WIDTH:0.800
G1 F480 X133.725 Y98.636 E0.0840
G1 X134.082 Y98.253 E0.1711
G1 X134.364 Y98.005 E0.2336
G1 X134.910 Y97.624 E0.3443
G1 X135.375 Y97.382 E0.4315
G1 X135.849 Y97.200 E0.5159
G1 X136.211 Y97.100 E0.5784
G1 X136.736 Y97.007 E0.6670
G1 X137.310 Y96.973 E0.7627
G1 X167.792 Y96.976 E5.8318
G1 X168.163 Y96.997 E5.8936
G1 X168.698 Y97.078 E5.9836
G1 X169.192 Y97.213 E6.0688
G1 X169.671 Y97.404 E6.1545
G1 X170.271 Y97.737 E6.2687
G1 X170.677 Y98.038 E6.3527
G1 X171.059 Y98.394 E6.4395
G1 X171.404 Y98.799 E6.5280
G1 X171.608 Y99.092 E6.5874
G1 X171.931 Y99.688 E6.7001
G1 X172.115 Y100.166 E6.7853
G1 X172.248 Y100.678 E6.8733
G1 X172.305 Y101.043 E6.9347
G1 X172.338 Y101.537 E7.0170
G1 X172.340 Y203.361 E23.9504
G1 X172.294 Y204.035 E24.0628
G1 X172.203 Y204.526 E24.1458
G1 X172.043 Y205.040 E24.2354
G1 X171.911 Y205.354 E24.2920
G1 X171.576 Y205.958 E24.4069
G1 X171.275 Y206.364 E24.4909
G1 X170.918 Y206.747 E24.5780
G1 X170.636 Y206.995 E24.6404
G1 X170.090 Y207.376 E24.7512
G1 X169.625 Y207.618 E24.8383
G1 X169.151 Y207.800 E24.9228
G1 X168.793 Y207.899 E24.9845
G1 X168.117 Y208.007 E25.0984
G1 X167.680 Y208.027 E25.1711
G1 X137.326 Y208.027 E30.2190
G1 X136.652 Y207.981 E30.3314
G1 X136.161 Y207.890 E30.4144
G1 X135.647 Y207.730 E30.5039
G1 X135.333 Y207.598 E30.5606
G1 X134.729 Y207.263 E30.6755
G1 X134.323 Y206.962 E30.7595
G1 X133.940 Y206.605 E30.8466
G1 X133.692 Y206.323 E30.9090
G1 X133.308 Y205.773 E31.0206
G1 X133.129 Y205.440 E31.0834
G1 X132.931 Y204.967 E31.1687
G1 X132.751 Y204.314 E31.2814
G1 X132.694 Y203.948 E31.3430
G1 X132.662 Y203.464 E31.4236
G1 X132.660 Y101.639 E48.3572
G1 X132.706 Y100.965 E48.4695
G1 X132.797 Y100.476 E48.5523
G1 X132.963 Y99.945 E48.6448
G1 X133.089 Y99.646 E48.6987
G1 X133.424 Y99.042 E48.8136
G0 F9000 X134.532 Y98.228
G1 F480 X134.532 Y206.768 E66.8639
G0 F9000 X136.956 Y207.720
G1 F480 X136.956 Y97.274 E85.2311
G0 F9000 X139.380 Y97.254
G1 F480 X139.380 Y207.747 E103.6062
G0 F9000 X141.804 Y207.747
G1 F480 X141.804 Y97.254 E121.9812
G0 F9000 X144.228 Y97.254
G1 F480 X144.228 Y207.747 E140.3563
G0 F9000 X146.652 Y207.747
G1 F480 X146.652 Y97.254 E158.7314
G0 F9000 X149.076 Y97.255
G1 F480 X149.076 Y207.747 E177.1063
G0 F9000 X151.500 Y207.747
G1 F480 X151.500 Y97.255 E195.4812
G0 F9000 X153.924 Y97.255
G1 F480 X153.924 Y207.747 E213.8560
G0 F9000 X156.348 Y207.747
G1 F480 X156.348 Y97.255 E232.2309
G0 F9000 X158.772 Y97.256
G1 F480 X158.772 Y207.747 E250.6057
G0 F9000 X161.196 Y207.747
G1 F480 X161.196 Y97.256 E268.9804
G0 F9000 X163.620 Y97.256
G1 F480 X163.620 Y207.747 E287.3551
G0 F9000 X166.044 Y207.747
G1 F480 X166.044 Y97.256 E305.7299
G0 F9000 X168.468 Y97.326
G1 F480 X168.468 Y207.668 E324.0798
G0 F9000 X170.892 Y206.364
G1 F480 X170.892 Y98.630 E341.9960
M106 S255
;LAYER:-2
;Z:1.000
;HEIGHT:0.500
G0 F1500 Z1.000
G0 F9000 X171.059 Y98.394
;TYPE:RAFT
;WIDTH:0.800
G1 F960 X171.404 Y98.799 E342.0845
G1 X171.608 Y99.092 E342.1439
G1 X171.931 Y99.688 E342.2566
G1 X172.115 Y100.166 E342.3418
G1 X172.248 Y100.678 E342.4298
G1 X172.305 Y101.043 E342.4912
G1 X172.338 Y101.537 E342.5735
G1 X172.340 Y203.361 E359.5069
G1 X172.294 Y204.035 E359.6193
G1 X172.203 Y204.526 E359.7023
G1 X172.043 Y205.040 E359.7919
G1 X171.911 Y205.354 E359.8485
G1 X171.576 Y205.958 E359.9634
G1 X171.275 Y206.364 E360.0474
G1 X170.918 Y206.747 E360.1345
G1 X170.636 Y206.995 E360.1969
G1 X170.090 Y207.376 E360.3077
G1 X169.625 Y207.618 E360.3948
G1 X169.151 Y207.800 E360.4793
G1 X168.793 Y207.899 E360.5410
G1 X168.117 Y208.007 E360.6549
G1 X167.680 Y208.027 E360.7276
G1 X137.326 Y208.027 E365.7755
G1 X136.652 Y207.981 E365.8879
G1 X136.161 Y207.890 E365.9709
G1 X135.647 Y207.730 E366.0604
G1 X135.333 Y207.598 E366.1171
G1 X134.729 Y207.263 E366.2319
G1 X134.323 Y206.962 E366.3160
G1 X133.940 Y206.605 E366.4031
G1 X133.692 Y206.323 E366.4655
G1 X133.308 Y205.773 E366.5771
G1 X133.129 Y205.440 E366.6399
G1 X132.931 Y204.967 E366.7252
G1 X132.751 Y204.314 E366.8379
G1 X132.694 Y203.948 E366.8995
G1 X132.662 Y203.464 E366.9801
G1 X132.660 Y101.639 E383.9137
G1 X132.706 Y100.965 E384.0260
G1 X132.797 Y100.476 E384.1088
G1 X132.963 Y99.945 E384.2013
G1 X133.089 Y99.646 E384.2552
G1 X133.424 Y99.042 E384.3701
G1 X133.725 Y98.636 E384.4541
G1 X134.082 Y98.253 E384.5412
G1 X134.364 Y98.005 E384.6037
G1 X134.910 Y97.624 E384.7144
G1 X135.375 Y97.382 E384.8016
G1 X135.849 Y97.200 E384.8860
G1 X136.211 Y97.100 E384.9485
G1 X136.736 Y97.007 E385.0371
G1 X137.310 Y96.973 E385.1328
G1 X167.792 Y96.976 E390.2019
G1 X168.163 Y96.997 E390.2637
G1 X168.698 Y97.078 E390.3537
G1 X169.192 Y97.213 E390.4389
G1 X169.671 Y97.404 E390.5246
G1 X170.271 Y97.737 E390.6388
G1 X170.677 Y98.038 E390.7228
G1 X171.059 Y98.394 E390.8096
G0 F9000 X170.892 Y98.630
G1 F960 X170.892 Y206.364 E408.7259
G0 F9000 X168.468 Y207.668
G1 F960 X168.468 Y97.326 E427.0758
G0 F9000 X166.044 Y97.256
G1 F960 X166.044 Y207.747 E445.4506
G0 F9000 X163.620 Y207.747
G1 F960 X163.620 Y97.256 E463.8253
G0 F9000 X161.196 Y97.256
G1 F960 X161.196 Y207.747 E482.2000
G0 F9000 X158.772 Y207.747
G1 F960 X158.772 Y97.256 E500.5747
G0 F9000 X156.348 Y97.255
G1 F960 X156.348 Y207.747 E518.9496
G0 F9000 X153.924 Y207.747
G1 F960 X153.924 Y97.255 E537.3245
G0 F9000 X151.500 Y97.255
G1 F960 X151.500 Y207.747 E555.6994
G0 F9000 X149.076 Y207.747
G1 F960 X149.076 Y97.255 E574.0743
G0 F9000 X146.652 Y97.254
G1 F960 X146.652 Y207.747 E592.4494
G0 F9000 X144.228 Y207.747
G1 F960 X144.228 Y97.254 E610.8244
G0 F9000 X141.804 Y97.254
G1 F960 X141.804 Y207.747 E629.1995
G0 F9000 X139.380 Y207.747
G1 F960 X139.380 Y97.254 E647.5746
G0 F9000 X136.956 Y97.274
G1 F960 X136.956 Y207.720 E665.9418
G0 F9000 X134.532 Y206.768
G1 F960 X134.532 Y98.228 E683.9921
;LAYER:-1
;Z:1.380
;HEIGHT:0.380
G0 F1500 Z1.380
G0 F9000 X135.024 Y97.800
;TYPE:RAFT
;WIDTH:0.600
G1 F1800 X169.953 Y97.800 E687.3030
G0 F9000 X171.289 Y99.000
G1 F1800 X133.717 Y99.000 E690.8645
G0 F9000 X133.103 Y100.200
G1 F1800 X171.904 Y100.200 E694.5425
G0 F9000 X172.120 Y101.400
G1 F1800 X132.887 Y101.400 E698.2615
G0 F9000 X132.870 Y102.600
G1 F1800 X172.129 Y102.600 E701.9829
G0 F9000 X172.129 Y103.800
G1 F1800 X132.870 Y103.800 E705.7043
G0 F9000 X132.870 Y105.000
G1 F1800 X172.129 Y105.000 E709.4257
G0 F9000 X172.129 Y106.200
G1 F1800 X132.870 Y106.200 E713.1472
G0 F9000 X132.870 Y107.400
G1 F1800 X172.129 Y107.400 E716.8686
G0 F9000 X172.129 Y108.600
G1 F1800 X132.870 Y108.600 E720.5900
G0 F9000 X132.870 Y109.800
G1 F1800 X172.129 Y109.800 E724.3114
G0 F9000 X172.129 Y111.000
G1 F1800 X132.870 Y111.000 E728.0328
G0 F9000 X132.870 Y112.200
G1 F1800 X172.129 Y112.200 E731.7542
G0 F9000 X172.129 Y113.400
G1 F1800 X132.870 Y113.400 E735.4756
G0 F9000 X132.870 Y114.600
G1 F1800 X172.129 Y114.600 E739.1971
G0 F9000 X172.129 Y115.800
G1 F1800 X132.870 Y115.800 E742.9185
G0 F9000 X132.870 Y117.000
G1 F1800 X172.129 Y117.000 E746.6399
G0 F9000 X172.129 Y118.200
G1 F1800 X132.870 Y118.200 E750.3613
G0 F9000 X132.870 Y119.400
G1 F1800 X172.129 Y119.400 E754.0827
G0 F9000 X172.129 Y120.600
G1 F1800 X132.870 Y120.600 E757.8041
G0 F9000 X132.870 Y121.800
G1 F1800 X172.129 Y121.800 E761.5256
G0 F9000 X172.129 Y123.000
G1 F1800 X132.870 Y123.000 E765.2470
G0 F9000 X132.870 Y124.200
G1 F1800 X172.129 Y124.200 E768.9684
G0 F9000 X172.129 Y125.400
G1 F1800 X132.870 Y125.400 E772.6898
G0 F9000 X132.870 Y126.600
G1 F1800 X172.129 Y126.600 E776.4112
G0 F9000 X172.129 Y127.800
G1 F1800 X132.870 Y127.800 E780.1326
G0 F9000 X132.870 Y129.000
G1 F1800 X172.129 Y129.000 E783.8540
G0 F9000 X172.129 Y130.200
G1 F1800 X132.870 Y130.200 E787.5755
G0 F9000 X132.870 Y131.400
G1 F1800 X172.129 Y131.400 E791.2969
G0 F9000 X172.129 Y132.600
G1 F1800 X132.870 Y132.600 E795.0183
G0 F9000 X132.870 Y133.800
G1 F1800 X172.129 Y133.800 E798.7397
G0 F9000 X172.129 Y135.000
G1 F1800 X132.870 Y135.000 E802.4611
G0 F9000 X132.870 Y136.200
G1 F1800 X172.129 Y136.200 E806.1825
G0 F9000 X172.129 Y137.400
G1 F1800 X132.870 Y137.400 E809.9039
G0 F9000 X132.870 Y138.600
G1 F1800 X172.129 Y138.600 E813.6254
G0 F9000 X172.129 Y139.800
G1 F1800 X132.870 Y139.800 E817.3468
G0 F9000 X132.870 Y141.000
G1 F1800 X172.129 Y141.000 E821.0682
G0 F9000 X172.129 Y142.200
G1 F1800 X132.870 Y142.200 E824.7896
G0 F9000 X132.870 Y143.400
G1 F1800 X172.129 Y143.400 E828.5110
G0 F9000 X172.129 Y144.600
G1 F1800 X132.870 Y144.600 E832.2324
G0 F9000 X132.870 Y145.800
G1 F1800 X172.129 Y145.800 E835.9539
G0 F9000 X172.129 Y147.000
G1 F1800 X132.870 Y147.000 E839.6753
G0 F9000 X132.870 Y148.200
G1 F1800 X172.129 Y148.200 E843.3967
G0 F9000 X172.129 Y149.400
G1 F1800 X132.870 Y149.400 E847.1181
G0 F9000 X132.870 Y150.600
G1 F1800 X172.129 Y150.600 E850.8395
G0 F9000 X172.129 Y151.800
G1 F1800 X132.870 Y151.800 E854.5609
G0 F9000 X132.871 Y153.000
G1 F1800 X172.130 Y153.000 E858.2823
G0 F9000 X172.130 Y154.200
G1 F1800 X132.871 Y154.200 E862.0038
G0 F9000 X132.871 Y155.400
G1 F1800 X172.130 Y155.400 E865.7252
G0 F9000 X172.130 Y156.600
G1 F1800 X132.871 Y156.600 E869.4466
G0 F9000 X132.871 Y157.800
G1 F1800 X172.130 Y157.800 E873.1680
G0 F9000 X172.130 Y159.000
G1 F1800 X132.871 Y159.000 E876.8894
G0 F9000 X132.871 Y160.200
G1 F1800 X172.130 Y160.200 E880.6108
G0 F9000 X172.130 Y161.400
G1 F1800 X132.871 Y161.400 E884.3322
G0 F9000 X132.871 Y162.600
G1 F1800 X172.130 Y162.600 E888.0537
G0 F9000 X172.130 Y163.800
G1 F1800 X132.871 Y163.800 E891.7751
G0 F9000 X132.871 Y165.000
G1 F1800 X172.130 Y165.000 E895.4965
G0 F9000 X172.130 Y166.200
G1 F1800 X132.871 Y166.200 E899.2179
G0 F9000 X132.871 Y167.400
G1 F1800 X172.130 Y167.400 E902.9393
G0 F9000 X172.130 Y168.600
G1 F1800 X132.871 Y168.600 E906.6607
G0 F9000 X132.871 Y169.800
G1 F1800 X172.130 Y169.800 E910.3822
G0 F9000 X172.130 Y171.000
G1 F1800 X132.871 Y171.000 E914.1036
G0 F9000 X132.871 Y172.200
G1 F1800 X172.130 Y172.200 E917.8250
G0 F9000 X172.130 Y173.400
G1 F1800 X132.871 Y173.400 E921.5464
G0 F9000 X132.871 Y174.600
G1 F1800 X172.130 Y174.600 E925.2678
G0 F9000 X172.130 Y175.800
G1 F1800 X132.871 Y175.800 E928.9892
G0 F9000 X132.871 Y177.000
G1 F1800 X172.130 Y177.000 E932.7106
G0 F9000 X172.130 Y178.200
G1 F1800 X132.871 Y178.200 E936.4321
G0 F9000 X132.871 Y179.400
G1 F1800 X172.130 Y179.400 E940.1535
G0 F9000 X172.130 Y180.600
G1 F1800 X132.871 Y180.600 E943.8749
G0 F9000 X132.871 Y181.800
G1 F1800 X172.130 Y181.800 E947.5963
G0 F9000 X172.130 Y183.000
G1 F1800 X132.871 Y183.000 E951.3177
G0 F9000 X132.871 Y184.200
G1 F1800 X172.130 Y184.200 E955.0391
G0 F9000 X172.130 Y185.400
G1 F1800 X132.871 Y185.400 E958.7605
G0 F9000 X132.871 Y186.600
G1 F1800 X172.130 Y186.600 E962.4820
G0 F9000 X172.130 Y187.800
G1 F1800 X132.871 Y187.800 E966.2034
G0 F9000 X132.871 Y189.000
G1 F1800 X172.130 Y189.000 E969.9248
G0 F9000 X172.130 Y190.200
G1 F1800 X132.871 Y190.200 E973.6462
G0 F9000 X132.871 Y191.400
G1 F1800 X172.130 Y191.400 E977.3676
G0 F9000 X172.130 Y192.600
G1 F1800 X132.871 Y192.600 E981.0890
G0 F9000 X132.871 Y193.800
G1 F1800 X172.130 Y193.800 E984.8105
G0 F9000 X172.130 Y195.000
G1 F1800 X132.871 Y195.000 E988.5319
G0 F9000 X132.871 Y196.200
G1 F1800 X172.130 Y196.200 E992.2533
G0 F9000 X172.130 Y197.400
G1 F1800 X132.871 Y197.400 E995.9747
G0 F9000 X132.871 Y198.600
G1 F1800 X172.130 Y198.600 E999.6961
G0 F9000 X172.130 Y199.800
G1 F1800 X132.871 Y199.800 E1003.4175
G0 F9000 X132.871 Y201.000
G1 F1800 X172.130 Y201.000 E1007.1389
G0 F9000 X172.130 Y202.200
G1 F1800 X132.871 Y202.200 E1010.8604
G0 F9000 X132.871 Y203.400
G1 F1800 X172.127 Y203.400 E1014.5815
G0 F9000 X171.960 Y204.600
G1 F1800 X133.047 Y204.600 E1018.2701
G0 F9000 X133.582 Y205.800
G1 F1800 X171.423 Y205.800 E1021.8571
G0 F9000 X170.261 Y207.000
G1 F1800 X134.727 Y207.000 E1025.2254
;LAYER:-1
;Z:1.600
;HEIGHT:0.220
G0 F1500 Z1.600
G0 F9000 X134.349 Y206.796
;TYPE:RAFT
;WIDTH:0.400
G1 F3600 X132.883 Y204.256 E1025.4110
G0 F9000 X132.801 Y203.172
G1 F3600 X135.231 Y207.382 E1025.7187
G0 F9000 X135.945 Y207.675
G1 F3600 X132.801 Y202.230 E1026.1167
G0 F9000 X132.800 Y201.288
G1 F3600 X136.574 Y207.823 E1026.5943
G0 F9000 X137.146 Y207.873
G1 F3600 X132.800 Y200.345 E1027.1445
G0 F9000 X132.801 Y199.404
G1 F3600 X137.698 Y207.886 E1027.7644
G0 F9000 X138.242 Y207.886
G1 F3600 X132.801 Y198.462 E1028.4532
G0 F9000 X132.801 Y197.520
G1 F3600 X138.786 Y207.886 E1029.2108
G0 F9000 X139.329 Y207.886
G1 F3600 X132.800 Y196.577 E1030.0373
G0 F9000 X132.800 Y195.635
G1 F3600 X139.873 Y207.886 E1030.9327
G0 F9000 X140.417 Y207.886
G1 F3600 X132.800 Y194.693 E1031.8969
G0 F9000 X132.801 Y193.752
G1 F3600 X140.961 Y207.886 E1032.9299
G0 F9000 X141.505 Y207.886
G1 F3600 X132.801 Y192.810 E1034.0317
G0 F9000 X132.800 Y191.867
G1 F3600 X142.049 Y207.886 E1035.2025
G0 F9000 X142.593 Y207.886
G1 F3600 X132.800 Y190.925 E1036.4421
G0 F9000 X132.800 Y189.983
G1 F3600 X143.137 Y207.886 E1037.7506
G0 F9000 X143.680 Y207.886
G1 F3600 X132.800 Y189.041 E1039.1279
G0 F9000 X132.801 Y188.100
G1 F3600 X144.224 Y207.886 E1040.5739
G0 F9000 X144.768 Y207.886
G1 F3600 X132.800 Y187.157 E1042.0889
G0 F9000 X132.800 Y186.215
G1 F3600 X145.312 Y207.886 E1043.6728
G0 F9000 X145.856 Y207.886
G1 F3600 X132.800 Y185.273 E1045.3255
G0 F9000 X132.800 Y184.331
G1 F3600 X146.400 Y207.886 E1047.0470
G0 F9000 X146.944 Y207.886
G1 F3600 X132.800 Y183.389 E1048.8374
G0 F9000 X132.800 Y182.447
G1 F3600 X147.487 Y207.886 E1050.6966
G0 F9000 X148.031 Y207.886
G1 F3600 X132.800 Y181.505 E1052.6247
G0 F9000 X132.800 Y180.563
G1 F3600 X148.575 Y207.886 E1054.6216
G0 F9000 X149.119 Y207.886
G1 F3600 X132.800 Y179.621 E1056.6874
G0 F9000 X132.800 Y178.679
G1 F3600 X149.663 Y207.886 E1058.8220
G0 F9000 X150.207 Y207.886
G1 F3600 X132.800 Y177.737 E1061.0255
G0 F9000 X132.800 Y176.795
G1 F3600 X150.751 Y207.886 E1063.2978
G0 F9000 X151.295 Y207.886
G1 F3600 X132.800 Y175.853 E1065.6390
G0 F9000 X132.800 Y174.911
G1 F3600 X151.838 Y207.886 E1068.0490
G0 F9000 X152.382 Y207.886
G1 F3600 X132.800 Y173.969 E1070.5278
G0 F9000 X132.800 Y173.027
G1 F3600 X152.926 Y207.886 E1073.0755
G0 F9000 X153.470 Y207.886
G1 F3600 X132.800 Y172.084 E1075.6921
G0 F9000 X132.800 Y171.143
G1 F3600 X154.014 Y207.886 E1078.3775
G0 F9000 X154.558 Y207.886
G1 F3600 X132.800 Y170.201 E1081.1318
G0 F9000 X132.800 Y169.259
G1 F3600 X155.101 Y207.886 E1083.9549
G0 F9000 X155.645 Y207.886
G1 F3600 X132.800 Y168.317 E1086.8468
G0 F9000 X132.800 Y167.374
G1 F3600 X156.189 Y207.886 E1089.8076
G0 F9000 X156.733 Y207.886
G1 F3600 X132.800 Y166.432 E1092.8373
G0 F9000 X132.800 Y165.491
G1 F3600 X157.277 Y207.886 E1095.9358
G0 F9000 X157.821 Y207.886
G1 F3600 X132.800 Y164.549 E1099.1031
G0 F9000 X132.800 Y163.606
G1 F3600 X158.365 Y207.886 E1102.3393
G0 F9000 X158.909 Y207.886
G1 F3600 X132.800 Y162.664 E1105.6444
G0 F9000 X132.800 Y161.722
G1 F3600 X159.452 Y207.886 E1109.0183
G0 F9000 X159.996 Y207.886
G1 F3600 X132.800 Y160.780 E1112.4611
