;Sliced by ideaMaker 3.3.0.2343, 2019-07-16 11:05:40 UTC-0400
;Dimension: 305.000 305.000 305.000 0.400 0.400
;Plate Shape: 0
;Extruder Offset #1: 25.000 0.000
;Filament Diameter #1: 1.750
;Filament Diameter #2: 1.750
;Filament Compensation #1: 94.00
;Filament Compensation #2: 94.00
;Filament Density #1: 1240.00
;Filament Density #2: 1240.00
;Model Gap: 0.000
M221 T0 S94.00
M140 S60.00
M104 T0 S215.00
M109 T0 S215.00
T0
M190 S60.00
G21
G90
M82
M107
G28 X0 Y0
G28 Z0
G1 Z15.0 F9000.0
G92 E0
G1 F140 E29
G1 X20 Y0 F140 E30
G92 E0
G1 F9000.0
M117 Printing...
M1001
;LAYER:0
;Z:0.300
;HEIGHT:0.300
M106 S0
G1 F1200 E-1.0000
G0 F9000 X137.164 Y136.871
G0 F1500 Z0.300
;TYPE:SKIRT
;WIDTH:0.400
G1 F1200 E0.0000
G1 F1800 X138.048 Y136.046 E0.0603
G1 X138.828 Y135.390 E0.1112
G1 X139.658 Y134.755 E0.1633
G1 X140.636 Y134.085 E0.2225
G1 X141.668 Y133.456 E0.2828
G1 X142.537 Y132.985 E0.3321
G1 X143.236 Y132.643 E0.3709
G1 X144.342 Y132.162 E0.4311
G1 X145.315 Y131.797 E0.4829
G1 X146.683 Y131.368 E0.5544
G1 X147.439 Y131.175 E0.5934
G1 X148.614 Y130.929 E0.6533
G1 X149.632 Y130.769 E0.7047
G1 X150.823 Y130.645 E0.7644
G1 X151.836 Y130.590 E0.8150
G1 X152.844 Y130.584 E0.8653
G1 X153.887 Y130.623 E0.9174
G1 X154.833 Y130.705 E0.9648
G1 X156.089 Y130.877 E1.0280
G1 X157.034 Y131.055 E1.0760
G1 X158.266 Y131.354 E1.1392
G1 X159.032 Y131.578 E1.1790
G1 X160.384 Y132.053 E1.2505
G1 X161.117 Y132.351 E1.2900
G1 X162.416 Y132.961 E1.3616
G1 X163.123 Y133.336 E1.4015
G1 X164.349 Y134.074 E1.4729
G1 X165.012 Y134.518 E1.5127
G1 X165.720 Y135.035 E1.5565
G1 X166.509 Y135.666 E1.6069
G1 X167.296 Y136.355 E1.6591
G1 X167.959 Y136.990 E1.7049
G1 X168.651 Y137.719 E1.7550
G1 X169.452 Y138.645 E1.8161
G1 X170.070 Y139.445 E1.8665
G1 X170.782 Y140.466 E1.9286
G1 X171.448 Y141.548 E1.9920
G1 X171.895 Y142.364 E2.0384
G1 X172.343 Y143.278 E2.0892
G1 X172.821 Y144.388 E2.1495
G1 X173.177 Y145.348 E2.2006
G1 X173.494 Y146.346 E2.2528
G1 X173.794 Y147.489 E2.3118
G1 X174.009 Y148.514 E2.3640
G1 X174.193 Y149.687 E2.4233
G1 X174.302 Y150.729 E2.4755
G1 X174.365 Y151.875 E2.5328
G1 X174.373 Y152.654 E2.5717
G1 X174.341 Y153.700 E2.6239
G1 X174.244 Y154.884 E2.6831
G1 X174.105 Y155.922 E2.7354
G1 X173.924 Y156.923 E2.7861
G1 X173.645 Y158.106 E2.8468
G1 X173.364 Y159.082 E2.8975
G1 X173.072 Y159.950 E2.9431
G1 X172.634 Y161.063 E3.0028
G1 X172.226 Y161.973 E3.0526
G1 X171.871 Y162.679 E3.0920
G1 X171.164 Y163.934 E3.1639
G1 X170.737 Y164.603 E3.2035
G1 X170.007 Y165.642 E3.2668
G1 X169.433 Y166.379 E3.3134
G1 X168.776 Y167.143 E3.3637
G1 X167.916 Y168.051 E3.4261
G1 X166.991 Y168.920 E3.4894
G1 X166.387 Y169.438 E3.5291
G1 X165.251 Y170.312 E3.6006
G1 X164.593 Y170.768 E3.6405
G1 X163.828 Y171.252 E3.6857
G1 X162.559 Y171.966 E3.7584
G1 X161.651 Y172.409 E3.8088
G1 X160.693 Y172.825 E3.8609
G1 X159.585 Y173.237 E3.9198
G1 X158.420 Y173.603 E3.9808
G1 X157.443 Y173.852 E4.0311
G1 X156.420 Y174.066 E4.0832
G1 X155.400 Y174.227 E4.1347
G1 X154.207 Y174.353 E4.1946
G1 X153.298 Y174.406 E4.2400
G1 X152.441 Y174.420 E4.2828
G1 X151.238 Y174.383 E4.3428
G1 X150.218 Y174.300 E4.3939
G1 X149.024 Y174.142 E4.4540
G1 X148.013 Y173.953 E4.5053
G1 X146.847 Y173.676 E4.5651
G1 X145.859 Y173.385 E4.6164
G1 X144.725 Y172.988 E4.6764
G1 X144.002 Y172.699 E4.7152
G1 X142.952 Y172.221 E4.7728
G1 X141.887 Y171.666 E4.8327
G1 X141.001 Y171.146 E4.8840
G1 X140.126 Y170.574 E4.9361
G1 X139.201 Y169.903 E4.9931
G1 X138.585 Y169.413 E5.0324
G1 X137.682 Y168.623 E5.0922
G1 X137.062 Y168.029 E5.1351
G1 X136.122 Y167.029 E5.2036
G1 X135.459 Y166.242 E5.2549
G1 X134.734 Y165.285 E5.3148
G1 X134.155 Y164.438 E5.3660
G1 X133.528 Y163.410 E5.4261
G1 X133.056 Y162.543 E5.4753
G1 X132.703 Y161.824 E5.5153
G1 X132.197 Y160.659 E5.5786
G1 X131.860 Y159.758 E5.6266
G1 X131.428 Y158.388 E5.6983
G1 X131.236 Y157.644 E5.7366
G1 X131.026 Y156.661 E5.7868
G1 X130.828 Y155.479 E5.8466
G1 X130.737 Y154.713 E5.8851
G1 X130.661 Y153.707 E5.9354
G1 X130.626 Y152.485 E5.9964
G1 X130.652 Y151.477 E6.0467
G1 X130.744 Y150.229 E6.1091
G1 X130.912 Y148.970 E6.1725
G1 X131.081 Y148.053 E6.2190
G1 X131.310 Y147.071 E6.2693
G1 X131.642 Y145.896 E6.3302
G1 X131.971 Y144.935 E6.3809
G1 X132.354 Y143.962 E6.4331
G1 X132.844 Y142.884 E6.4921
G1 X133.404 Y141.809 E6.5526
G1 X133.921 Y140.932 E6.6034
G1 X134.493 Y140.055 E6.6556
G1 X135.191 Y139.098 E6.7147
G1 X135.849 Y138.284 E6.7670
G1 X136.455 Y137.602 E6.8125
G1 X137.164 Y136.871 E6.8633
G1 F1200 E5.8633
G0 F9000 X139.777 Y139.630
;TYPE:WALL-INNER
;WIDTH:0.400
G1 F1200 E6.8633
G1 F1800 X140.516 Y138.935 E6.9139
G1 X141.148 Y138.400 E6.9552
G1 X141.954 Y137.783 E7.0058
G1 X142.637 Y137.316 E7.0471
G1 X143.502 Y136.784 E7.0978
G1 X144.230 Y136.387 E7.1392
G1 X144.777 Y136.117 E7.1696
G1 X145.707 Y135.708 E7.2203
G1 X146.479 Y135.415 E7.2615
G1 X147.656 Y135.041 E7.3231
G1 X148.242 Y134.889 E7.3533
G1 X149.236 Y134.678 E7.4040
G1 X150.052 Y134.546 E7.4452
G1 X151.059 Y134.438 E7.4958
G1 X151.886 Y134.390 E7.5371
G1 X152.715 Y134.382 E7.5784
G1 X153.730 Y134.420 E7.6291
G1 X154.333 Y134.472 E7.6593
G1 X155.558 Y134.639 E7.7210
G1 X156.152 Y134.752 E7.7512
G1 X157.355 Y135.043 E7.8129
G1 X157.933 Y135.215 E7.8430
G1 X159.099 Y135.630 E7.9047
G1 X159.657 Y135.859 E7.9348
G1 X160.776 Y136.389 E7.9966
G1 X161.308 Y136.675 E8.0267
G1 X162.363 Y137.314 E8.0883
G1 X163.369 Y138.021 E8.1496
G1 X164.017 Y138.535 E8.1909
G1 X164.783 Y139.206 E8.2417
G1 X165.221 Y139.626 E8.2720
G1 X165.796 Y140.227 E8.3135
G1 X166.464 Y140.993 E8.3642
G1 X166.973 Y141.646 E8.4055
G1 X167.556 Y142.473 E8.4560
G1 X168.204 Y143.526 E8.5176
G1 X168.494 Y144.059 E8.5479
G1 X168.864 Y144.806 E8.5895
G1 X169.269 Y145.738 E8.6402
G1 X169.560 Y146.513 E8.6815
G1 X169.868 Y147.482 E8.7322
G1 X170.078 Y148.284 E8.7736
G1 X170.286 Y149.279 E8.8243
G1 X170.415 Y150.098 E8.8657
G1 X170.521 Y151.109 E8.9164
G1 X170.565 Y151.940 E8.9579
G1 X170.574 Y152.551 E8.9884
G1 X170.543 Y153.569 E9.0392
G1 X170.475 Y154.395 E9.0805
G1 X170.340 Y155.403 E9.1313
G1 X170.190 Y156.218 E9.1726
G1 X169.953 Y157.206 E9.2233
G1 X169.719 Y158.005 E9.2649
G1 X169.526 Y158.584 E9.2953
G1 X169.156 Y159.532 E9.3461
G1 X168.818 Y160.293 E9.3876
G1 X168.547 Y160.837 E9.4179
G1 X167.942 Y161.920 E9.4798
G1 X167.620 Y162.430 E9.5099
G1 X166.907 Y163.445 E9.5718
G1 X166.533 Y163.922 E9.6020
G1 X165.994 Y164.555 E9.6435
G1 X165.300 Y165.295 E9.6941
G1 X164.401 Y166.140 E9.7557
G1 X163.939 Y166.531 E9.7859
G1 X162.960 Y167.280 E9.8474
G1 X161.935 Y167.957 E9.9087
G1 X160.865 Y168.564 E9.9700
G1 X160.124 Y168.929 E10.0113
G1 X159.194 Y169.333 E10.0618
G1 X158.419 Y169.621 E10.1031
G1 X157.452 Y169.928 E10.1537
G1 X156.651 Y170.135 E10.1950
G1 X155.658 Y170.343 E10.2456
G1 X154.842 Y170.468 E10.2868
G1 X153.831 Y170.572 E10.3375
G1 X153.224 Y170.606 E10.3678
G1 X152.394 Y170.620 E10.4092
G1 X151.381 Y170.586 E10.4598
G1 X150.557 Y170.515 E10.5011
G1 X149.553 Y170.379 E10.5516
G1 X148.740 Y170.223 E10.5929
G1 X147.754 Y169.986 E10.6435
G1 X146.962 Y169.749 E10.6847
G1 X146.004 Y169.410 E10.7354
G1 X145.441 Y169.181 E10.7658
G1 X144.683 Y168.839 E10.8073
G1 X143.782 Y168.373 E10.8579
G1 X143.067 Y167.958 E10.8991
G1 X142.218 Y167.402 E10.9497
G1 X141.546 Y166.913 E10.9912
G1 X141.068 Y166.536 E11.0216
G1 X140.301 Y165.868 E11.0723
G1 X139.702 Y165.295 E11.1137
G1 X139.007 Y164.556 E11.1643
G1 X138.471 Y163.924 E11.2056
G1 X137.855 Y163.118 E11.2562
G1 X137.385 Y162.436 E11.2976
G1 X136.853 Y161.570 E11.3483
G1 X136.453 Y160.840 E11.3898
G1 X136.182 Y160.296 E11.4201
G1 X135.689 Y159.159 E11.4819
G1 X135.476 Y158.592 E11.5122
G1 X135.100 Y157.411 E11.5740
G1 X134.947 Y156.823 E11.6043
G1 X134.769 Y156.009 E11.6459
G1 X134.598 Y155.004 E11.6967
G1 X134.524 Y154.400 E11.7271
G1 X134.458 Y153.570 E11.7686
G1 X134.425 Y152.553 E11.8194
G1 X134.444 Y151.724 E11.8608
G1 X134.513 Y150.712 E11.9114
G1 X134.677 Y149.487 E11.9730
G1 X134.788 Y148.890 E12.0033
G1 X134.974 Y148.077 E12.0449
G1 X135.246 Y147.099 E12.0956
G1 X135.513 Y146.313 E12.1370
G1 X135.884 Y145.368 E12.1877
G1 X136.228 Y144.614 E12.2290
G1 X136.694 Y143.711 E12.2797
G1 X137.111 Y142.995 E12.3210
G1 X137.667 Y142.145 E12.3717
G1 X138.156 Y141.476 E12.4131
G1 X138.796 Y140.684 E12.4639
G1 X139.201 Y140.229 E12.4942
G1 X139.777 Y139.630 E12.5357
G1 F1200 E11.5357
G0 F9000 X143.732 Y140.246
G1 F1200 E12.5357
G1 F1800 X143.732 Y140.694 E12.5581
G1 X143.788 Y140.969 E12.5721
G1 X143.957 Y141.381 E12.5943
G1 X144.114 Y141.616 E12.6084
G1 X144.442 Y141.944 E12.6315
G1 X144.861 Y142.187 E12.6557
G1 X145.331 Y142.312 E12.6799
G1 X145.795 Y142.312 E12.7031
G1 X146.070 Y142.256 E12.7171
G1 X146.481 Y142.087 E12.7393
G1 X146.699 Y141.941 E12.7524
G1 X146.897 Y141.767 E12.7655
G1 X147.166 Y141.415 E12.7876
G1 X147.291 Y141.162 E12.8017
G1 X147.411 Y140.712 E12.8249
G1 X147.411 Y140.246 E12.8482
G1 X147.355 Y139.971 E12.8622
G1 X147.185 Y139.558 E12.8845
G1 X147.029 Y139.325 E12.8984
G1 X146.702 Y138.996 E12.9216
G1 X146.281 Y138.753 E12.9458
G1 X145.814 Y138.628 E12.9700
G1 X145.349 Y138.628 E12.9932
G1 X145.073 Y138.684 E13.0072
G1 X144.662 Y138.854 E13.0294
G1 X144.428 Y139.010 E13.0434
G1 X144.114 Y139.324 E13.0656
G1 X143.957 Y139.559 E13.0797
G1 X143.788 Y139.971 E13.1019
G1 X143.732 Y140.246 E13.1159
G1 F1200 E12.1159
G0 F9000 X145.073 Y146.704
G1 F1200 E13.1159
G1 F1800 X144.662 Y146.874 E13.1381
G1 X144.428 Y147.030 E13.1521
G1 X144.114 Y147.344 E13.1743
G1 X143.957 Y147.579 E13.1884
G1 X143.788 Y147.991 E13.2106
G1 X143.732 Y148.266 E13.2246
G1 X143.732 Y148.714 E13.2469
G1 X143.788 Y148.989 E13.2609
G1 X143.957 Y149.401 E13.2832
G1 X144.114 Y149.636 E13.2973
G1 X144.442 Y149.964 E13.3204
G1 X144.861 Y150.207 E13.3446
G1 X145.331 Y150.332 E13.3688
G1 X145.795 Y150.332 E13.3920
G1 X146.070 Y150.276 E13.4060
G1 X146.481 Y150.107 E13.4282
G1 X146.699 Y149.961 E13.4412
G1 X146.897 Y149.787 E13.4544
G1 X147.166 Y149.435 E13.4765
G1 X147.291 Y149.182 E13.4906
G1 X147.411 Y148.732 E13.5138
G1 X147.411 Y148.266 E13.5371
G1 X147.355 Y147.991 E13.5511
G1 X147.185 Y147.578 E13.5733
G1 X147.029 Y147.345 E13.5873
G1 X146.702 Y147.016 E13.6105
G1 X146.281 Y146.773 E13.6347
G1 X145.814 Y146.648 E13.6588
G1 X145.349 Y146.648 E13.6820
G1 X145.073 Y146.704 E13.6961
G1 F1200 E12.6961
G0 F9000 X150.702 Y151.227
G1 F1200 E13.6961
G1 F1800 X150.545 Y151.484 E13.7111
G1 X150.375 Y151.922 E13.7346
G1 X150.318 Y152.203 E13.7489
G1 X150.304 Y152.687 E13.7730
G1 X150.395 Y153.151 E13.7966
G1 X150.505 Y153.431 E13.8116
G1 X150.753 Y153.847 E13.8358
G1 X151.104 Y154.210 E13.8610
G1 X151.512 Y154.470 E13.8851
G1 X151.773 Y154.583 E13.8993
G1 X152.249 Y154.694 E13.9237
G1 X152.750 Y154.694 E13.9487
G1 X153.210 Y154.588 E13.9722
G1 X153.486 Y154.472 E13.9872
G1 X153.896 Y154.210 E14.0114
G1 X154.247 Y153.847 E14.0366
G1 X154.504 Y153.417 E14.0616
G1 X154.655 Y152.954 E14.0859
G1 X154.695 Y152.670 E14.1002
G1 X154.682 Y152.186 E14.1244
G1 X154.555 Y151.700 E14.1494
G1 X154.329 Y151.268 E14.1738
G1 X153.992 Y150.874 E14.1996
G1 X153.584 Y150.577 E14.2248
G1 X153.121 Y150.382 E14.2499
G1 X152.625 Y150.296 E14.2750
G1 X152.142 Y150.324 E14.2991
G1 X151.863 Y150.388 E14.3134
G1 X151.416 Y150.577 E14.3376
G1 X151.022 Y150.862 E14.3619
G1 X150.702 Y151.227 E14.3861
G1 F1200 E13.3861
G0 F9000 X155.042 Y146.699
G1 F1200 E14.3861
G1 F1800 X155.355 Y147.014 E14.4083
G1 X155.590 Y147.171 E14.4224
G1 X156.001 Y147.341 E14.4445
G1 X156.277 Y147.397 E14.4586
G1 X156.723 Y147.397 E14.4808
G1 X156.999 Y147.341 E14.4949
G1 X157.410 Y147.171 E14.5171
G1 X157.627 Y147.026 E14.5301
G1 X157.825 Y146.853 E14.5432
G1 X158.096 Y146.498 E14.5655
G1 X158.220 Y146.244 E14.5796
G1 X158.339 Y145.796 E14.6027
G1 X158.339 Y145.331 E14.6259
G1 X158.284 Y145.056 E14.6399
G1 X158.115 Y144.644 E14.6621
G1 X157.958 Y144.410 E14.6762
G1 X157.645 Y144.095 E14.6984
G1 X157.410 Y143.938 E14.7125
G1 X156.999 Y143.768 E14.7346
G1 X156.723 Y143.712 E14.7487
G1 X156.277 Y143.712 E14.7709
G1 X156.001 Y143.768 E14.7850
G1 X155.590 Y143.938 E14.8072
G1 X155.373 Y144.083 E14.8202
G1 X155.175 Y144.256 E14.8333
G1 X154.904 Y144.611 E14.8556
G1 X154.780 Y144.865 E14.8697
G1 X154.661 Y145.313 E14.8928
G1 X154.661 Y145.778 E14.9160
G1 X154.716 Y146.053 E14.9300
G1 X154.885 Y146.465 E14.9522
G1 X155.042 Y146.699 E14.9663
G1 F1200 E13.9663
G0 F9000 X158.298 Y141.944
G1 F1200 E14.9663
G1 F1800 X158.719 Y142.187 E14.9905
G1 X159.186 Y142.312 E15.0147
G1 X159.651 Y142.312 E15.0379
G1 X159.927 Y142.256 E15.0519
G1 X160.338 Y142.086 E15.0741
G1 X160.572 Y141.930 E15.0881
G1 X160.886 Y141.616 E15.1103
G1 X161.043 Y141.381 E15.1244
G1 X161.212 Y140.969 E15.1466
G1 X161.268 Y140.694 E15.1606
G1 X161.268 Y140.246 E15.1830
G1 X161.212 Y139.971 E15.1970
G1 X161.043 Y139.559 E15.2192
G1 X160.886 Y139.324 E15.2333
G1 X160.558 Y138.996 E15.2564
G1 X160.139 Y138.753 E15.2806
G1 X159.669 Y138.628 E15.3048
G1 X159.205 Y138.628 E15.3280
G1 X158.930 Y138.684 E15.3420
G1 X158.519 Y138.853 E15.3642
G1 X158.301 Y138.999 E15.3773
G1 X158.103 Y139.173 E15.3904
G1 X157.834 Y139.525 E15.4125
G1 X157.709 Y139.778 E15.4266
G1 X157.589 Y140.228 E15.4498
G1 X157.589 Y140.694 E15.4731
G1 X157.645 Y140.969 E15.4871
G1 X157.815 Y141.382 E15.5094
G1 X157.971 Y141.615 E15.5233
G1 X158.298 Y141.944 E15.5465
G1 F1200 E14.5465
G0 F9000 X165.211 Y151.041
G1 F1200 E15.5465
G1 F1800 X164.899 Y151.355 E15.5686
G1 X164.743 Y151.588 E15.5826
G1 X164.573 Y152.001 E15.6048
G1 X164.517 Y152.276 E15.6188
G1 X164.517 Y152.724 E15.6412
G1 X164.573 Y152.999 E15.6552
G1 X164.743 Y153.412 E15.6775
G1 X164.899 Y153.645 E15.6915
G1 X165.226 Y153.974 E15.7146
G1 X165.647 Y154.217 E15.7389
G1 X166.114 Y154.342 E15.7630
G1 X166.580 Y154.342 E15.7862
G1 X166.856 Y154.286 E15.8003
G1 X167.266 Y154.116 E15.8224
G1 X167.500 Y153.960 E15.8365
G1 X167.814 Y153.646 E15.8586
G1 X167.971 Y153.411 E15.8727
G1 X168.140 Y152.999 E15.8949
G1 X168.196 Y152.724 E15.9089
G1 X168.196 Y152.276 E15.9313
G1 X168.140 Y152.001 E15.9453
G1 X167.971 Y151.589 E15.9675
G1 X167.814 Y151.354 E15.9816
G1 X167.486 Y151.026 E16.0047
G1 X167.067 Y150.783 E16.0289
G1 X166.599 Y150.658 E16.0531
G1 X166.133 Y150.658 E16.0763
G1 X165.858 Y150.714 E16.0903
G1 X165.447 Y150.883 E16.1125
G1 X165.211 Y151.041 E16.1267
G1 F1200 E15.1267
G0 F9000 X160.886 Y155.364
G1 F1200 E16.1267
G1 F1800 X160.558 Y155.036 E16.1498
G1 X160.139 Y154.793 E16.1740
G1 X159.669 Y154.668 E16.1982
G1 X159.205 Y154.668 E16.2214
G1 X158.930 Y154.724 E16.2354
G1 X158.519 Y154.893 E16.2576
G1 X158.301 Y155.039 E16.2706
G1 X158.103 Y155.213 E16.2838
G1 X157.834 Y155.565 E16.3059
G1 X157.709 Y155.818 E16.3200
G1 X157.589 Y156.268 E16.3432
G1 X157.589 Y156.734 E16.3665
G1 X157.645 Y157.009 E16.3805
G1 X157.815 Y157.422 E16.4027
G1 X157.971 Y157.655 E16.4167
G1 X158.298 Y157.984 E16.4399
G1 X158.719 Y158.227 E16.4641
G1 X159.186 Y158.352 E16.4882
G1 X159.651 Y158.352 E16.5114
G1 X159.927 Y158.296 E16.5255
G1 X160.338 Y158.126 E16.5477
G1 X160.572 Y157.970 E16.5617
G1 X160.886 Y157.656 E16.5839
G1 X161.043 Y157.421 E16.5980
G1 X161.212 Y157.009 E16.6202
G1 X161.268 Y156.734 E16.6342
G1 X161.268 Y156.286 E16.6565
G1 X161.212 Y156.011 E16.6705
G1 X161.043 Y155.599 E16.6928
G1 X160.886 Y155.364 E16.7069
G1 F1200 E15.7069
G0 F9000 X159.669 Y162.688
G1 F1200 E16.7069
G1 F1800 X159.205 Y162.688 E16.7300
G1 X158.930 Y162.744 E16.7440
G1 X158.519 Y162.913 E16.7662
G1 X158.301 Y163.059 E16.7793
G1 X158.103 Y163.233 E16.7924
G1 X157.834 Y163.585 E16.8145
G1 X157.709 Y163.838 E16.8286
G1 X157.589 Y164.288 E16.8518
G1 X157.589 Y164.754 E16.8751
