;Sliced by ideaMaker 3.3.0.2343, 2019-06-18 19:24:43 UTC-0400
;Dimension: 305.000 305.000 305.000 0.400 0.400
;Plate Shape: 0
;Extruder Offset #1: 25.000 0.000
;Filament Diameter #1: 1.750
;Filament Diameter #2: 1.750
;Filament Compensation #1: 94.00
;Filament Compensation #2: 94.00
;Filament Density #1: 1240.00
;Filament Density #2: 1240.00
;Model Gap: 0.200
M221 T0 S94.00
M140 S60.00
M104 T0 S215.00
M109 T0 S215.00
T0
M190 S60.00
G21
G90
M82
M107
G28 X0 Y0
G28 Z0
G1 Z15.0 F9000.0
G92 E0
G1 F140 E29
G1 X20 Y0 F140 E30
G92 E0
G1 F9000.0
M117 Printing...
M1001
M106 S0
;LAYER:-2
;Z:0.500
;HEIGHT:0.500
G0 F9000 X136.708 Y138.996
G0 F1500 Z0.500
;TYPE:RAFT
;WIDTH:0.800
G1 F480 X137.107 Y138.656 E0.0872
G1 X137.537 Y138.366 E0.1734
G1 X138.002 Y138.124 E0.2606
G1 X138.480 Y137.940 E0.3458
G1 X138.988 Y137.808 E0.4331
G1 X139.505 Y137.735 E0.5199
G1 X139.948 Y137.715 E0.5936
G1 X149.708 Y137.718 E2.2167
G1 X150.079 Y137.739 E2.2785
G1 X150.614 Y137.820 E2.3685
G1 X151.108 Y137.955 E2.4537
G1 X151.587 Y138.146 E2.5394
G1 X152.188 Y138.480 E2.6538
G1 X152.489 Y138.696 E2.7154
G1 X152.920 Y139.075 E2.8108
G1 X153.297 Y139.369 E2.8904
G1 X153.729 Y139.615 E2.9730
G1 X154.191 Y139.794 E3.0554
G1 X154.676 Y139.906 E3.1382
G1 X155.173 Y139.943 E3.2211
G1 X158.923 Y139.943 E3.8447
G1 X159.597 Y139.989 E3.9571
G1 X160.088 Y140.080 E4.0401
G1 X160.602 Y140.240 E4.1296
G1 X160.916 Y140.372 E4.1863
G1 X161.520 Y140.707 E4.3011
G1 X161.926 Y141.008 E4.3852
G1 X162.308 Y141.364 E4.4720
G1 X162.648 Y141.763 E4.5592
G1 X162.942 Y142.199 E4.6466
G1 X163.116 Y142.522 E4.7077
G1 X163.320 Y143.009 E4.7955
G1 X163.461 Y143.490 E4.8788
G1 X163.569 Y144.166 E4.9927
G1 X163.589 Y144.604 E5.0656
G1 X163.586 Y146.823 E5.4346
G1 X163.565 Y147.194 E5.4964
G1 X163.484 Y147.729 E5.5864
G1 X163.349 Y148.223 E5.6715
G1 X163.158 Y148.704 E5.7576
G1 X162.902 Y149.182 E5.8478
G1 X162.412 Y149.936 E5.9973
G1 X162.215 Y150.397 E6.0807
G1 X162.088 Y150.877 E6.1633
G1 X162.032 Y151.370 E6.2458
G1 X162.049 Y151.867 E6.3285
G1 X162.139 Y152.355 E6.4110
G1 X162.297 Y152.825 E6.4935
G1 X162.524 Y153.267 E6.5761
G1 X162.812 Y153.672 E6.6587
G1 X163.156 Y154.030 E6.7413
G1 X163.548 Y154.334 E6.8238
G1 X163.980 Y154.578 E6.9063
G1 X164.443 Y154.757 E6.9889
G1 X164.928 Y154.866 E7.0715
G1 X165.416 Y154.902 E7.1529
G1 X167.154 Y154.902 E7.4419
G1 X167.828 Y154.948 E7.5543
G1 X168.319 Y155.039 E7.6373
G1 X168.833 Y155.199 E7.7269
G1 X169.306 Y155.407 E7.8128
G1 X169.611 Y155.577 E7.8709
G1 X170.162 Y155.972 E7.9836
G1 X170.539 Y156.323 E8.0693
G1 X170.879 Y156.722 E8.1564
G1 X171.169 Y157.152 E8.2427
G1 X171.411 Y157.617 E8.3299
G1 X171.595 Y158.095 E8.4150
G1 X171.727 Y158.602 E8.5022
G1 X171.873 Y159.472 E8.6489
G1 X172.031 Y159.945 E8.7318
G1 X172.256 Y160.388 E8.8144
G1 X172.542 Y160.793 E8.8969
G1 X172.885 Y161.152 E8.9795
G1 X173.275 Y161.458 E9.0619
G1 X173.706 Y161.704 E9.1444
G1 X174.169 Y161.884 E9.2270
G1 X174.654 Y161.995 E9.3098
G1 X175.149 Y162.033 E9.3923
G1 X176.178 Y162.039 E9.5635
G1 X176.729 Y162.079 E9.6553
G1 X177.073 Y162.126 E9.7131
G1 X177.492 Y162.208 E9.7841
G1 X177.841 Y162.307 E9.8444
G1 X178.224 Y162.434 E9.9115
G1 X178.740 Y162.642 E10.0040
G1 X179.320 Y162.956 E10.1137
G1 X179.933 Y163.365 E10.2363
G1 X180.188 Y163.572 E10.2909
G1 X180.624 Y163.982 E10.3904
G1 X180.986 Y164.383 E10.4803
G1 X181.359 Y164.869 E10.5821
G1 X181.762 Y165.536 E10.7117
G1 X181.876 Y165.768 E10.7547
G1 X182.129 Y166.382 E10.8652
G1 X182.316 Y167.044 E10.9796
G1 X182.390 Y167.387 E11.0379
G1 X182.463 Y167.884 E11.1215
G1 X182.488 Y168.284 E11.1881
G1 X182.500 Y190.446 E14.8737
G1 X182.475 Y190.932 E14.9546
G1 X182.396 Y191.450 E15.0417
G1 X182.256 Y191.965 E15.1305
G1 X181.992 Y192.592 E15.2436
G1 X181.738 Y193.029 E15.3277
G1 X181.419 Y193.457 E15.4164
G1 X181.079 Y193.821 E15.4993
G1 X180.798 Y194.069 E15.5616
G1 X180.379 Y194.371 E15.6475
G1 X179.928 Y194.626 E15.7337
G1 X179.450 Y194.829 E15.8200
G1 X178.963 Y194.973 E15.9045
G1 X178.439 Y195.066 E15.9930
G1 X177.849 Y195.102 E16.0913
G1 X129.127 Y195.099 E24.1938
G1 X128.756 Y195.078 E24.2556
G1 X128.221 Y194.997 E24.3456
G1 X127.726 Y194.862 E24.4309
G1 X127.095 Y194.598 E24.5446
G1 X126.651 Y194.340 E24.6300
G1 X126.242 Y194.037 E24.7147
G1 X125.859 Y193.680 E24.8018
G1 X125.606 Y193.393 E24.8654
G1 X125.308 Y192.979 E24.9502
G1 X125.046 Y192.512 E25.0393
G1 X124.846 Y192.033 E25.1256
G1 X124.706 Y191.554 E25.2086
G1 X124.613 Y191.026 E25.2977
G1 X124.579 Y190.460 E25.3920
G1 X124.579 Y168.581 E29.0305
G1 X124.607 Y168.027 E29.1228
G1 X124.717 Y167.222 E29.2579
G1 X124.863 Y166.669 E29.3530
G1 X125.128 Y165.932 E29.4832
G1 X125.385 Y165.418 E29.5788
G1 X125.557 Y165.124 E29.6355
G1 X125.943 Y164.558 E29.7494
G1 X126.102 Y164.360 E29.7916
G1 X126.638 Y163.800 E29.9205
G1 X126.908 Y163.560 E29.9806
G1 X127.345 Y163.217 E30.0730
G1 X127.957 Y162.841 E30.1924
G1 X128.396 Y162.617 E30.2744
G1 X128.869 Y162.427 E30.3592
G1 X129.306 Y162.288 E30.4354
G1 X129.942 Y162.136 E30.5442
G1 X130.201 Y162.096 E30.5878
G1 X130.937 Y162.041 E30.7105
G1 X131.915 Y162.037 E30.8731
G1 X132.395 Y162.000 E30.9532
G1 X132.879 Y161.890 E31.0357
G1 X133.342 Y161.712 E31.1182
G1 X133.775 Y161.466 E31.2011
G1 X134.166 Y161.161 E31.2835
G1 X134.509 Y160.802 E31.3661
G1 X134.796 Y160.398 E31.4485
G1 X135.022 Y159.956 E31.5311
G1 X135.180 Y159.485 E31.6137
G1 X135.268 Y159.001 E31.6955
G1 X135.287 Y158.648 E31.7543
G1 X135.290 Y142.274 E34.4773
G1 X135.333 Y141.706 E34.5720
G1 X135.424 Y141.216 E34.6549
G1 X135.585 Y140.698 E34.7451
G1 X135.718 Y140.380 E34.8024
G1 X136.049 Y139.787 E34.9154
G1 X136.352 Y139.378 E35.0000
G1 X136.708 Y138.996 E35.0869
G0 F9000 X127.260 Y163.639
G1 F480 X127.260 Y194.364 E40.1964
G0 F9000 X129.684 Y194.819
G1 F480 X129.684 Y162.485 E45.5736
G0 F9000 X132.108 Y162.302
G1 F480 X132.108 Y194.819 E50.9812
G0 F9000 X134.532 Y194.819
G1 F480 X134.532 Y161.182 E56.5751
G0 F9000 X136.956 Y139.151
G1 F480 X136.956 Y194.819 E65.8327
G0 F9000 X139.380 Y194.819
G1 F480 X139.380 Y138.034 E75.2761
G0 F9000 X141.804 Y137.996
G1 F480 X141.804 Y194.819 E84.7258
G0 F9000 X144.228 Y194.819
G1 F480 X144.228 Y137.997 E94.1753
G0 F9000 X146.652 Y137.998
G1 F480 X146.652 Y194.820 E103.6249
G0 F9000 X149.076 Y194.820
G1 F480 X149.076 Y137.998 E113.0744
G0 F9000 X151.500 Y138.418
G1 F480 X151.500 Y194.820 E122.4541
G0 F9000 X153.924 Y194.820
G1 F480 X153.924 Y139.991 E131.5722
G0 F9000 X156.348 Y140.223
G1 F480 X156.348 Y194.820 E140.6517
G0 F9000 X158.772 Y194.820
G1 F480 X158.772 Y140.223 E149.7312
G0 F9000 X161.196 Y140.848
G1 F480 X161.196 Y194.820 E158.7068
G0 F9000 X163.620 Y194.821
G1 F480 X163.620 Y154.697 E165.3794
G0 F9000 X166.044 Y155.182
G1 F480 X166.044 Y194.821 E171.9714
G0 F9000 X168.468 Y194.821
G1 F480 X168.468 Y155.379 E178.5307
G0 F9000 X170.892 Y157.244
G1 F480 X170.892 Y194.821 E184.7797
G0 F9000 X173.316 Y194.821
G1 F480 X173.316 Y161.805 E190.2703
G0 F9000 X175.740 Y162.317
G1 F480 X175.740 Y194.821 E195.6758
G0 F9000 X178.164 Y194.803
G1 F480 X178.164 Y162.712 E201.0125
G0 F9000 X180.588 Y164.361
G1 F480 X180.588 Y193.876 E205.9209
M106 S255
;LAYER:-2
;Z:1.000
;HEIGHT:0.500
G0 F1500 Z1.000
G0 F9000 X180.798 Y194.069
;TYPE:RAFT
;WIDTH:0.800
G1 F960 X180.379 Y194.371 E206.0068
G1 X179.928 Y194.626 E206.0929
G1 X179.450 Y194.829 E206.1793
G1 X178.963 Y194.973 E206.2638
G1 X178.439 Y195.066 E206.3523
G1 X177.849 Y195.102 E206.4506
G1 X129.127 Y195.099 E214.5531
G1 X128.756 Y195.078 E214.6149
G1 X128.221 Y194.997 E214.7048
G1 X127.726 Y194.862 E214.7902
G1 X127.095 Y194.598 E214.9039
G1 X126.651 Y194.340 E214.9893
G1 X126.242 Y194.037 E215.0740
G1 X125.859 Y193.680 E215.1610
G1 X125.606 Y193.393 E215.2247
G1 X125.308 Y192.979 E215.3095
G1 X125.046 Y192.512 E215.3985
G1 X124.846 Y192.033 E215.4849
G1 X124.706 Y191.554 E215.5679
G1 X124.613 Y191.026 E215.6570
G1 X124.579 Y190.460 E215.7513
G1 X124.579 Y168.581 E219.3898
G1 X124.607 Y168.027 E219.4821
G1 X124.717 Y167.222 E219.6172
G1 X124.863 Y166.669 E219.7123
G1 X125.128 Y165.932 E219.8425
G1 X125.385 Y165.418 E219.9381
G1 X125.557 Y165.124 E219.9947
G1 X125.943 Y164.558 E220.1087
G1 X126.102 Y164.360 E220.1509
G1 X126.638 Y163.800 E220.2798
G1 X126.908 Y163.560 E220.3399
G1 X127.345 Y163.217 E220.4323
G1 X127.957 Y162.841 E220.5517
G1 X128.396 Y162.617 E220.6337
G1 X128.869 Y162.427 E220.7185
G1 X129.306 Y162.288 E220.7947
G1 X129.942 Y162.136 E220.9035
G1 X130.201 Y162.096 E220.9470
G1 X130.937 Y162.041 E221.0698
G1 X131.915 Y162.037 E221.2324
G1 X132.395 Y162.000 E221.3125
G1 X132.879 Y161.890 E221.3950
G1 X133.342 Y161.712 E221.4775
G1 X133.775 Y161.466 E221.5603
G1 X134.166 Y161.161 E221.6428
G1 X134.509 Y160.802 E221.7254
G1 X134.796 Y160.398 E221.8078
G1 X135.022 Y159.956 E221.8903
G1 X135.180 Y159.485 E221.9730
G1 X135.268 Y159.001 E222.0548
G1 X135.287 Y158.648 E222.1136
G1 X135.290 Y142.274 E224.8366
G1 X135.333 Y141.706 E224.9313
G1 X135.424 Y141.216 E225.0142
G1 X135.585 Y140.698 E225.1044
G1 X135.718 Y140.380 E225.1617
G1 X136.049 Y139.787 E225.2746
G1 X136.352 Y139.378 E225.3593
G1 X136.708 Y138.996 E225.4461
G1 X137.107 Y138.656 E225.5333
G1 X137.537 Y138.366 E225.6196
G1 X138.002 Y138.124 E225.7067
G1 X138.480 Y137.940 E225.7919
G1 X138.988 Y137.808 E225.8792
G1 X139.505 Y137.735 E225.9660
G1 X139.948 Y137.715 E226.0398
G1 X149.708 Y137.718 E227.6629
G1 X150.079 Y137.739 E227.7247
G1 X150.614 Y137.820 E227.8147
G1 X151.108 Y137.955 E227.8998
G1 X151.587 Y138.146 E227.9856
G1 X152.188 Y138.480 E228.0999
G1 X152.489 Y138.696 E228.1615
G1 X152.920 Y139.075 E228.2570
G1 X153.297 Y139.369 E228.3365
G1 X153.729 Y139.615 E228.4192
G1 X154.191 Y139.794 E228.5016
G1 X154.676 Y139.906 E228.5843
G1 X155.173 Y139.943 E228.6672
G1 X158.923 Y139.943 E229.2908
G1 X159.597 Y139.989 E229.4032
G1 X160.088 Y140.080 E229.4862
G1 X160.602 Y140.240 E229.5758
G1 X160.916 Y140.372 E229.6324
G1 X161.520 Y140.707 E229.7473
G1 X161.926 Y141.008 E229.8313
G1 X162.308 Y141.364 E229.9181
G1 X162.648 Y141.763 E230.0053
G1 X162.942 Y142.199 E230.0928
G1 X163.116 Y142.522 E230.1538
G1 X163.320 Y143.009 E230.2416
G1 X163.461 Y143.490 E230.3250
G1 X163.569 Y144.166 E230.4388
G1 X163.589 Y144.604 E230.5117
G1 X163.586 Y146.823 E230.8807
G1 X163.565 Y147.194 E230.9425
G1 X163.484 Y147.729 E231.0325
G1 X163.349 Y148.223 E231.1177
G1 X163.158 Y148.704 E231.2037
G1 X162.902 Y149.182 E231.2939
G1 X162.412 Y149.936 E231.4435
G1 X162.215 Y150.397 E231.5268
G1 X162.088 Y150.877 E231.6094
G1 X162.032 Y151.370 E231.6919
G1 X162.049 Y151.867 E231.7746
G1 X162.139 Y152.355 E231.8571
G1 X162.297 Y152.825 E231.9396
G1 X162.524 Y153.267 E232.0222
G1 X162.812 Y153.672 E232.1049
G1 X163.156 Y154.030 E232.1874
G1 X163.548 Y154.334 E232.2699
G1 X163.980 Y154.578 E232.3525
G1 X164.443 Y154.757 E232.4350
G1 X164.928 Y154.866 E232.5177
G1 X165.416 Y154.902 E232.5990
G1 X167.154 Y154.902 E232.8881
G1 X167.828 Y154.948 E233.0004
G1 X168.319 Y155.039 E233.0835
G1 X168.833 Y155.199 E233.1730
G1 X169.306 Y155.407 E233.2589
G1 X169.611 Y155.577 E233.3170
G1 X170.162 Y155.972 E233.4297
G1 X170.539 Y156.323 E233.5154
G1 X170.879 Y156.722 E233.6026
G1 X171.169 Y157.152 E233.6888
G1 X171.411 Y157.617 E233.7760
G1 X171.595 Y158.095 E233.8612
G1 X171.727 Y158.602 E233.9483
G1 X171.873 Y159.472 E234.0950
G1 X172.031 Y159.945 E234.1779
G1 X172.256 Y160.388 E234.2606
G1 X172.542 Y160.793 E234.3430
G1 X172.885 Y161.152 E234.4256
G1 X173.275 Y161.458 E234.5080
G1 X173.706 Y161.704 E234.5906
G1 X174.169 Y161.884 E234.6732
G1 X174.654 Y161.995 E234.7559
G1 X175.149 Y162.033 E234.8385
G1 X176.178 Y162.039 E235.0096
G1 X176.729 Y162.079 E235.1015
G1 X177.073 Y162.126 E235.1592
G1 X177.492 Y162.208 E235.2302
G1 X177.841 Y162.307 E235.2905
G1 X178.224 Y162.434 E235.3576
G1 X178.740 Y162.642 E235.4502
G1 X179.320 Y162.956 E235.5599
G1 X179.933 Y163.365 E235.6824
G1 X180.188 Y163.572 E235.7370
G1 X180.624 Y163.982 E235.8366
G1 X180.986 Y164.383 E235.9264
G1 X181.359 Y164.869 E236.0283
G1 X181.762 Y165.536 E236.1579
G1 X181.876 Y165.768 E236.2009
G1 X182.129 Y166.382 E236.3113
G1 X182.316 Y167.044 E236.4257
G1 X182.390 Y167.387 E236.4840
G1 X182.463 Y167.884 E236.5676
G1 X182.488 Y168.284 E236.6342
G1 X182.500 Y190.446 E240.3198
G1 X182.475 Y190.932 E240.4007
G1 X182.396 Y191.450 E240.4879
G1 X182.256 Y191.965 E240.5766
G1 X181.992 Y192.592 E240.6898
G1 X181.738 Y193.029 E240.7738
G1 X181.419 Y193.457 E240.8626
G1 X181.079 Y193.821 E240.9454
G1 X180.798 Y194.069 E241.0077
G0 F9000 X180.588 Y193.876
G1 F960 X180.588 Y164.361 E245.9161
G0 F9000 X178.164 Y162.712
G1 F960 X178.164 Y194.803 E251.2529
G0 F9000 X175.740 Y194.821
G1 F960 X175.740 Y162.317 E256.6583
G0 F9000 X173.316 Y161.805
G1 F960 X173.316 Y194.821 E262.1489
G0 F9000 X170.892 Y194.821
G1 F960 X170.892 Y157.244 E268.3980
G0 F9000 X168.468 Y155.379
G1 F960 X168.468 Y194.821 E274.9572
G0 F9000 X166.044 Y194.821
G1 F960 X166.044 Y155.182 E281.5492
G0 F9000 X163.620 Y154.697
G1 F960 X163.620 Y194.821 E288.2218
G0 F9000 X161.196 Y194.820
G1 F960 X161.196 Y140.848 E297.1974
G0 F9000 X158.772 Y140.223
G1 F960 X158.772 Y194.820 E306.2769
G0 F9000 X156.348 Y194.820
G1 F960 X156.348 Y140.223 E315.3564
G0 F9000 X153.924 Y139.991
G1 F960 X153.924 Y194.820 E324.4745
G0 F9000 X151.500 Y194.820
G1 F960 X151.500 Y138.418 E333.8542
G0 F9000 X149.076 Y137.998
G1 F960 X149.076 Y194.820 E343.3038
G0 F9000 X146.652 Y194.820
G1 F960 X146.652 Y137.998 E352.7533
G0 F9000 X144.228 Y137.997
G1 F960 X144.228 Y194.819 E362.2028
G0 F9000 X141.804 Y194.819
G1 F960 X141.804 Y137.996 E371.6526
G0 F9000 X139.380 Y138.034
G1 F960 X139.380 Y194.819 E381.0959
G0 F9000 X136.956 Y194.819
G1 F960 X136.956 Y139.151 E390.3536
G0 F9000 X134.532 Y161.182
G1 F960 X134.532 Y194.819 E395.9474
G0 F9000 X132.108 Y194.819
G1 F960 X132.108 Y162.302 E401.3550
G0 F9000 X129.684 Y162.485
G1 F960 X129.684 Y194.819 E406.7322
G0 F9000 X127.260 Y194.364
G1 F960 X127.260 Y163.639 E411.8418
;LAYER:-1
;Z:1.380
;HEIGHT:0.380
G0 F1500 Z1.380
G0 F9000 X137.567 Y138.600
;TYPE:RAFT
;WIDTH:0.600
G1 F1800 X151.972 Y138.600 E413.2072
G0 F9000 X153.630 Y139.800
G1 F1800 X136.301 Y139.800 E414.8499
G0 F9000 X135.711 Y141.000
G1 F1800 X161.563 Y141.000 E417.3004
G0 F9000 X162.689 Y142.200
G1 F1800 X135.507 Y142.200 E419.8770
G0 F9000 X135.500 Y143.400
G1 F1800 X163.216 Y143.400 E422.5043
G0 F9000 X163.379 Y144.600
G1 F1800 X135.500 Y144.600 E425.1470
G0 F9000 X135.500 Y145.800
G1 F1800 X163.377 Y145.800 E427.7895
G0 F9000 X163.365 Y147.000
G1 F1800 X135.500 Y147.000 E430.4308
G0 F9000 X135.499 Y148.200
G1 F1800 X163.131 Y148.200 E433.0501
G0 F9000 X162.510 Y149.400
G1 F1800 X135.499 Y149.400 E435.6105
G0 F9000 X135.499 Y150.600
G1 F1800 X161.944 Y150.600 E438.1173
G0 F9000 X161.837 Y151.800
G1 F1800 X135.499 Y151.800 E440.6139
G0 F9000 X135.499 Y153.000
G1 F1800 X162.152 Y153.000 E443.1404
G0 F9000 X163.032 Y154.200
G1 F1800 X135.498 Y154.200 E445.7504
G0 F9000 X135.498 Y155.400
G1 F1800 X168.766 Y155.400 E448.9039
G0 F9000 X170.500 Y156.600
G1 F1800 X135.498 Y156.600 E452.2218
G0 F9000 X135.498 Y157.800
G1 F1800 X171.257 Y157.800 E455.6114
G0 F9000 X171.581 Y159.000
G1 F1800 X135.480 Y159.000 E459.0335
G0 F9000 X135.133 Y160.200
G1 F1800 X171.925 Y160.200 E462.5210
G0 F9000 X172.862 Y161.400
G1 F1800 X134.201 Y161.400 E466.1858
G0 F9000 X129.017 Y162.600
G1 F1800 X178.058 Y162.600 E470.8344
G0 F9000 X180.123 Y163.800
G1 F1800 X126.953 Y163.800 E475.8745
G0 F9000 X125.895 Y165.000
G1 F1800 X181.193 Y165.000 E481.1163
G0 F9000 X181.823 Y166.200
G1 F1800 X125.254 Y166.200 E486.4785
