;Sliced by ideaMaker 3.3.0.2343, 2019-07-08 09:19:38 UTC-0400
;Dimension: 305.000 305.000 305.000 0.400 0.400
;Plate Shape: 0
;Extruder Offset #1: 25.000 0.000
;Filament Diameter #1: 1.750
;Filament Diameter #2: 1.750
;Filament Compensation #1: 94.00
;Filament Compensation #2: 94.00
;Filament Density #1: 1240.00
;Filament Density #2: 1240.00
;Model Gap: 0.000
M221 T0 S94.00
M140 S60.00
M104 T0 S215.00
M109 T0 S215.00
T0
M190 S60.00
G21
G90
M82
M107
G28 X0 Y0
G28 Z0
G1 Z15.0 F9000.0
G92 E0
G1 F140 E29
G1 X20 Y0 F140 E30
G92 E0
G1 F9000.0
M117 Printing...
M1001
;LAYER:0
;Z:0.300
;HEIGHT:0.300
M106 S0
G1 F1200 E-1.0000
G0 F9000 X134.559 Y99.857
G0 F1500 Z0.300
;TYPE:SKIRT
;WIDTH:0.400
G1 F1200 E0.0000
G1 F1800 X134.828 Y99.494 E0.0225
G1 X135.145 Y99.172 E0.0451
G1 X135.505 Y98.897 E0.0677
G1 X135.899 Y98.677 E0.0902
G1 X136.321 Y98.514 E0.1128
G1 X136.762 Y98.412 E0.1354
G1 X137.260 Y98.373 E0.1603
G1 X167.740 Y98.373 E1.6809
G1 X168.191 Y98.405 E1.7035
G1 X168.633 Y98.500 E1.7260
G1 X169.058 Y98.657 E1.7486
G1 X169.456 Y98.872 E1.7712
G1 X169.819 Y99.141 E1.7938
G1 X170.141 Y99.458 E1.8163
G1 X170.416 Y99.818 E1.8389
G1 X170.636 Y100.212 E1.8614
G1 X170.799 Y100.634 E1.8840
G1 X170.901 Y101.075 E1.9066
G1 X170.940 Y101.573 E1.9315
G1 X170.940 Y203.427 E7.0130
G1 X170.908 Y203.878 E7.0356
G1 X170.813 Y204.320 E7.0581
G1 X170.656 Y204.745 E7.0807
G1 X170.441 Y205.143 E7.1033
G1 X170.172 Y205.506 E7.1258
G1 X169.855 Y205.828 E7.1484
G1 X169.495 Y206.103 E7.1710
G1 X169.101 Y206.323 E7.1935
G1 X168.679 Y206.486 E7.2161
G1 X168.238 Y206.588 E7.2386
G1 X167.740 Y206.627 E7.2636
G1 X137.260 Y206.627 E8.7842
G1 X136.809 Y206.595 E8.8068
G1 X136.367 Y206.500 E8.8293
G1 X135.942 Y206.343 E8.8519
G1 X135.544 Y206.128 E8.8745
G1 X135.181 Y205.859 E8.8970
G1 X134.859 Y205.542 E8.9196
G1 X134.584 Y205.182 E8.9422
G1 X134.364 Y204.788 E8.9647
G1 X134.201 Y204.366 E8.9873
G1 X134.099 Y203.925 E9.0098
G1 X134.060 Y203.427 E9.0348
G1 X134.060 Y101.573 E14.1163
G1 X134.092 Y101.122 E14.1388
G1 X134.187 Y100.680 E14.1614
G1 X134.344 Y100.255 E14.1840
G1 X134.559 Y99.857 E14.2066
G1 F1200 E13.2066
G0 F9000 X137.860 Y102.173
;TYPE:WALL-INNER
;WIDTH:0.400
G1 F1200 E14.2066
G1 F1800 X167.140 Y102.173 E15.6674
G1 X167.140 Y202.827 E20.6890
G1 X137.860 Y202.827 E22.1498
G1 X137.860 Y102.173 E27.1714
G1 F1200 E26.1714
G0 F9000 X149.336 Y114.603
G1 F1200 E27.1714
G1 F1800 X148.986 Y114.954 E27.1962
G1 X148.675 Y115.339 E27.2209
G1 X148.405 Y115.755 E27.2456
G1 X148.180 Y116.197 E27.2703
G1 X148.003 Y116.661 E27.2951
G1 X147.875 Y117.139 E27.3198
G1 X147.798 Y117.630 E27.3446
G1 X147.772 Y118.124 E27.3693
G1 X147.798 Y118.619 E27.3940
G1 X147.875 Y119.110 E27.4188
G1 X148.003 Y119.588 E27.4435
G1 X148.180 Y120.051 E27.4682
G1 X148.405 Y120.493 E27.4930
G1 X148.675 Y120.909 E27.5177
G1 X148.986 Y121.295 E27.5424
G1 X149.336 Y121.645 E27.5671
G1 X149.720 Y121.958 E27.5918
G1 X150.135 Y122.228 E27.6165
G1 X150.576 Y122.453 E27.6412
G1 X151.039 Y122.631 E27.6660
G1 X151.517 Y122.760 E27.6907
G1 X152.006 Y122.836 E27.7154
G1 X152.500 Y122.863 E27.7401
G1 X152.994 Y122.836 E27.7648
G1 X153.483 Y122.760 E27.7894
G1 X153.961 Y122.631 E27.8141
G1 X154.424 Y122.453 E27.8389
G1 X154.865 Y122.228 E27.8636
G1 X155.280 Y121.958 E27.8883
G1 X155.664 Y121.645 E27.9130
G1 X156.014 Y121.295 E27.9377
G1 X156.325 Y120.909 E27.9624
G1 X156.595 Y120.493 E27.9872
G1 X156.820 Y120.051 E28.0119
G1 X156.997 Y119.588 E28.0366
G1 X157.125 Y119.110 E28.0613
G1 X157.202 Y118.620 E28.0861
G1 X157.229 Y118.124 E28.1109
G1 X157.202 Y117.629 E28.1356
G1 X157.125 Y117.139 E28.1603
G1 X156.997 Y116.661 E28.1850
G1 X156.820 Y116.197 E28.2098
G1 X156.595 Y115.755 E28.2345
G1 X156.325 Y115.339 E28.2593
G1 X156.014 Y114.954 E28.2840
G1 X155.664 Y114.603 E28.3087
G1 X155.279 Y114.291 E28.3334
G1 X154.865 Y114.022 E28.3581
G1 X154.424 Y113.795 E28.3828
G1 X153.961 Y113.618 E28.4075
G1 X153.484 Y113.489 E28.4322
G1 X152.994 Y113.412 E28.4569
G1 X152.500 Y113.385 E28.4816
G1 X152.006 Y113.412 E28.5063
G1 X151.516 Y113.489 E28.5311
G1 X151.039 Y113.618 E28.5557
G1 X150.576 Y113.795 E28.5804
G1 X150.135 Y114.022 E28.6052
G1 X149.721 Y114.291 E28.6298
G1 X149.336 Y114.603 E28.6545
G1 F1200 E27.6545
G0 F9000 X152.500 Y182.137
G1 F1200 E28.6545
G1 F1800 X152.006 Y182.164 E28.6792
G1 X151.517 Y182.240 E28.7039
G1 X151.039 Y182.369 E28.7286
G1 X150.576 Y182.547 E28.7534
G1 X150.135 Y182.772 E28.7781
G1 X149.720 Y183.042 E28.8028
G1 X149.336 Y183.355 E28.8275
G1 X148.986 Y183.705 E28.8522
G1 X148.675 Y184.091 E28.8769
G1 X148.405 Y184.507 E28.9016
G1 X148.180 Y184.949 E28.9264
G1 X148.003 Y185.412 E28.9511
G1 X147.875 Y185.890 E28.9758
G1 X147.798 Y186.381 E29.0006
G1 X147.772 Y186.876 E29.0253
G1 X147.798 Y187.370 E29.0500
G1 X147.875 Y187.861 E29.0748
G1 X148.003 Y188.339 E29.0995
G1 X148.180 Y188.803 E29.1243
G1 X148.405 Y189.245 E29.1490
G1 X148.675 Y189.661 E29.1738
G1 X148.986 Y190.046 E29.1984
G1 X149.336 Y190.397 E29.2232
G1 X149.721 Y190.709 E29.2479
G1 X150.135 Y190.978 E29.2725
G1 X150.576 Y191.205 E29.2973
G1 X151.039 Y191.382 E29.3220
G1 X151.516 Y191.511 E29.3467
G1 X152.006 Y191.588 E29.3714
G1 X152.500 Y191.615 E29.3961
G1 X152.994 Y191.588 E29.4208
G1 X153.484 Y191.511 E29.4455
G1 X153.961 Y191.382 E29.4702
G1 X154.424 Y191.205 E29.4949
G1 X154.865 Y190.978 E29.5196
G1 X155.279 Y190.709 E29.5443
G1 X155.664 Y190.397 E29.5690
G1 X156.014 Y190.046 E29.5937
G1 X156.325 Y189.661 E29.6184
G1 X156.595 Y189.245 E29.6432
G1 X156.820 Y188.803 E29.6679
G1 X156.997 Y188.339 E29.6927
G1 X157.125 Y187.861 E29.7174
G1 X157.202 Y187.371 E29.7421
G1 X157.229 Y186.876 E29.7668
G1 X157.202 Y186.380 E29.7916
G1 X157.125 Y185.890 E29.8164
G1 X156.997 Y185.412 E29.8411
G1 X156.820 Y184.949 E29.8658
G1 X156.595 Y184.507 E29.8905
G1 X156.325 Y184.091 E29.9153
G1 X156.014 Y183.705 E29.9400
G1 X155.664 Y183.355 E29.9647
G1 X155.280 Y183.042 E29.9894
G1 X154.865 Y182.772 E30.0141
G1 X154.424 Y182.547 E30.0388
G1 X153.961 Y182.369 E30.0636
G1 X153.483 Y182.240 E30.0883
G1 X152.994 Y182.164 E30.1130
G1 X152.500 Y182.137 E30.1376
G0 F9000 X152.500 Y182.538
;TYPE:WALL-OUTER
;WIDTH:0.400
G1 F1500 X152.048 Y182.562 E30.1602
G1 X151.600 Y182.632 E30.1828
G1 X151.163 Y182.750 E30.2054
G1 X150.739 Y182.913 E30.2281
G1 X150.336 Y183.119 E30.2507
G1 X149.956 Y183.366 E30.2733
G1 X149.604 Y183.652 E30.2959
G1 X149.284 Y183.973 E30.3185
G1 X148.999 Y184.326 E30.3412
G1 X148.752 Y184.707 E30.3638
G1 X148.546 Y185.112 E30.3865
G1 X148.384 Y185.535 E30.4091
G1 X148.267 Y185.973 E30.4317
G1 X148.196 Y186.422 E30.4544
G1 X148.173 Y186.876 E30.4771
G1 X148.196 Y187.329 E30.4997
G1 X148.267 Y187.778 E30.5224
G1 X148.384 Y188.216 E30.5450
G1 X148.546 Y188.640 E30.5676
G1 X148.752 Y189.045 E30.5903
G1 X148.999 Y189.426 E30.6129
G1 X149.284 Y189.778 E30.6355
G1 X149.604 Y190.100 E30.6582
G1 X149.956 Y190.385 E30.6808
G1 X150.336 Y190.632 E30.7034
G1 X150.739 Y190.839 E30.7260
G1 X151.163 Y191.001 E30.7486
G1 X151.600 Y191.119 E30.7712
G1 X152.048 Y191.190 E30.7939
G1 X152.500 Y191.214 E30.8164
G1 X152.952 Y191.190 E30.8390
G1 X153.400 Y191.119 E30.8617
G1 X153.837 Y191.001 E30.8842
G1 X154.261 Y190.839 E30.9069
G1 X154.664 Y190.632 E30.9295
G1 X155.044 Y190.385 E30.9521
G1 X155.396 Y190.100 E30.9747
G1 X155.716 Y189.778 E30.9973
G1 X156.001 Y189.426 E31.0199
G1 X156.248 Y189.045 E31.0426
G1 X156.454 Y188.640 E31.0653
G1 X156.616 Y188.216 E31.0879
G1 X156.733 Y187.778 E31.1105
G1 X156.804 Y187.329 E31.1332
G1 X156.828 Y186.876 E31.1558
G1 X156.804 Y186.422 E31.1785
G1 X156.733 Y185.973 E31.2012
G1 X156.616 Y185.535 E31.2238
G1 X156.454 Y185.112 E31.2464
G1 X156.248 Y184.707 E31.2691
G1 X156.001 Y184.326 E31.2917
G1 X155.716 Y183.973 E31.3144
G1 X155.396 Y183.652 E31.3370
G1 X155.044 Y183.366 E31.3596
G1 X154.664 Y183.119 E31.3822
G1 X154.261 Y182.913 E31.4048
G1 X153.837 Y182.750 E31.4275
G1 X153.400 Y182.632 E31.4500
G1 X152.952 Y182.562 E31.4727
G1 X152.500 Y182.538 E31.4952
G1 F1200 E30.4952
G0 F9000 X167.540 Y203.227
G1 F1200 E31.4952
G1 F1500 X137.460 Y203.227 E32.9959
G1 X137.460 Y101.773 E38.0575
G1 X167.540 Y101.773 E39.5582
G1 X167.540 Y203.227 E44.6198
G1 F1200 E43.6198
G0 F9000 X153.400 Y122.368
G1 F1200 E44.6198
G1 F1500 X153.837 Y122.250 E44.6423
G1 X154.261 Y122.087 E44.6650
G1 X154.664 Y121.881 E44.6876
G1 X155.044 Y121.634 E44.7102
G1 X155.396 Y121.348 E44.7328
G1 X155.716 Y121.027 E44.7554
G1 X156.001 Y120.674 E44.7781
G1 X156.248 Y120.293 E44.8007
G1 X156.454 Y119.888 E44.8234
G1 X156.616 Y119.465 E44.8460
G1 X156.733 Y119.027 E44.8686
G1 X156.804 Y118.578 E44.8913
G1 X156.828 Y118.124 E44.9140
G1 X156.804 Y117.671 E44.9366
G1 X156.733 Y117.222 E44.9593
G1 X156.616 Y116.784 E44.9819
G1 X156.454 Y116.360 E45.0045
G1 X156.248 Y115.955 E45.0272
G1 X156.001 Y115.574 E45.0499
G1 X155.716 Y115.222 E45.0725
G1 X155.396 Y114.900 E45.0951
G1 X155.044 Y114.615 E45.1177
G1 X154.664 Y114.368 E45.1403
G1 X154.261 Y114.161 E45.1629
G1 X153.837 Y113.999 E45.1856
G1 X153.400 Y113.881 E45.2081
G1 X152.952 Y113.810 E45.2308
G1 X152.500 Y113.786 E45.2534
G1 X152.048 Y113.810 E45.2759
G1 X151.600 Y113.881 E45.2986
G1 X151.163 Y113.999 E45.3212
G1 X150.739 Y114.161 E45.3438
G1 X150.336 Y114.368 E45.3664
G1 X149.956 Y114.615 E45.3890
G1 X149.604 Y114.900 E45.4116
G1 X149.284 Y115.222 E45.4343
G1 X148.999 Y115.574 E45.4569
G1 X148.752 Y115.955 E45.4795
G1 X148.546 Y116.360 E45.5022
G1 X148.384 Y116.784 E45.5248
G1 X148.267 Y117.222 E45.5474
G1 X148.196 Y117.671 E45.5701
G1 X148.173 Y118.124 E45.5927
G1 X148.196 Y118.578 E45.6154
G1 X148.267 Y119.027 E45.6381
G1 X148.384 Y119.465 E45.6607
G1 X148.546 Y119.888 E45.6833
G1 X148.752 Y120.293 E45.7060
G1 X148.999 Y120.674 E45.7286
G1 X149.284 Y121.027 E45.7513
G1 X149.604 Y121.348 E45.7739
G1 X149.956 Y121.634 E45.7965
G1 X150.336 Y121.881 E45.8191
G1 X150.739 Y122.087 E45.8417
G1 X151.163 Y122.250 E45.8644
G1 X151.600 Y122.368 E45.8870
G1 X152.048 Y122.438 E45.9096
G1 X152.500 Y122.462 E45.9322
G1 X152.952 Y122.438 E45.9547
G1 X153.400 Y122.368 E45.9774
G1 F1200 E44.9774
G0 F9000 X167.060 Y102.855
;TYPE:SOLID-FILL
;WIDTH:0.400
G1 F1200 E45.9774
G1 F1800 X166.458 Y102.253 E46.0198
G1 F1200 E45.0198
G0 F9000 X165.892 Y102.253
G1 F1200 E46.0198
G1 F1800 X167.060 Y103.420 E46.1022
G1 F1200 E45.1022
G0 F9000 X167.060 Y103.986
G1 F1200 E46.1022
G1 F1800 X165.327 Y102.253 E46.2245
G1 F1200 E45.2245
G0 F9000 X164.761 Y102.253
G1 F1200 E46.2245
G1 F1800 X167.060 Y104.552 E46.3867
G1 F1200 E45.3867
G0 F9000 X167.060 Y105.117
G1 F1200 E46.3867
G1 F1800 X164.195 Y102.253 E46.5888
G1 F1200 E45.5888
G0 F9000 X163.630 Y102.253
G1 F1200 E46.5888
G1 F1800 X167.060 Y105.683 E46.8308
G1 F1200 E45.8308
G0 F9000 X167.060 Y106.249
G1 F1200 E46.8308
G1 F1800 X163.064 Y102.253 E47.1127
G1 F1200 E46.1127
G0 F9000 X162.498 Y102.253
G1 F1200 E47.1127
G1 F1800 X167.060 Y106.814 E47.4346
G1 F1200 E46.4346
G0 F9000 X167.060 Y107.380
G1 F1200 E47.4346
G1 F1800 X161.933 Y102.253 E47.7963
G1 F1200 E46.7963
G0 F9000 X161.367 Y102.253
G1 F1200 E47.7963
G1 F1800 X167.060 Y107.946 E48.1980
G1 F1200 E47.1980
G0 F9000 X167.060 Y108.511
G1 F1200 E48.1980
G1 F1800 X160.801 Y102.253 E48.6396
G1 F1200 E47.6396
G0 F9000 X160.236 Y102.253
G1 F1200 E48.6396
G1 F1800 X167.060 Y109.077 E49.1210
G1 F1200 E48.1210
G0 F9000 X167.060 Y109.643
G1 F1200 E49.1210
G1 F1800 X159.670 Y102.253 E49.6424
G1 F1200 E48.6424
G0 F9000 X159.104 Y102.253
G1 F1200 E49.6424
G1 F1800 X167.060 Y110.208 E50.2037
G1 F1200 E49.2037
G0 F9000 X167.060 Y110.774
G1 F1200 E50.2037
G1 F1800 X158.538 Y102.253 E50.8050
G1 F1200 E49.8050
G0 F9000 X157.973 Y102.253
G1 F1200 E50.8050
G1 F1800 X167.060 Y111.340 E51.4461
G1 F1200 E50.4461
G0 F9000 X167.060 Y111.906
G1 F1200 E51.4461
G1 F1800 X157.407 Y102.253 E52.1272
G1 F1200 E51.1272
G0 F9000 X156.841 Y102.253
G1 F1200 E52.1272
G1 F1800 X167.060 Y112.471 E52.8482
G1 F1200 E51.8482
G0 F9000 X167.060 Y113.037
G1 F1200 E52.8482
G1 F1800 X156.276 Y102.253 E53.6090
G1 F1200 E52.6090
G0 F9000 X155.710 Y102.253
G1 F1200 E53.6090
G1 F1800 X167.060 Y113.603 E54.4098
G1 F1200 E53.4098
G0 F9000 X167.060 Y114.168
G1 F1200 E54.4098
G1 F1800 X155.144 Y102.253 E55.2505
G1 F1200 E54.2505
G0 F9000 X154.579 Y102.253
G1 F1200 E55.2505
G1 F1800 X167.060 Y114.734 E56.1311
G1 F1200 E55.1311
G0 F9000 X167.060 Y115.300
G1 F1200 E56.1311
G1 F1800 X154.013 Y102.253 E57.0517
G1 F1200 E56.0517
G0 F9000 X153.447 Y102.253
G1 F1200 E57.0517
G1 F1800 X167.060 Y115.865 E58.0121
G1 F1200 E57.0121
G0 F9000 X167.060 Y116.431
G1 F1200 E58.0121
G1 F1800 X152.882 Y102.253 E59.0124
G1 F1200 E58.0124
G0 F9000 X152.316 Y102.253
G1 F1200 E59.0124
G1 F1800 X167.060 Y116.997 E60.0527
G1 F1200 E59.0527
G0 F9000 X167.060 Y117.562
G1 F1200 E60.0527
G1 F1800 X151.750 Y102.253 E61.1329
G1 F1200 E60.1329
G0 F9000 X151.185 Y102.253
G1 F1200 E61.1329
G1 F1800 X167.060 Y118.128 E62.2529
G1 F1200 E61.2529
G0 F9000 X167.060 Y118.694
G1 F1200 E62.2529
G1 F1800 X150.619 Y102.253 E63.4129
G1 F1200 E62.4129
G0 F9000 X150.053 Y102.253
G1 F1200 E63.4129
G1 F1800 X167.060 Y119.259 E64.6128
G1 F1200 E63.6128
G0 F9000 X167.060 Y119.825
G1 F1200 E64.6128
G1 F1800 X149.488 Y102.253 E65.8526
G1 F1200 E64.8526
G0 F9000 X148.922 Y102.253
G1 F1200 E65.8526
G1 F1800 X167.060 Y120.391 E67.1324
G1 F1200 E66.1324
G0 F9000 X167.060 Y120.956
G1 F1200 E67.1324
G1 F1800 X148.356 Y102.253 E68.4520
G1 F1200 E67.4520
G0 F9000 X147.790 Y102.253
G1 F1200 E68.4520
G1 F1800 X167.060 Y121.522 E69.8116
G1 F1200 E68.8116
G0 F9000 X167.060 Y122.088
G1 F1200 E69.8116
G1 F1800 X147.225 Y102.253 E71.2110
G1 F1200 E70.2110
G0 F9000 X146.659 Y102.253
G1 F1200 E71.2110
G1 F1800 X167.060 Y122.654 E72.6504
G1 F1200 E71.6504
G0 F9000 X167.060 Y123.219
G1 F1200 E72.6504
G1 F1800 X146.093 Y102.253 E74.1297
G1 F1200 E73.1297
G0 F9000 X145.528 Y102.253
G1 F1200 E74.1297
G1 F1800 X167.060 Y123.785 E75.6489
G1 F1200 E74.6489
G0 F9000 X167.060 Y124.351
G1 F1200 E75.6489
G1 F1800 X144.962 Y102.253 E77.2081
G1 F1200 E76.2081
G0 F9000 X144.396 Y102.253
G1 F1200 E77.2081
G1 F1800 X167.060 Y124.916 E78.8071
G1 F1200 E77.8071
G0 F9000 X167.060 Y125.482
G1 F1200 E78.8071
G1 F1800 X143.831 Y102.253 E80.4460
G1 F1200 E79.4460
G0 F9000 X143.265 Y102.253
G1 F1200 E80.4460
G1 F1800 X155.079 Y114.066 E81.2795
G1 F1200 E80.2795
G0 F9000 X153.990 Y113.544
G1 F1200 E81.2795
G1 F1800 X142.699 Y102.253 E82.0762
G1 F1200 E81.0762
G0 F9000 X142.134 Y102.253
G1 F1200 E82.0762
G1 F1800 X153.251 Y113.371 E82.8606
G1 F1200 E81.8606
G0 F9000 X152.626 Y113.311
G1 F1200 E82.8606
G1 F1800 X141.568 Y102.253 E83.6408
G1 F1200 E82.6408
G0 F9000 X141.002 Y102.253
G1 F1200 E83.6408
G1 F1800 X152.077 Y113.328 E84.4222
G1 F1200 E83.4222
G0 F9000 X151.581 Y113.397
G1 F1200 E84.4222
G1 F1800 X140.437 Y102.253 E85.2085
G1 F1200 E84.2085
G0 F9000 X139.871 Y102.253
G1 F1200 E85.2085
G1 F1800 X151.128 Y113.510 E86.0027
G0 F9000 X150.709 Y113.657
G1 F1800 X139.305 Y102.253 E86.8073
G1 F1200 E85.8073
G0 F9000 X138.740 Y102.253
G1 F1200 E86.8073
G1 F1800 X150.321 Y113.834 E87.6244
G0 F9000 X149.960 Y114.039
G1 F1800 X138.174 Y102.253 E88.4560
G0 F9000 X137.939 Y102.584
G1 F1800 X149.622 Y114.267 E89.2803
G0 F9000 X149.310 Y114.520
G1 F1800 X137.939 Y103.149 E90.0826
G1 F1200 E89.0826
G0 F9000 X137.939 Y103.715
G1 F1200 E90.0826
G1 F1800 X149.024 Y114.800 E90.8647
G0 F9000 X148.762 Y115.104
G1 F1800 X137.939 Y104.281 E91.6283
G1 F1200 E90.6283
G0 F9000 X137.939 Y104.846
G1 F1200 E91.6283
G1 F1800 X148.521 Y115.428 E92.3749
G0 F9000 X148.303 Y115.776
